;  Created by Sandify
;  https://sandify.org
;  Version: 0.2.8
;
;  Machine type: Rectangular
;    Min X (mm): 0
;    Max X (mm): 100
;    Min Y (mm): 0
;    Max Y (mm): 100
;  Content type: shape
;  Layer:
;    Shape: Text
;    Name: star
;    Text: 0
;    Font: Monospace
;    Rotate: Center
;    Visible: true
;    Initial width: 17
;    Initial height: 16
;    X offset: -39
;    Y offset: 0
;    Rotate (degrees): 0
;    Reverse path: false
;    Fine tuning:
;      Connect to next layer: along perimeter
;      Draw portion of path (%): 100
;      Backtrack at end (%): 0
;      Rotate starting point (%): 0
;  Reverse export path: false
;
; File name: '0'
; File type: gcode
;

G1 X0.000 Y0.000
G1 X0.000 Y11.863
G1 X9.406 Y24.000
G1 X9.406 Y30.000
G1 X9.797 Y30.025
G1 X10.187 Y30.101
G1 X10.576 Y30.227
G1 X10.961 Y30.404
G1 X11.342 Y30.629
G1 X11.719 Y30.904
G1 X12.091 Y31.228
G1 X12.456 Y31.599
G1 X12.813 Y32.016
G1 X13.163 Y32.480
G1 X13.503 Y32.988
G1 X13.833 Y33.539
G1 X14.153 Y34.133
G1 X14.462 Y34.767
G1 X14.758 Y35.440
G1 X15.041 Y36.151
G1 X15.311 Y36.897
G1 X15.566 Y37.678
G1 X15.807 Y38.490
G1 X16.032 Y39.333
G1 X16.241 Y40.204
G1 X16.434 Y41.101
G1 X16.610 Y42.021
G1 X16.768 Y42.964
G1 X16.909 Y43.925
G1 X17.032 Y44.904
G1 X17.136 Y45.897
G1 X17.222 Y46.903
G1 X17.289 Y47.919
G1 X17.337 Y48.942
G1 X17.365 Y49.970
G1 X17.375 Y51.000
G1 X17.365 Y52.030
G1 X17.337 Y53.058
G1 X17.289 Y54.081
G1 X17.222 Y55.097
G1 X17.136 Y56.103
G1 X17.032 Y57.096
G1 X16.909 Y58.075
G1 X16.768 Y59.036
G1 X16.610 Y59.979
G1 X16.434 Y60.899
G1 X16.241 Y61.796
G1 X16.032 Y62.667
G1 X15.807 Y63.510
G1 X15.566 Y64.322
G1 X15.311 Y65.103
G1 X15.041 Y65.849
G1 X14.758 Y66.560
G1 X14.462 Y67.233
G1 X14.153 Y67.867
G1 X13.833 Y68.461
G1 X13.503 Y69.012
G1 X13.163 Y69.520
G1 X12.813 Y69.984
G1 X12.456 Y70.401
G1 X12.091 Y70.772
G1 X11.719 Y71.096
G1 X11.342 Y71.371
G1 X10.961 Y71.596
G1 X10.576 Y71.773
G1 X10.187 Y71.899
G1 X9.797 Y71.975
G1 X9.406 Y72.000
G1 X9.015 Y71.975
G1 X8.625 Y71.899
G1 X8.237 Y71.773
G1 X7.852 Y71.596
G1 X7.470 Y71.371
G1 X7.093 Y71.096
G1 X6.722 Y70.772
G1 X6.357 Y70.401
G1 X5.999 Y69.984
G1 X5.650 Y69.520
G1 X5.309 Y69.012
G1 X4.979 Y68.461
G1 X4.659 Y67.867
G1 X4.351 Y67.233
G1 X4.055 Y66.560
G1 X3.771 Y65.849
G1 X3.502 Y65.103
G1 X3.246 Y64.322
G1 X3.006 Y63.510
G1 X2.780 Y62.667
G1 X2.571 Y61.796
G1 X2.378 Y60.899
G1 X2.203 Y59.979
G1 X2.044 Y59.036
G1 X1.903 Y58.075
G1 X1.781 Y57.096
G1 X1.676 Y56.103
G1 X1.591 Y55.097
G1 X1.524 Y54.081
G1 X1.476 Y53.058
G1 X1.447 Y52.030
G1 X1.438 Y51.000
G1 X1.447 Y49.970
G1 X1.476 Y48.942
G1 X1.524 Y47.919
G1 X1.591 Y46.903
G1 X1.676 Y45.897
G1 X1.781 Y44.904
G1 X1.903 Y43.925
G1 X2.044 Y42.964
G1 X2.203 Y42.021
G1 X2.378 Y41.101
G1 X2.571 Y40.204
G1 X2.780 Y39.333
G1 X3.006 Y38.490
G1 X3.246 Y37.678
G1 X3.502 Y36.897
G1 X3.771 Y36.151
G1 X4.055 Y35.440
G1 X4.351 Y34.767
G1 X4.659 Y34.133
G1 X4.979 Y33.539
G1 X5.309 Y32.988
G1 X5.650 Y32.480
G1 X5.999 Y32.016
G1 X6.357 Y31.599
G1 X6.722 Y31.228
G1 X7.093 Y30.904
G1 X7.470 Y30.629
G1 X7.852 Y30.404
G1 X8.237 Y30.227
G1 X8.625 Y30.101
G1 X9.015 Y30.025
G1 X9.406 Y30.000
G1 X9.406 Y24.000
G1 X23.750 Y24.000

