;  Created by Sandify
;  https://sandify.org
;  Version: 0.2.8
;
;  Machine type: Rectangular
;    Min X (mm): 0
;    Max X (mm): 100
;    Min Y (mm): 0
;    Max Y (mm): 100
;  Content type: shape
;  Layer:
;    Shape: Text
;    Name: star
;    Text: 4
;    Font: Monospace
;    Rotate: Center
;    Visible: true
;    Initial width: 17
;    Initial height: 16
;    X offset: -39
;    Y offset: 0
;    Rotate (degrees): 0
;    Reverse path: false
;    Fine tuning:
;      Connect to next layer: along perimeter
;      Draw portion of path (%): 100
;      Backtrack at end (%): 0
;      Rotate starting point (%): 0
;  Reverse export path: false
;
; File name: '4'
; File type: gcode
;

G1 X0.000 Y0.000
G1 X0.000 Y11.863
G1 X9.406 Y24.000
G1 X9.406 Y30.000
G1 X9.406 Y72.000
G1 X1.438 Y51.000
G1 X17.375 Y51.000
G1 X9.406 Y51.000
G1 X9.406 Y24.000
G1 X23.750 Y24.000

