;  Created by Sandify
;  https://sandify.org
;  Version: 0.2.8
;
;  Machine type: Rectangular
;    Min X (mm): 0
;    Max X (mm): 100
;    Min Y (mm): 0
;    Max Y (mm): 100
;  Content type: shape
;  Layer:
;    Shape: Text
;    Name: star
;    Text: 6
;    Font: Monospace
;    Rotate: Center
;    Visible: true
;    Initial width: 17
;    Initial height: 16
;    X offset: -39
;    Y offset: 0
;    Rotate (degrees): 0
;    Reverse path: false
;    Fine tuning:
;      Connect to next layer: along perimeter
;      Draw portion of path (%): 100
;      Backtrack at end (%): 0
;      Rotate starting point (%): 0
;  Reverse export path: false
;
; File name: '6'
; File type: gcode
;

G1 X0.000 Y0.000
G1 X0.000 Y11.863
G1 X9.406 Y24.000
G1 X9.406 Y30.000
G1 X9.015 Y30.013
G1 X8.625 Y30.051
G1 X8.237 Y30.114
G1 X7.852 Y30.202
G1 X7.470 Y30.315
G1 X7.093 Y30.452
G1 X6.722 Y30.614
G1 X6.357 Y30.799
G1 X5.999 Y31.008
G1 X5.650 Y31.240
G1 X5.309 Y31.494
G1 X4.979 Y31.770
G1 X4.659 Y32.066
G1 X4.351 Y32.383
G1 X4.055 Y32.720
G1 X3.771 Y33.075
G1 X3.502 Y33.449
G1 X3.246 Y33.839
G1 X3.006 Y34.245
G1 X2.780 Y34.667
G1 X2.571 Y35.102
G1 X2.378 Y35.550
G1 X2.203 Y36.011
G1 X2.044 Y36.482
G1 X1.903 Y36.963
G1 X1.781 Y37.452
G1 X1.676 Y37.949
G1 X1.591 Y38.452
G1 X1.524 Y38.959
G1 X1.476 Y39.471
G1 X1.447 Y39.985
G1 X1.438 Y40.500
G1 X1.454 Y42.046
G1 X1.503 Y43.588
G1 X1.584 Y45.122
G1 X1.698 Y46.645
G1 X1.843 Y48.154
G1 X2.021 Y49.644
G1 X2.229 Y51.112
G1 X2.469 Y52.555
G1 X2.738 Y53.968
G1 X3.037 Y55.349
G1 X3.365 Y56.694
G1 X3.721 Y58.000
G1 X4.103 Y59.265
G1 X4.512 Y60.483
G1 X4.947 Y61.654
G1 X5.405 Y62.774
G1 X5.887 Y63.840
G1 X6.390 Y64.850
G1 X6.915 Y65.801
G1 X7.458 Y66.691
G1 X8.020 Y67.518
G1 X8.598 Y68.281
G1 X9.192 Y68.976
G1 X9.800 Y69.602
G1 X10.421 Y70.159
G1 X11.052 Y70.644
G1 X11.693 Y71.056
G1 X12.342 Y71.395
G1 X12.997 Y71.659
G1 X13.657 Y71.848
G1 X14.320 Y71.962
G1 X14.984 Y72.000
G1 X14.320 Y71.962
G1 X13.657 Y71.848
G1 X12.997 Y71.659
G1 X12.342 Y71.395
G1 X11.693 Y71.056
G1 X11.052 Y70.644
G1 X10.421 Y70.159
G1 X9.800 Y69.602
G1 X9.192 Y68.976
G1 X8.598 Y68.281
G1 X8.020 Y67.518
G1 X7.458 Y66.691
G1 X6.915 Y65.801
G1 X6.390 Y64.850
G1 X5.887 Y63.840
G1 X5.405 Y62.774
G1 X4.947 Y61.654
G1 X4.512 Y60.483
G1 X4.103 Y59.265
G1 X3.721 Y58.000
G1 X3.365 Y56.694
G1 X3.037 Y55.349
G1 X2.738 Y53.968
G1 X2.469 Y52.555
G1 X2.229 Y51.112
G1 X2.021 Y49.644
G1 X1.843 Y48.154
G1 X1.698 Y46.645
G1 X1.584 Y45.122
G1 X1.503 Y43.588
G1 X1.454 Y42.046
G1 X1.438 Y40.500
G1 X1.447 Y39.985
G1 X1.476 Y39.471
G1 X1.524 Y38.959
G1 X1.591 Y38.452
G1 X1.676 Y37.949
G1 X1.781 Y37.452
G1 X1.903 Y36.963
G1 X2.044 Y36.482
G1 X2.203 Y36.011
G1 X2.378 Y35.550
G1 X2.571 Y35.102
G1 X2.780 Y34.667
G1 X3.006 Y34.245
G1 X3.246 Y33.839
G1 X3.502 Y33.449
G1 X3.771 Y33.075
G1 X4.055 Y32.720
G1 X4.351 Y32.383
G1 X4.659 Y32.066
G1 X4.979 Y31.770
G1 X5.309 Y31.494
G1 X5.650 Y31.240
G1 X5.999 Y31.008
G1 X6.357 Y30.799
G1 X6.722 Y30.614
G1 X7.093 Y30.452
G1 X7.470 Y30.315
G1 X7.852 Y30.202
G1 X8.237 Y30.114
G1 X8.625 Y30.051
G1 X9.015 Y30.013
G1 X9.406 Y30.000
G1 X9.797 Y30.013
G1 X10.187 Y30.051
G1 X10.576 Y30.114
G1 X10.961 Y30.202
G1 X11.342 Y30.315
G1 X11.719 Y30.452
G1 X12.091 Y30.614
G1 X12.456 Y30.799
G1 X12.813 Y31.008
G1 X13.163 Y31.240
G1 X13.503 Y31.494
G1 X13.833 Y31.770
G1 X14.153 Y32.066
G1 X14.462 Y32.383
G1 X14.758 Y32.720
G1 X15.041 Y33.075
G1 X15.311 Y33.449
G1 X15.566 Y33.839
G1 X15.807 Y34.245
G1 X16.032 Y34.667
G1 X16.241 Y35.102
G1 X16.434 Y35.550
G1 X16.610 Y36.011
G1 X16.768 Y36.482
G1 X16.909 Y36.963
G1 X17.032 Y37.452
G1 X17.136 Y37.949
G1 X17.222 Y38.452
G1 X17.289 Y38.959
G1 X17.337 Y39.471
G1 X17.365 Y39.985
G1 X17.375 Y40.500
G1 X17.365 Y41.015
G1 X17.337 Y41.529
G1 X17.289 Y42.041
G1 X17.222 Y42.548
G1 X17.136 Y43.051
G1 X17.032 Y43.548
G1 X16.909 Y44.037
G1 X16.768 Y44.518
G1 X16.610 Y44.989
G1 X16.434 Y45.450
G1 X16.241 Y45.898
G1 X16.032 Y46.333
G1 X15.807 Y46.755
G1 X15.566 Y47.161
G1 X15.311 Y47.551
G1 X15.041 Y47.925
G1 X14.758 Y48.280
G1 X14.462 Y48.617
G1 X14.153 Y48.934
G1 X13.833 Y49.230
G1 X13.503 Y49.506
G1 X13.163 Y49.760
G1 X12.813 Y49.992
G1 X12.456 Y50.201
G1 X12.091 Y50.386
G1 X11.719 Y50.548
G1 X11.342 Y50.685
G1 X10.961 Y50.798
G1 X10.576 Y50.886
G1 X10.187 Y50.949
G1 X9.797 Y50.987
G1 X9.406 Y51.000
G1 X9.015 Y50.987
G1 X8.625 Y50.949
G1 X8.237 Y50.886
G1 X7.852 Y50.798
G1 X7.470 Y50.685
G1 X7.093 Y50.548
G1 X6.722 Y50.386
G1 X6.357 Y50.201
G1 X5.999 Y49.992
G1 X5.650 Y49.760
G1 X5.309 Y49.506
G1 X4.979 Y49.230
G1 X4.659 Y48.934
G1 X4.351 Y48.617
G1 X4.055 Y48.280
G1 X3.771 Y47.925
G1 X3.502 Y47.551
G1 X3.246 Y47.161
G1 X3.006 Y46.755
G1 X2.780 Y46.333
G1 X2.571 Y45.898
G1 X2.378 Y45.450
G1 X2.203 Y44.989
G1 X2.044 Y44.518
G1 X1.903 Y44.037
G1 X1.781 Y43.548
G1 X1.676 Y43.051
G1 X1.591 Y42.548
G1 X1.524 Y42.041
G1 X1.476 Y41.529
G1 X1.447 Y41.015
G1 X1.438 Y40.500
G1 X1.447 Y39.985
G1 X1.476 Y39.471
G1 X1.524 Y38.959
G1 X1.591 Y38.452
G1 X1.676 Y37.949
G1 X1.781 Y37.452
G1 X1.903 Y36.963
G1 X2.044 Y36.482
G1 X2.203 Y36.011
G1 X2.378 Y35.550
G1 X2.571 Y35.102
G1 X2.780 Y34.667
G1 X3.006 Y34.245
G1 X3.246 Y33.839
G1 X3.502 Y33.449
G1 X3.771 Y33.075
G1 X4.055 Y32.720
G1 X4.351 Y32.383
G1 X4.659 Y32.066
G1 X4.979 Y31.770
G1 X5.309 Y31.494
G1 X5.650 Y31.240
G1 X5.999 Y31.008
G1 X6.357 Y30.799
G1 X6.722 Y30.614
G1 X7.093 Y30.452
G1 X7.470 Y30.315
G1 X7.852 Y30.202
G1 X8.237 Y30.114
G1 X8.625 Y30.051
G1 X9.015 Y30.013
G1 X9.406 Y30.000
G1 X9.406 Y24.000
G1 X23.750 Y24.000

