;  Created by Sandify
;  https://sandify.org
;  Version: 0.2.8
;
;  Machine type: Rectangular
;    Min X (mm): 0
;    Max X (mm): 100
;    Min Y (mm): 0
;    Max Y (mm): 100
;  Content type: shape
;  Layer:
;    Shape: Text
;    Name: star
;    Text: 9
;    Font: Monospace
;    Rotate: Center
;    Visible: true
;    Initial width: 17
;    Initial height: 16
;    X offset: -39
;    Y offset: 0
;    Rotate (degrees): 0
;    Reverse path: false
;    Fine tuning:
;      Connect to next layer: along perimeter
;      Draw portion of path (%): 100
;      Backtrack at end (%): 0
;      Rotate starting point (%): 0
;  Reverse export path: false
;
; File name: '9'
; File type: gcode
;

G1 X0.000 Y0.000
G1 X0.000 Y11.863
G1 X9.406 Y24.000
G1 X9.406 Y30.000
G1 X9.797 Y30.038
G1 X10.187 Y30.152
G1 X10.576 Y30.341
G1 X10.961 Y30.605
G1 X11.342 Y30.944
G1 X11.719 Y31.356
G1 X12.091 Y31.841
G1 X12.456 Y32.398
G1 X12.813 Y33.024
G1 X13.163 Y33.719
G1 X13.503 Y34.482
G1 X13.833 Y35.309
G1 X14.153 Y36.199
G1 X14.462 Y37.150
G1 X14.758 Y38.160
G1 X15.041 Y39.226
G1 X15.311 Y40.346
G1 X15.566 Y41.517
G1 X15.807 Y42.735
G1 X16.032 Y44.000
G1 X16.241 Y45.306
G1 X16.434 Y46.651
G1 X16.610 Y48.032
G1 X16.768 Y49.445
G1 X16.909 Y50.888
G1 X17.032 Y52.356
G1 X17.136 Y53.846
G1 X17.222 Y55.355
G1 X17.289 Y56.878
G1 X17.337 Y58.412
G1 X17.365 Y59.954
G1 X17.375 Y61.500
G1 X17.365 Y62.015
G1 X17.337 Y62.529
G1 X17.289 Y63.041
G1 X17.222 Y63.548
G1 X17.136 Y64.051
G1 X17.032 Y64.548
G1 X16.909 Y65.037
G1 X16.768 Y65.518
G1 X16.610 Y65.989
G1 X16.434 Y66.450
G1 X16.241 Y66.898
G1 X16.032 Y67.333
G1 X15.807 Y67.755
G1 X15.566 Y68.161
G1 X15.311 Y68.551
G1 X15.041 Y68.925
G1 X14.758 Y69.280
G1 X14.462 Y69.617
G1 X14.153 Y69.934
G1 X13.833 Y70.230
G1 X13.503 Y70.506
G1 X13.163 Y70.760
G1 X12.813 Y70.992
G1 X12.456 Y71.201
G1 X12.091 Y71.386
G1 X11.719 Y71.548
G1 X11.342 Y71.685
G1 X10.961 Y71.798
G1 X10.576 Y71.886
G1 X10.187 Y71.949
G1 X9.797 Y71.987
G1 X9.406 Y72.000
G1 X9.015 Y71.987
G1 X8.625 Y71.949
G1 X8.237 Y71.886
G1 X7.852 Y71.798
G1 X7.470 Y71.685
G1 X7.093 Y71.548
G1 X6.722 Y71.386
G1 X6.357 Y71.201
G1 X5.999 Y70.992
G1 X5.650 Y70.760
G1 X5.309 Y70.506
G1 X4.979 Y70.230
G1 X4.659 Y69.934
G1 X4.351 Y69.617
G1 X4.055 Y69.280
G1 X3.771 Y68.925
G1 X3.502 Y68.551
G1 X3.246 Y68.161
G1 X3.006 Y67.755
G1 X2.780 Y67.333
G1 X2.571 Y66.898
G1 X2.378 Y66.450
G1 X2.203 Y65.989
G1 X2.044 Y65.518
G1 X1.903 Y65.037
G1 X1.781 Y64.548
G1 X1.676 Y64.051
G1 X1.591 Y63.548
G1 X1.524 Y63.041
G1 X1.476 Y62.529
G1 X1.447 Y62.015
G1 X1.438 Y61.500
G1 X1.447 Y60.985
G1 X1.476 Y60.471
G1 X1.524 Y59.959
G1 X1.591 Y59.452
G1 X1.676 Y58.949
G1 X1.781 Y58.452
G1 X1.903 Y57.963
G1 X2.044 Y57.482
G1 X2.203 Y57.011
G1 X2.378 Y56.550
G1 X2.571 Y56.102
G1 X2.780 Y55.667
G1 X3.006 Y55.245
G1 X3.246 Y54.839
G1 X3.502 Y54.449
G1 X3.771 Y54.075
G1 X4.055 Y53.720
G1 X4.351 Y53.383
G1 X4.659 Y53.066
G1 X4.979 Y52.770
G1 X5.309 Y52.494
G1 X5.650 Y52.240
G1 X5.999 Y52.008
G1 X6.357 Y51.799
G1 X6.722 Y51.614
G1 X7.093 Y51.452
G1 X7.470 Y51.315
G1 X7.852 Y51.202
G1 X8.237 Y51.114
G1 X8.625 Y51.051
G1 X9.015 Y51.013
G1 X9.406 Y51.000
G1 X9.797 Y51.013
G1 X10.187 Y51.051
G1 X10.576 Y51.114
G1 X10.961 Y51.202
G1 X11.342 Y51.315
G1 X11.719 Y51.452
G1 X12.091 Y51.614
G1 X12.456 Y51.799
G1 X12.813 Y52.008
G1 X13.163 Y52.240
G1 X13.503 Y52.494
G1 X13.833 Y52.770
G1 X14.153 Y53.066
G1 X14.462 Y53.383
G1 X14.758 Y53.720
G1 X15.041 Y54.075
G1 X15.311 Y54.449
G1 X15.566 Y54.839
G1 X15.807 Y55.245
G1 X16.032 Y55.667
G1 X16.241 Y56.102
G1 X16.434 Y56.550
G1 X16.610 Y57.011
G1 X16.768 Y57.482
G1 X16.909 Y57.963
G1 X17.032 Y58.452
G1 X17.136 Y58.949
G1 X17.222 Y59.452
G1 X17.289 Y59.959
G1 X17.337 Y60.471
G1 X17.365 Y60.985
G1 X17.375 Y61.500
G1 X17.365 Y59.954
G1 X17.337 Y58.412
G1 X17.289 Y56.878
G1 X17.222 Y55.355
G1 X17.136 Y53.846
G1 X17.032 Y52.356
G1 X16.909 Y50.888
G1 X16.768 Y49.445
G1 X16.610 Y48.032
G1 X16.434 Y46.651
G1 X16.241 Y45.306
G1 X16.032 Y44.000
G1 X15.807 Y42.735
G1 X15.566 Y41.517
G1 X15.311 Y40.346
G1 X15.041 Y39.226
G1 X14.758 Y38.160
G1 X14.462 Y37.150
G1 X14.153 Y36.199
G1 X13.833 Y35.309
G1 X13.503 Y34.482
G1 X13.163 Y33.719
G1 X12.813 Y33.024
G1 X12.456 Y32.398
G1 X12.091 Y31.841
G1 X11.719 Y31.356
G1 X11.342 Y30.944
G1 X10.961 Y30.605
G1 X10.576 Y30.341
G1 X10.187 Y30.152
G1 X9.797 Y30.038
G1 X9.406 Y30.000
G1 X9.406 Y24.000
G1 X23.750 Y24.000

