;  Created by Sandify
;  https://sandify.org
;  Version: 0.2.8
;
;  Machine type: Rectangular
;    Min X (mm): 0
;    Max X (mm): 120
;    Min Y (mm): 0
;    Max Y (mm): 120
;  Content type: shape
;  Layer:
;    Shape: Clover
;    Name: point
;    Large circle radius: 4
;    Small circle radius: 1
;    Visible: true
;    Initial width: 10
;    Initial height: 10
;    X offset: 0
;    Y offset: 0
;    Rotate (degrees): 0
;    Reverse path: false
;    Number of loops: 10
;    When transforming shape: smear
;    Scale: true
;      Scale (+/-): 100
;      Scale by: constant
;    Spin: false
;    Track: false
;    Fine tuning:
;      Connect to next layer: line
;      Draw portion of path (%): 100
;      Backtrack at end (%): 0
;      Rotate starting point (%): 0
;  Reverse export path: false
;
; File name: 'clover'
; File type: gcode
;

G1 X66.667 Y60.000
G1 X66.759 Y60.004
G1 X66.931 Y60.032
G1 X67.174 Y60.106
G1 X67.476 Y60.248
G1 X67.818 Y60.474
G1 X68.180 Y60.796
G1 X68.537 Y61.223
G1 X68.862 Y61.753
G1 X69.130 Y62.382
G1 X69.318 Y63.097
G1 X69.404 Y63.881
G1 X69.373 Y64.711
G1 X69.214 Y65.562
G1 X68.923 Y66.407
G1 X68.502 Y67.215
G1 X67.962 Y67.962
G1 X67.317 Y68.622
G1 X66.588 Y69.176
G1 X65.801 Y69.608
G1 X64.982 Y69.912
G1 X64.162 Y70.085
G1 X63.368 Y70.134
G1 X62.627 Y70.070
G1 X61.961 Y69.912
G1 X61.387 Y69.683
G1 X60.916 Y69.410
G1 X60.552 Y69.121
G1 X60.293 Y68.845
G1 X60.127 Y68.609
G1 X60.039 Y68.435
G1 X60.005 Y68.344
G1 X60.000 Y68.346
G1 X59.995 Y68.449
G1 X59.961 Y68.650
G1 X59.868 Y68.940
G1 X59.692 Y69.302
G1 X59.412 Y69.714
G1 X59.012 Y70.148
G1 X58.485 Y70.575
G1 X57.831 Y70.963
G1 X57.058 Y71.279
G1 X56.180 Y71.494
G1 X55.219 Y71.585
G1 X54.204 Y71.530
G1 X53.166 Y71.320
G1 X52.140 Y70.948
G1 X51.159 Y70.418
G1 X50.256 Y69.744
G1 X49.462 Y68.943
G1 X48.799 Y68.042
G1 X48.286 Y67.072
G1 X47.930 Y66.067
G1 X47.734 Y65.062
G1 X47.690 Y64.092
G1 X47.782 Y63.188
G1 X47.987 Y62.376
G1 X48.278 Y61.679
G1 X48.622 Y61.108
G1 X48.983 Y60.667
G1 X49.329 Y60.353
G1 X49.626 Y60.153
G1 X49.846 Y60.046
G1 X49.967 Y60.006
G1 X49.974 Y60.000
G1 X49.861 Y59.994
G1 X49.631 Y59.953
G1 X49.295 Y59.842
G1 X48.872 Y59.632
G1 X48.391 Y59.297
G1 X47.884 Y58.820
G1 X47.386 Y58.193
G1 X46.937 Y57.416
G1 X46.573 Y56.497
G1 X46.329 Y55.456
G1 X46.235 Y54.319
G1 X46.312 Y53.119
G1 X46.574 Y51.895
G1 X47.027 Y50.686
G1 X47.666 Y49.533
G1 X48.475 Y48.475
G1 X49.431 Y47.546
G1 X50.504 Y46.774
G1 X51.656 Y46.180
G1 X52.848 Y45.772
G1 X54.038 Y45.553
G1 X55.185 Y45.513
G1 X56.252 Y45.633
G1 X57.208 Y45.887
G1 X58.029 Y46.239
G1 X58.701 Y46.653
G1 X59.218 Y47.088
G1 X59.586 Y47.503
G1 X59.821 Y47.860
G1 X59.946 Y48.126
G1 X59.993 Y48.277
G1 X60.000 Y48.294
G1 X60.007 Y48.171
G1 X60.055 Y47.911
G1 X60.184 Y47.529
G1 X60.429 Y47.046
G1 X60.818 Y46.496
G1 X61.371 Y45.915
G1 X62.099 Y45.347
G1 X63.000 Y44.836
G1 X64.063 Y44.425
G1 X65.267 Y44.153
G1 X66.581 Y44.054
G1 X67.965 Y44.154
G1 X69.377 Y44.468
G1 X70.768 Y45.002
G1 X72.093 Y45.750
G1 X73.307 Y46.693
G1 X74.370 Y47.805
G1 X75.251 Y49.050
G1 X75.926 Y50.385
G1 X76.385 Y51.764
G1 X76.627 Y53.138
G1 X76.663 Y54.461
G1 X76.515 Y55.692
G1 X76.214 Y56.792
G1 X75.799 Y57.737
G1 X75.315 Y58.509
G1 X74.807 Y59.103
G1 X74.323 Y59.526
G1 X73.906 Y59.795
G1 X73.593 Y59.938
G1 X73.333 Y60.000
G1 X73.466 Y60.008
G1 X73.754 Y60.063
G1 X74.182 Y60.209
G1 X74.723 Y60.487
G1 X75.340 Y60.929
G1 X75.991 Y61.557
G1 X76.627 Y62.381
G1 X77.199 Y63.402
G1 X77.656 Y64.606
G1 X77.956 Y65.968
G1 X78.058 Y67.453
G1 X77.936 Y69.016
G1 X77.572 Y70.608
G1 X76.959 Y72.177
G1 X76.106 Y73.669
G1 X75.033 Y75.033
G1 X73.770 Y76.226
G1 X72.359 Y77.212
G1 X70.847 Y77.967
G1 X69.287 Y78.476
G1 X67.734 Y78.740
G1 X66.239 Y78.772
G1 X64.851 Y78.596
G1 X63.610 Y78.249
G1 X62.546 Y77.774
G1 X61.676 Y77.221
G1 X61.008 Y76.643
G1 X60.533 Y76.092
G1 X60.231 Y75.617
G1 X60.070 Y75.258
G1 X60.009 Y75.050
G1 X60.000 Y75.013
G1 X59.991 Y75.156
G1 X59.929 Y75.473
G1 X59.765 Y75.948
G1 X59.452 Y76.549
G1 X58.956 Y77.236
G1 X58.252 Y77.959
G1 X57.327 Y78.666
G1 X56.182 Y79.299
G1 X54.833 Y79.805
G1 X53.309 Y80.132
G1 X51.648 Y80.239
G1 X49.899 Y80.094
G1 X48.120 Y79.678
G1 X46.369 Y78.984
G1 X44.705 Y78.022
G1 X43.185 Y76.815
G1 X41.858 Y75.396
G1 X40.763 Y73.813
G1 X39.928 Y72.118
G1 X39.367 Y70.372
G1 X39.080 Y68.634
G1 X39.052 Y66.963
G1 X39.255 Y65.412
G1 X39.650 Y64.026
G1 X40.187 Y62.838
G1 X40.810 Y61.868
G1 X41.461 Y61.123
G1 X42.082 Y60.593
G1 X42.617 Y60.257
G1 X43.022 Y60.078
G1 X43.260 Y60.010
G1 X43.307 Y60.000
G1 X43.154 Y59.990
G1 X42.807 Y59.922
G1 X42.286 Y59.738
G1 X41.625 Y59.392
G1 X40.869 Y58.841
G1 X40.072 Y58.060
G1 X39.295 Y57.035
G1 X38.600 Y55.767
G1 X38.047 Y54.273
G1 X37.692 Y52.585
G1 X37.580 Y50.748
G1 X37.748 Y48.815
G1 X38.216 Y46.849
G1 X38.991 Y44.915
G1 X40.062 Y43.080
G1 X41.404 Y41.404
G1 X42.978 Y39.942
G1 X44.733 Y38.738
G1 X46.610 Y37.822
G1 X48.544 Y37.209
G1 X50.466 Y36.899
G1 X52.314 Y36.875
G1 X54.028 Y37.107
G1 X55.559 Y37.550
G1 X56.870 Y38.149
G1 X57.940 Y38.842
G1 X58.762 Y39.566
G1 X59.346 Y40.255
G1 X59.717 Y40.852
G1 X59.915 Y41.303
G1 X59.989 Y41.570
G1 X60.000 Y41.627
G1 X60.011 Y41.465
G1 X60.086 Y41.088
G1 X60.288 Y40.520
G1 X60.669 Y39.799
G1 X61.274 Y38.974
G1 X62.132 Y38.104
G1 X63.257 Y37.257
G1 X64.649 Y36.499
G1 X66.288 Y35.899
G1 X68.138 Y35.515
G1 X70.152 Y35.400
G1 X72.270 Y35.590
G1 X74.423 Y36.110
G1 X76.539 Y36.966
G1 X78.546 Y38.146
G1 X80.378 Y39.622
G1 X81.974 Y41.352
G1 X83.287 Y43.279
G1 X84.284 Y45.339
G1 X84.949 Y47.459
G1 X85.282 Y49.566
G1 X85.301 Y51.591
G1 X85.041 Y53.467
G1 X84.551 Y55.143
G1 X83.890 Y56.578
G1 X83.126 Y57.749
G1 X82.329 Y58.648
G1 X81.571 Y59.286
G1 X80.914 Y59.691
G1 X80.416 Y59.907
G1 X80.000 Y60.000
G1 X80.173 Y60.012
G1 X80.577 Y60.094
G1 X81.190 Y60.313
G1 X81.970 Y60.727
G1 X82.862 Y61.385
G1 X83.802 Y62.317
G1 X84.718 Y63.540
G1 X85.536 Y65.052
G1 X86.182 Y66.830
G1 X86.593 Y68.839
G1 X86.713 Y71.024
G1 X86.500 Y73.321
G1 X85.930 Y75.654
G1 X84.996 Y77.947
G1 X83.711 Y80.122
G1 X82.104 Y82.104
G1 X80.223 Y83.830
G1 X78.129 Y85.249
G1 X75.893 Y86.325
G1 X73.592 Y87.039
G1 X71.305 Y87.394
G1 X69.110 Y87.409
G1 X67.076 Y87.122
G1 X65.259 Y86.586
G1 X63.704 Y85.865
G1 X62.437 Y85.033
G1 X61.464 Y84.166
G1 X60.773 Y83.340
G1 X60.334 Y82.625
G1 X60.101 Y82.082
G1 X60.013 Y81.757
G1 X60.000 Y81.680
G1 X59.987 Y81.862
G1 X59.898 Y82.297
G1 X59.661 Y82.956
G1 X59.212 Y83.796
G1 X58.500 Y84.758
G1 X57.491 Y85.771
G1 X56.168 Y86.757
G1 X54.533 Y87.636
G1 X52.609 Y88.331
G1 X50.438 Y88.770
G1 X48.076 Y88.893
G1 X45.595 Y88.658
G1 X43.074 Y88.036
G1 X40.599 Y87.021
G1 X38.252 Y85.627
G1 X36.114 Y83.886
G1 X34.254 Y81.849
G1 X32.726 Y79.583
G1 X31.569 Y77.164
G1 X30.803 Y74.676
G1 X30.425 Y72.205
G1 X30.414 Y69.834
G1 X30.729 Y67.636
G1 X31.314 Y65.675
G1 X32.096 Y63.996
G1 X32.999 Y62.628
G1 X33.939 Y61.578
G1 X34.834 Y60.833
G1 X35.609 Y60.360
G1 X36.199 Y60.109
G1 X36.553 Y60.014
G1 X36.640 Y60.000
G1 X36.448 Y59.986
G1 X35.984 Y59.890
G1 X35.278 Y59.635
G1 X34.378 Y59.152
G1 X33.347 Y58.386
G1 X32.261 Y57.300
G1 X31.205 Y55.876
G1 X30.263 Y54.117
G1 X29.521 Y52.049
G1 X29.054 Y49.714
G1 X28.926 Y47.176
G1 X29.185 Y44.510
G1 X29.858 Y41.803
G1 X30.954 Y39.145
G1 X32.457 Y36.626
G1 X34.333 Y34.333
G1 X36.525 Y32.338
G1 X38.963 Y30.701
G1 X41.564 Y29.463
G1 X44.239 Y28.645
G1 X46.895 Y28.245
G1 X49.443 Y28.238
G1 X51.803 Y28.581
G1 X53.910 Y29.213
G1 X55.712 Y30.058
G1 X57.180 Y31.031
G1 X58.307 Y32.044
G1 X59.106 Y33.008
G1 X59.614 Y33.843
G1 X59.884 Y34.480
G1 X59.985 Y34.864
G1 X60.000 Y34.961
G1 X60.015 Y34.758
G1 X60.117 Y34.265
G1 X60.391 Y33.512
G1 X60.909 Y32.552
G1 X61.729 Y31.452
G1 X62.892 Y30.293
G1 X64.416 Y29.166
G1 X66.298 Y28.163
G1 X68.512 Y27.373
G1 X71.009 Y26.878
G1 X73.724 Y26.745
G1 X76.574 Y27.027
G1 X79.469 Y27.752
G1 X82.309 Y28.929
G1 X85.000 Y30.541
G1 X87.449 Y32.551
G1 X89.578 Y34.899
G1 X91.324 Y37.509
G1 X92.642 Y40.293
G1 X93.512 Y43.154
G1 X93.936 Y45.995
G1 X93.939 Y48.720
G1 X93.567 Y51.243
G1 X92.888 Y53.494
G1 X91.981 Y55.420
G1 X90.937 Y56.988
G1 X89.852 Y58.192
G1 X88.818 Y59.046
G1 X87.923 Y59.588
G1 X87.240 Y59.876
G1 X86.667 Y60.000
G1 X86.879 Y60.016
G1 X87.401 Y60.125
G1 X88.198 Y60.416
G1 X89.217 Y60.967
G1 X90.385 Y61.840
G1 X91.614 Y63.078
G1 X92.809 Y64.699
G1 X93.872 Y66.701
G1 X94.709 Y69.055
G1 X95.231 Y71.710
G1 X95.367 Y74.596
G1 X95.063 Y77.625
G1 X94.288 Y80.700
G1 X93.033 Y83.718
G1 X91.315 Y86.575
G1 X89.175 Y89.175
G1 X86.676 Y91.434
G1 X83.900 Y93.286
G1 X80.939 Y94.683
G1 X77.896 Y95.603
G1 X74.877 Y96.049
G1 X71.981 Y96.047
G1 X69.300 Y95.648
G1 X66.909 Y94.923
G1 X64.863 Y93.956
G1 X63.197 Y92.844
G1 X61.919 Y91.688
G1 X61.013 Y90.587
G1 X60.438 Y89.633
G1 X60.132 Y88.905
G1 X60.017 Y88.463
G1 X60.000 Y88.346
G1 X59.983 Y88.569
G1 X59.867 Y89.120
G1 X59.558 Y89.964
G1 X58.972 Y91.043
G1 X58.045 Y92.280
G1 X56.731 Y93.582
G1 X55.009 Y94.848
G1 X52.884 Y95.973
G1 X50.385 Y96.857
G1 X47.567 Y97.407
G1 X44.504 Y97.548
G1 X41.290 Y97.221
G1 X38.028 Y96.394
G1 X34.828 Y95.058
G1 X31.799 Y93.231
G1 X29.043 Y90.957
G1 X26.650 Y88.302
G1 X24.689 Y85.353
G1 X23.211 Y82.210
G1 X22.239 Y78.981
G1 X21.771 Y75.777
G1 X21.777 Y72.705
G1 X22.203 Y69.860
G1 X22.977 Y67.324
G1 X24.006 Y65.155
G1 X25.188 Y63.389
G1 X26.417 Y62.034
G1 X27.587 Y61.073
G1 X28.601 Y60.464
G1 X29.376 Y60.140
G1 X29.847 Y60.018
G1 X29.974 Y60.000
G1 X29.741 Y59.982
G1 X29.161 Y59.859
G1 X28.270 Y59.531
G1 X27.131 Y58.912
G1 X25.825 Y57.930
G1 X24.450 Y56.539
G1 X23.114 Y54.717
G1 X21.926 Y52.468
G1 X20.995 Y49.824
G1 X20.416 Y46.843
G1 X20.272 Y43.604
G1 X20.621 Y40.206
G1 X21.500 Y36.757
G1 X22.917 Y33.374
G1 X24.853 Y30.173
G1 X27.262 Y27.262
G1 X30.072 Y24.734
G1 X33.193 Y22.664
G1 X36.518 Y21.105
G1 X39.934 Y20.082
G1 X43.323 Y19.590
G1 X46.572 Y19.600
G1 X49.579 Y20.055
G1 X52.260 Y20.876
G1 X54.553 Y21.967
G1 X56.420 Y23.220
G1 X57.851 Y24.522
G1 X58.866 Y25.761
G1 X59.510 Y26.835
G1 X59.852 Y27.656
G1 X59.981 Y28.157
G1 X60.000 Y28.294
G1 X60.019 Y28.051
G1 X60.149 Y27.441
G1 X60.495 Y26.504
G1 X61.149 Y25.304
G1 X62.185 Y23.929
G1 X63.652 Y22.482
G1 X65.575 Y21.075
G1 X67.947 Y19.826
G1 X70.736 Y18.847
G1 X73.880 Y18.240
G1 X77.296 Y18.091
G1 X80.879 Y18.463
G1 X84.515 Y19.394
G1 X88.080 Y20.893
G1 X91.453 Y22.937
G1 X94.520 Y25.480
G1 X97.182 Y28.446
G1 X99.361 Y31.739
G1 X101.001 Y35.247
G1 X102.076 Y38.850
G1 X102.590 Y42.423
G1 X102.576 Y45.849
G1 X102.093 Y49.019
G1 X101.225 Y51.845
G1 X100.072 Y54.261
G1 X98.748 Y56.228
G1 X97.374 Y57.736
G1 X96.065 Y58.806
G1 X94.931 Y59.484
G1 X94.063 Y59.845
G1 X93.333 Y60.000
G1 X93.586 Y60.020
G1 X94.224 Y60.156
G1 X95.207 Y60.520
G1 X96.465 Y61.207
G1 X97.907 Y62.296
G1 X99.425 Y63.838
G1 X100.900 Y65.858
G1 X102.209 Y68.350
G1 X103.235 Y71.279
G1 X103.869 Y74.581
G1 X104.022 Y78.167
G1 X103.627 Y81.930
G1 X102.646 Y85.746
G1 X101.069 Y89.488
G1 X98.919 Y93.028
G1 X96.246 Y96.246
G1 X93.130 Y99.039
G1 X89.670 Y101.322
G1 X85.985 Y103.041
G1 X82.201 Y104.166
G1 X78.449 Y104.703
G1 X74.852 Y104.685
G1 X71.524 Y104.174
G1 X68.558 Y103.259
G1 X66.022 Y102.046
G1 X63.958 Y100.655
G1 X62.375 Y99.210
G1 X61.253 Y97.834
G1 X60.541 Y96.641
G1 X60.163 Y95.728
G1 X60.021 Y95.170
G1 X60.000 Y95.013
G1 X59.979 Y95.276
G1 X59.836 Y95.943
G1 X59.454 Y96.972
G1 X58.732 Y98.291
G1 X57.589 Y99.802
G1 X55.970 Y101.393
G1 X53.850 Y102.938
G1 X51.234 Y104.310
G1 X48.161 Y105.383
G1 X44.696 Y106.045
G1 X40.933 Y106.202
G1 X36.986 Y105.785
G1 X32.982 Y104.752
G1 X29.058 Y103.094
G1 X25.346 Y100.835
G1 X21.972 Y98.028
G1 X19.045 Y94.756
G1 X16.653 Y91.124
G1 X14.853 Y87.256
G1 X13.676 Y83.286
G1 X13.116 Y79.348
G1 X13.139 Y75.576
G1 X13.677 Y72.085
G1 X14.640 Y68.973
G1 X15.915 Y66.314
G1 X17.377 Y64.149
G1 X18.895 Y62.490
G1 X20.340 Y61.313
G1 X21.593 Y60.567
G1 X22.552 Y60.171
G1 X23.140 Y60.022
G1 X23.307 Y60.000
G1 X23.035 Y59.978
G1 X22.337 Y59.828
G1 X21.262 Y59.428
G1 X19.883 Y58.672
G1 X18.303 Y57.474
G1 X16.639 Y55.779
G1 X15.023 Y53.558
G1 X13.590 Y50.819
G1 X12.469 Y47.600
G1 X11.779 Y43.972
G1 X11.617 Y40.033
G1 X12.058 Y35.901
G1 X13.142 Y31.711
G1 X14.881 Y27.604
G1 X17.249 Y23.720
G1 X20.190 Y20.190
G1 X23.618 Y17.129
G1 X27.422 Y14.628
G1 X31.473 Y12.747
G1 X35.630 Y11.518
G1 X39.752 Y10.936
G1 X43.701 Y10.962
G1 X47.355 Y11.529
G1 X50.611 Y12.539
G1 X53.394 Y13.876
G1 X55.659 Y15.409
G1 X57.396 Y17.000
G1 X58.626 Y18.514
G1 X59.407 Y19.827
G1 X59.821 Y20.833
G1 X59.977 Y21.450
G1 X60.000 Y21.627
G1 X60.023 Y21.345
G1 X60.180 Y20.618
G1 X60.598 Y19.496
G1 X61.389 Y18.057
G1 X62.640 Y16.407
G1 X64.413 Y14.671
G1 X66.734 Y12.984
G1 X69.597 Y11.489
G1 X72.960 Y10.321
G1 X76.751 Y9.602
G1 X80.867 Y9.437
G1 X85.184 Y9.900
G1 X89.560 Y11.036
G1 X93.850 Y12.856
G1 X97.906 Y15.333
G1 X101.591 Y18.409
G1 X104.787 Y21.992
G1 X107.397 Y25.968
G1 X109.359 Y30.201
G1 X110.640 Y34.545
G1 X111.245 Y38.852
G1 X111.214 Y42.978
G1 X110.619 Y46.794
G1 X109.561 Y50.196
G1 X108.162 Y53.102
G1 X106.559 Y55.468
G1 X104.896 Y57.281
G1 X103.312 Y58.566
G1 X101.939 Y59.381
G1 X100.886 Y59.813
G1 X100.000 Y60.000
G1 X100.292 Y60.024
G1 X101.047 Y60.187
G1 X102.215 Y60.623
G1 X103.712 Y61.447
G1 X105.429 Y62.752
G1 X107.236 Y64.598
G1 X108.990 Y67.017
G1 X110.546 Y69.999
G1 X111.761 Y73.503
G1 X112.506 Y77.452
G1 X112.676 Y81.739
G1 X112.190 Y86.234
G1 X111.004 Y90.792
G1 X109.106 Y95.259
G1 X106.523 Y99.481
G1 X103.317 Y103.317
G1 X99.583 Y106.643
G1 X95.440 Y109.359
G1 X91.031 Y111.399
G1 X86.505 Y112.730
G1 X82.020 Y113.357
G1 X77.723 Y113.322
G1 X73.749 Y112.701
G1 X70.207 Y111.596
G1 X67.181 Y110.137
G1 X64.718 Y108.466
G1 X62.830 Y106.732
G1 X61.493 Y105.081
G1 X60.645 Y103.650
G1 X60.194 Y102.552
G1 X60.025 Y101.876
G1 X60.000 Y101.680
G1 X59.975 Y101.982
G1 X59.805 Y102.767
G1 X59.351 Y103.981
G1 X58.492 Y105.538
G1 X57.134 Y107.324
G1 X55.210 Y109.204
G1 X52.691 Y111.029
G1 X49.585 Y112.647
G1 X45.936 Y113.909
G1 X41.825 Y114.683
G1 X37.361 Y114.857
G1 X32.681 Y114.348
G1 X27.936 Y113.110
G1 X23.287 Y111.131
G1 X18.893 Y108.439
G1 X14.901 Y105.099
G1 X11.441 Y101.209
G1 X8.616 Y96.894
G1 X6.495 Y92.302
G1 X5.112 Y87.590
G1 X4.462 Y82.920
G1 X4.501 Y78.447
G1 X5.151 Y74.309
G1 X6.303 Y70.623
G1 X7.824 Y67.473
G1 X9.566 Y64.910
G1 X11.373 Y62.945
G1 X13.093 Y61.553
G1 X14.585 Y60.671
G1 X15.729 Y60.202
G1 X16.434 Y60.026
G1 X16.640 Y60.000
G1 X16.328 Y59.974
G1 X15.514 Y59.797
G1 X14.253 Y59.324
G1 X12.636 Y58.432
G1 X10.781 Y57.019
G1 X8.828 Y55.018
G1 X6.932 Y52.399
G1 X5.253 Y49.170
G1 X3.943 Y45.376
G1 X3.141 Y41.101
G1 X2.963 Y36.461
G1 X3.494 Y31.596
G1 X4.784 Y26.665
G1 X6.844 Y21.833
G1 X9.645 Y17.267
G1 X13.119 Y13.119
G1 X17.165 Y9.525
G1 X21.652 Y6.591
G1 X26.427 Y4.389
G1 X31.325 Y2.955
G1 X36.180 Y2.281
G1 X40.830 Y2.325
G1 X45.131 Y3.003
G1 X48.962 Y4.203
G1 X52.235 Y5.786
G1 X54.899 Y7.598
G1 X56.940 Y9.477
G1 X58.386 Y11.266
G1 X59.303 Y12.819
G1 X59.790 Y14.010
G1 X59.973 Y14.744
G1 X60.000 Y14.961
G1 X60.027 Y14.638
G1 X60.211 Y13.795
G1 X60.702 Y12.488
G1 X61.629 Y10.810
G1 X63.096 Y8.885
G1 X65.173 Y6.860
G1 X67.893 Y4.894
G1 X71.246 Y3.152
G1 X75.185 Y1.794
G1 X79.622 Y0.964
G1 X84.439 Y0.782
G1 X89.488 Y1.336
G1 X94.606 Y2.678
G1 X99.621 Y4.819
G1 X104.359 Y7.729
G1 X108.662 Y11.338
G1 X112.391 Y15.539
G1 X115.434 Y20.198
G1 X117.717 Y25.155
G1 X119.203 Y30.241
G1 X119.899 Y35.280
G1 X119.852 Y40.107
G1 X119.145 Y44.570
G1 X117.898 Y48.546
G1 X116.253 Y51.943
G1 X114.370 Y54.707
G1 X112.418 Y56.825
G1 X110.560 Y58.326
G1 X108.947 Y59.277
G1 X107.710 Y59.782
G1 X106.667 Y60.000
G1 X106.999 Y60.028
G1 X107.871 Y60.219
G1 X109.223 Y60.727
G1 X110.959 Y61.687
G1 X112.951 Y63.207
G1 X115.047 Y65.359
G1 X117.081 Y68.175
G1 X118.883 Y71.648
G1 X120.000 Y74.894
G1 X120.000 Y93.409
G1 X119.362 Y95.838
G1 X117.143 Y101.029
G1 X114.127 Y105.934
G1 X110.388 Y110.388
G1 X106.036 Y114.247
G1 X101.211 Y117.396
G1 X96.076 Y119.757
G1 X95.243 Y120.000
G1 X72.069 Y120.000
G1 X71.856 Y119.933
G1 X68.340 Y118.228
G1 X65.478 Y116.277
G1 X63.286 Y114.254
G1 X61.733 Y112.329
G1 X60.748 Y110.658
G1 X60.225 Y109.375
G1 X60.028 Y108.583
G1 X60.000 Y108.346
G1 X59.971 Y108.689
G1 X59.774 Y109.590
G1 X59.247 Y110.989
G1 X58.252 Y112.785
G1 X56.678 Y114.846
G1 X54.450 Y117.015
G1 X51.533 Y119.120
G1 X49.834 Y120.000
G1 X19.462 Y120.000
G1 X17.517 Y119.167
G1 X12.440 Y116.043
G1 X7.830 Y112.170
G1 X3.837 Y107.662
G1 X0.579 Y102.665
G1 X0.000 Y101.403
G1 X0.000 Y68.241
G1 X1.755 Y65.670
G1 X3.851 Y63.401
G1 X5.845 Y61.793
G1 X7.576 Y60.774
G1 X8.906 Y60.233
G1 X9.727 Y60.029
G1 X9.974 Y60.000
G1 X9.621 Y59.970
G1 X8.691 Y59.766
G1 X7.245 Y59.221
G1 X5.389 Y58.192
G1 X3.258 Y56.563
G1 X1.017 Y54.258
G1 X0.000 Y52.848
G1 X0.000 Y14.127
G1 X2.041 Y10.814
G1 X6.048 Y6.048
G1 X10.712 Y1.921
G1 X13.662 Y0.000
G1 X54.369 Y0.000
G1 X56.484 Y1.955
G1 X58.146 Y4.019
G1 X59.200 Y5.810
G1 X59.759 Y7.186
G1 X59.970 Y8.037
G1 X60.000 Y8.294
G1 X60.031 Y7.932
G1 X60.242 Y6.971
G1 X60.805 Y5.479
G1 X61.869 Y3.563
G1 X63.551 Y1.363
G1 X64.954 Y0.000
G1 X110.610 Y0.000
G1 X110.812 Y0.125
G1 X115.733 Y4.267
G1 X119.995 Y9.086
G1 X120.000 Y9.094
G1 X120.000 Y56.305
G1 X119.940 Y56.370
G1 X117.807 Y58.086
G1 X115.955 Y59.174
G1 X114.533 Y59.751
G1 X113.333 Y60.000
G1 X113.705 Y60.031
G1 X114.694 Y60.250
G1 X116.231 Y60.830
G1 X118.206 Y61.927
G1 X120.000 Y63.301
G1 X120.000 Y114.443
G1 X117.459 Y117.459
G1 X114.584 Y120.000
G1 X62.314 Y120.000
G1 X61.973 Y119.576
G1 X60.852 Y117.666
G1 X60.257 Y116.199
G1 X60.032 Y115.290
G1 X60.000 Y115.013
G1 X59.968 Y115.395
G1 X59.742 Y116.413
G1 X59.144 Y117.997
G1 X58.030 Y120.000
G1 X1.659 Y120.000
G1 X0.759 Y119.241
G1 X0.000 Y118.382
G1 X0.000 Y61.211
G1 X0.568 Y60.878
G1 X2.082 Y60.264
G1 X3.021 Y60.033
G1 X3.307 Y60.000
G1 X2.915 Y59.967
G1 X1.867 Y59.735
G1 X0.237 Y59.117
G1 X0.000 Y58.986
G1 X0.000 Y0.000
G1 X59.581 Y0.000
G1 X59.728 Y0.363
G1 X59.966 Y1.331
G1 X60.000 Y1.627
G1 X60.034 Y1.225
G1 X60.273 Y0.148
G1 X60.329 Y0.000
G1 X60.465 Y0.000
G1 X0.000 Y0.000

