;  Created by Sandify
;  https://sandify.org
;  Version: 0.2.8
;
;  Machine type: Rectangular
;    Min X (mm): 0
;    Max X (mm): 120
;    Min Y (mm): 0
;    Max Y (mm): 120
;  Content type: shape
;  Layer:
;    Shape: Circle
;    Name: point
;    Number of lobes: 1
;    Direction: clockwise
;    Visible: true
;    Initial width: 3
;    Initial height: 3
;    X offset: 0
;    Y offset: 8
;    Rotate (degrees): 0
;    Reverse path: false
;    Number of loops: 1
;    When transforming shape: intact
;    Scale: true
;      Scale (+/-): 100
;      Scale by: constant
;    Spin: false
;    Track: false
;    Fine tuning:
;      Connect to next layer: line
;      Draw portion of path (%): 100
;      Backtrack at end (%): 0
;      Rotate starting point (%): 0
;  Layer:
;    Shape: Circle
;    Name: point2
;    Number of lobes: 1
;    Direction: clockwise
;    Visible: true
;    Initial width: 3
;    Initial height: 3
;    X offset: 0
;    Y offset: -8
;    Rotate (degrees): 0
;    Reverse path: false
;    Number of loops: 1
;    When transforming shape: intact
;    Scale: true
;      Scale (+/-): 100
;      Scale by: constant
;    Spin: false
;    Track: false
;    Fine tuning:
;      Connect to next layer: line
;      Draw portion of path (%): 100
;      Backtrack at end (%): 0
;      Rotate starting point (%): 0
;  Reverse export path: false
;
; File name: 'colon'
; File type: gcode
;

G1 X63.000 Y0
G1 X63.000 Y68.000
G1 X62.996 Y68.147
G1 X62.986 Y68.294
G1 X62.968 Y68.440
G1 X62.942 Y68.585
G1 X62.910 Y68.729
G1 X62.871 Y68.871
G1 X62.825 Y69.011
G1 X62.772 Y69.148
G1 X62.712 Y69.283
G1 X62.646 Y69.414
G1 X62.573 Y69.542
G1 X62.494 Y69.667
G1 X62.410 Y69.787
G1 X62.319 Y69.903
G1 X62.223 Y70.015
G1 X62.121 Y70.121
G1 X62.015 Y70.223
G1 X61.903 Y70.319
G1 X61.787 Y70.410
G1 X61.667 Y70.494
G1 X61.542 Y70.573
G1 X61.414 Y70.646
G1 X61.283 Y70.712
G1 X61.148 Y70.772
G1 X61.011 Y70.825
G1 X60.871 Y70.871
G1 X60.729 Y70.910
G1 X60.585 Y70.942
G1 X60.440 Y70.968
G1 X60.294 Y70.986
G1 X60.147 Y70.996
G1 X60.000 Y71.000
G1 X59.853 Y70.996
G1 X59.706 Y70.986
G1 X59.560 Y70.968
G1 X59.415 Y70.942
G1 X59.271 Y70.910
G1 X59.129 Y70.871
G1 X58.989 Y70.825
G1 X58.852 Y70.772
G1 X58.717 Y70.712
G1 X58.586 Y70.646
G1 X58.458 Y70.573
G1 X58.333 Y70.494
G1 X58.213 Y70.410
G1 X58.097 Y70.319
G1 X57.985 Y70.223
G1 X57.879 Y70.121
G1 X57.777 Y70.015
G1 X57.681 Y69.903
G1 X57.590 Y69.787
G1 X57.506 Y69.667
G1 X57.427 Y69.542
G1 X57.354 Y69.414
G1 X57.288 Y69.283
G1 X57.228 Y69.148
G1 X57.175 Y69.011
G1 X57.129 Y68.871
G1 X57.090 Y68.729
G1 X57.058 Y68.585
G1 X57.032 Y68.440
G1 X57.014 Y68.294
G1 X57.004 Y68.147
G1 X57.000 Y68.000
G1 X57.004 Y67.853
G1 X57.014 Y67.706
G1 X57.032 Y67.560
G1 X57.058 Y67.415
G1 X57.090 Y67.271
G1 X57.129 Y67.129
G1 X57.175 Y66.989
G1 X57.228 Y66.852
G1 X57.288 Y66.717
G1 X57.354 Y66.586
G1 X57.427 Y66.458
G1 X57.506 Y66.333
G1 X57.590 Y66.213
G1 X57.681 Y66.097
G1 X57.777 Y65.985
G1 X57.879 Y65.879
G1 X57.985 Y65.777
G1 X58.097 Y65.681
G1 X58.213 Y65.590
G1 X58.333 Y65.506
G1 X58.458 Y65.427
G1 X58.586 Y65.354
G1 X58.717 Y65.288
G1 X58.852 Y65.228
G1 X58.989 Y65.175
G1 X59.129 Y65.129
G1 X59.271 Y65.090
G1 X59.415 Y65.058
G1 X59.560 Y65.032
G1 X59.706 Y65.014
G1 X59.853 Y65.004
G1 X60.000 Y65.000
G1 X60.147 Y65.004
G1 X60.294 Y65.014
G1 X60.440 Y65.032
G1 X60.585 Y65.058
G1 X60.729 Y65.090
G1 X60.871 Y65.129
G1 X61.011 Y65.175
G1 X61.148 Y65.228
G1 X61.283 Y65.288
G1 X61.414 Y65.354
G1 X61.542 Y65.427
G1 X61.667 Y65.506
G1 X61.787 Y65.590
G1 X61.903 Y65.681
G1 X62.015 Y65.777
G1 X62.121 Y65.879
G1 X62.223 Y65.985
G1 X62.319 Y66.097
G1 X62.410 Y66.213
G1 X62.494 Y66.333
G1 X62.573 Y66.458
G1 X62.646 Y66.586
G1 X62.712 Y66.717
G1 X62.772 Y66.852
G1 X62.825 Y66.989
G1 X62.871 Y67.129
G1 X62.910 Y67.271
G1 X62.942 Y67.415
G1 X62.968 Y67.560
G1 X62.986 Y67.706
G1 X62.996 Y67.853
G1 X63.000 Y68.000
G1 X63.000 Y68.000
G1 X63.000 Y52.000
G1 X63.000 Y52.000
G1 X62.996 Y52.147
G1 X62.986 Y52.294
G1 X62.968 Y52.440
G1 X62.942 Y52.585
G1 X62.910 Y52.729
G1 X62.871 Y52.871
G1 X62.825 Y53.011
G1 X62.772 Y53.148
G1 X62.712 Y53.283
G1 X62.646 Y53.414
G1 X62.573 Y53.542
G1 X62.494 Y53.667
G1 X62.410 Y53.787
G1 X62.319 Y53.903
G1 X62.223 Y54.015
G1 X62.121 Y54.121
G1 X62.015 Y54.223
G1 X61.903 Y54.319
G1 X61.787 Y54.410
G1 X61.667 Y54.494
G1 X61.542 Y54.573
G1 X61.414 Y54.646
G1 X61.283 Y54.712
G1 X61.148 Y54.772
G1 X61.011 Y54.825
G1 X60.871 Y54.871
G1 X60.729 Y54.910
G1 X60.585 Y54.942
G1 X60.440 Y54.968
G1 X60.294 Y54.986
G1 X60.147 Y54.996
G1 X60.000 Y55.000
G1 X59.853 Y54.996
G1 X59.706 Y54.986
G1 X59.560 Y54.968
G1 X59.415 Y54.942
G1 X59.271 Y54.910
G1 X59.129 Y54.871
G1 X58.989 Y54.825
G1 X58.852 Y54.772
G1 X58.717 Y54.712
G1 X58.586 Y54.646
G1 X58.458 Y54.573
G1 X58.333 Y54.494
G1 X58.213 Y54.410
G1 X58.097 Y54.319
G1 X57.985 Y54.223
G1 X57.879 Y54.121
G1 X57.777 Y54.015
G1 X57.681 Y53.903
G1 X57.590 Y53.787
G1 X57.506 Y53.667
G1 X57.427 Y53.542
G1 X57.354 Y53.414
G1 X57.288 Y53.283
G1 X57.228 Y53.148
G1 X57.175 Y53.011
G1 X57.129 Y52.871
G1 X57.090 Y52.729
G1 X57.058 Y52.585
G1 X57.032 Y52.440
G1 X57.014 Y52.294
G1 X57.004 Y52.147
G1 X57.000 Y52.000
G1 X57.004 Y51.853
G1 X57.014 Y51.706
G1 X57.032 Y51.560
G1 X57.058 Y51.415
G1 X57.090 Y51.271
G1 X57.129 Y51.129
G1 X57.175 Y50.989
G1 X57.228 Y50.852
G1 X57.288 Y50.717
G1 X57.354 Y50.586
G1 X57.427 Y50.458
G1 X57.506 Y50.333
G1 X57.590 Y50.213
G1 X57.681 Y50.097
G1 X57.777 Y49.985
G1 X57.879 Y49.879
G1 X57.985 Y49.777
G1 X58.097 Y49.681
G1 X58.213 Y49.590
G1 X58.333 Y49.506
G1 X58.458 Y49.427
G1 X58.586 Y49.354
G1 X58.717 Y49.288
G1 X58.852 Y49.228
G1 X58.989 Y49.175
G1 X59.129 Y49.129
G1 X59.271 Y49.090
G1 X59.415 Y49.058
G1 X59.560 Y49.032
G1 X59.706 Y49.014
G1 X59.853 Y49.004
G1 X60.000 Y49.000
G1 X60.147 Y49.004
G1 X60.294 Y49.014
G1 X60.440 Y49.032
G1 X60.585 Y49.058
G1 X60.729 Y49.090
G1 X60.871 Y49.129
G1 X61.011 Y49.175
G1 X61.148 Y49.228
G1 X61.283 Y49.288
G1 X61.414 Y49.354
G1 X61.542 Y49.427
G1 X61.667 Y49.506
G1 X61.787 Y49.590
G1 X61.903 Y49.681
G1 X62.015 Y49.777
G1 X62.121 Y49.879
G1 X62.223 Y49.985
G1 X62.319 Y50.097
G1 X62.410 Y50.213
G1 X62.494 Y50.333
G1 X62.573 Y50.458
G1 X62.646 Y50.586
G1 X62.712 Y50.717
G1 X62.772 Y50.852
G1 X62.825 Y50.989
G1 X62.871 Y51.129
G1 X62.910 Y51.271
G1 X62.942 Y51.415
G1 X62.968 Y51.560
G1 X62.986 Y51.706
G1 X62.996 Y51.853
G1 X63.000 Y52.000
G1 X89.794 Y0.000
G1 X0.000 Y0.000

