;  Created by Sandify
;  https://sandify.org
;  Version: 0.2.8
;
;  Machine type: Rectangular
;    Min X (mm): 0
;    Max X (mm): 116
;    Min Y (mm): 0
;    Max Y (mm): 120
;  Content type: shape
;  Layer:
;    Shape: Wiper
;    Name: point
;    Type: Lines
;    Wiper size: 1.5
;    Wiper angle: 0
;    Visible: true
;    X offset: 0
;    Y offset: 0
;    Rotate (degrees): 0
;    Reverse path: false
;    Fine tuning:
;      Connect to next layer: line
;      Draw portion of path (%): 100
;      Backtrack at end (%): 0
;      Rotate starting point (%): 0
;  Reverse export path: false
;
; File name: 'erase_fast'
; File type: gcode
;

G1 X0.000 Y0.000
G1 X0.000 Y120.000
G1 X0.000 Y120.000
G1 X1.500 Y120.000
G1 X1.500 Y0.000
G1 X3.000 Y0.000
G1 X3.000 Y120.000
G1 X4.500 Y120.000
G1 X4.500 Y0.000
G1 X6.000 Y0.000
G1 X6.000 Y120.000
G1 X7.500 Y120.000
G1 X7.500 Y0.000
G1 X9.000 Y0.000
G1 X9.000 Y120.000
G1 X10.500 Y120.000
G1 X10.500 Y0.000
G1 X12.000 Y0.000
G1 X12.000 Y120.000
G1 X13.500 Y120.000
G1 X13.500 Y0.000
G1 X15.000 Y0.000
G1 X15.000 Y120.000
G1 X16.500 Y120.000
G1 X16.500 Y0.000
G1 X18.000 Y0.000
G1 X18.000 Y120.000
G1 X19.500 Y120.000
G1 X19.500 Y0.000
G1 X21.000 Y0.000
G1 X21.000 Y120.000
G1 X22.500 Y120.000
G1 X22.500 Y0.000
G1 X24.000 Y0.000
G1 X24.000 Y120.000
G1 X25.500 Y120.000
G1 X25.500 Y0.000
G1 X27.000 Y0.000
G1 X27.000 Y120.000
G1 X28.500 Y120.000
G1 X28.500 Y0.000
G1 X30.000 Y0.000
G1 X30.000 Y120.000
G1 X31.500 Y120.000
G1 X31.500 Y0.000
G1 X33.000 Y0.000
G1 X33.000 Y120.000
G1 X34.500 Y120.000
G1 X34.500 Y0.000
G1 X36.000 Y0.000
G1 X36.000 Y120.000
G1 X37.500 Y120.000
G1 X37.500 Y0.000
G1 X39.000 Y0.000
G1 X39.000 Y120.000
G1 X40.500 Y120.000
G1 X40.500 Y0.000
G1 X42.000 Y0.000
G1 X42.000 Y120.000
G1 X43.500 Y120.000
G1 X43.500 Y0.000
G1 X45.000 Y0.000
G1 X45.000 Y120.000
G1 X46.500 Y120.000
G1 X46.500 Y0.000
G1 X48.000 Y0.000
G1 X48.000 Y120.000
G1 X49.500 Y120.000
G1 X49.500 Y0.000
G1 X51.000 Y0.000
G1 X51.000 Y120.000
G1 X52.500 Y120.000
G1 X52.500 Y0.000
G1 X54.000 Y0.000
G1 X54.000 Y120.000
G1 X55.500 Y120.000
G1 X55.500 Y0.000
G1 X57.000 Y0.000
G1 X57.000 Y120.000
G1 X58.500 Y120.000
G1 X58.500 Y0.000
G1 X60.000 Y0.000
G1 X60.000 Y120.000
G1 X61.500 Y120.000
G1 X61.500 Y0.000
G1 X63.000 Y0.000
G1 X63.000 Y120.000
G1 X64.500 Y120.000
G1 X64.500 Y0.000
G1 X66.000 Y0.000
G1 X66.000 Y120.000
G1 X67.500 Y120.000
G1 X67.500 Y0.000
G1 X69.000 Y0.000
G1 X69.000 Y120.000
G1 X70.500 Y120.000
G1 X70.500 Y0.000
G1 X72.000 Y0.000
G1 X72.000 Y120.000
G1 X73.500 Y120.000
G1 X73.500 Y0.000
G1 X75.000 Y0.000
G1 X75.000 Y120.000
G1 X76.500 Y120.000
G1 X76.500 Y0.000
G1 X78.000 Y0.000
G1 X78.000 Y120.000
G1 X79.500 Y120.000
G1 X79.500 Y0.000
G1 X81.000 Y0.000
G1 X81.000 Y120.000
G1 X82.500 Y120.000
G1 X82.500 Y0.000
G1 X84.000 Y0.000
G1 X84.000 Y120.000
G1 X85.500 Y120.000
G1 X85.500 Y0.000
G1 X87.000 Y0.000
G1 X87.000 Y120.000
G1 X88.500 Y120.000
G1 X88.500 Y0.000
G1 X90.000 Y0.000
G1 X90.000 Y120.000
G1 X91.500 Y120.000
G1 X91.500 Y0.000
G1 X93.000 Y0.000
G1 X93.000 Y120.000
G1 X94.500 Y120.000
G1 X94.500 Y0.000
G1 X96.000 Y0.000
G1 X96.000 Y120.000
G1 X97.500 Y120.000
G1 X97.500 Y0.000
G1 X99.000 Y0.000
G1 X99.000 Y120.000
G1 X100.500 Y120.000
G1 X100.500 Y0.000
G1 X102.000 Y0.000
G1 X102.000 Y120.000
G1 X103.500 Y120.000
G1 X103.500 Y0.000
G1 X105.000 Y0.000
G1 X105.000 Y120.000
G1 X106.500 Y120.000
G1 X106.500 Y0.000
G1 X108.000 Y0.000
G1 X108.000 Y120.000
G1 X109.500 Y120.000
G1 X109.500 Y0.000
G1 X111.000 Y0.000
G1 X111.000 Y120.000
G1 X112.500 Y120.000
G1 X112.500 Y0.000
G1 X114.000 Y0.000
G1 X114.000 Y120.000
G1 X115.500 Y120.000
G1 X115.500 Y0.000

