;  Created by Sandify
;  https://sandify.org
;  Version: 0.2.8
;
;  Machine type: Rectangular
;    Min X (mm): 0
;    Max X (mm): 115
;    Min Y (mm): 20
;    Max Y (mm): 80
;  Content type: shape
;  Layer:
;    Shape: Wiper
;    Name: point
;    Type: Lines
;    Wiper size: 2
;    Wiper angle: 0
;    Visible: true
;    X offset: 0
;    Y offset: 0
;    Rotate (degrees): 0
;    Reverse path: false
;    Fine tuning:
;      Connect to next layer: line
;      Draw portion of path (%): 100
;      Backtrack at end (%): 0
;      Rotate starting point (%): 0
;  Reverse export path: false
;
; File name: 'erase_digits'
; File type: gcode
;

G1 X0.000 Y20.000
G1 X0.000 Y80.000
G1 X0.000 Y80.000
G1 X2.000 Y80.000
G1 X2.000 Y20.000
G1 X4.000 Y20.000
G1 X4.000 Y80.000
G1 X6.000 Y80.000
G1 X6.000 Y20.000
G1 X8.000 Y20.000
G1 X8.000 Y80.000
G1 X10.000 Y80.000
G1 X10.000 Y20.000
G1 X12.000 Y20.000
G1 X12.000 Y80.000
G1 X14.000 Y80.000
G1 X14.000 Y20.000
G1 X16.000 Y20.000
G1 X16.000 Y80.000
G1 X18.000 Y80.000
G1 X18.000 Y20.000
G1 X20.000 Y20.000
G1 X20.000 Y80.000
G1 X22.000 Y80.000
G1 X22.000 Y20.000
G1 X24.000 Y20.000
G1 X24.000 Y80.000
G1 X26.000 Y80.000
G1 X26.000 Y20.000
G1 X28.000 Y20.000
G1 X28.000 Y80.000
G1 X30.000 Y80.000
G1 X30.000 Y20.000
G1 X32.000 Y20.000
G1 X32.000 Y80.000
G1 X34.000 Y80.000
G1 X34.000 Y20.000
G1 X36.000 Y20.000
G1 X36.000 Y80.000
G1 X38.000 Y80.000
G1 X38.000 Y20.000
G1 X40.000 Y20.000
G1 X40.000 Y80.000
G1 X42.000 Y80.000
G1 X42.000 Y20.000
G1 X44.000 Y20.000
G1 X44.000 Y80.000
G1 X46.000 Y80.000
G1 X46.000 Y20.000
G1 X48.000 Y20.000
G1 X48.000 Y80.000
G1 X50.000 Y80.000
G1 X50.000 Y20.000
G1 X52.000 Y20.000
G1 X52.000 Y80.000
G1 X54.000 Y80.000
G1 X54.000 Y20.000
G1 X56.000 Y20.000
G1 X56.000 Y80.000
G1 X58.000 Y80.000
G1 X58.000 Y20.000
G1 X60.000 Y20.000
G1 X60.000 Y80.000
G1 X62.000 Y80.000
G1 X62.000 Y20.000
G1 X64.000 Y20.000
G1 X64.000 Y80.000
G1 X66.000 Y80.000
G1 X66.000 Y20.000
G1 X68.000 Y20.000
G1 X68.000 Y80.000
G1 X70.000 Y80.000
G1 X70.000 Y20.000
G1 X72.000 Y20.000
G1 X72.000 Y80.000
G1 X74.000 Y80.000
G1 X74.000 Y20.000
G1 X76.000 Y20.000
G1 X76.000 Y80.000
G1 X78.000 Y80.000
G1 X78.000 Y20.000
G1 X80.000 Y20.000
G1 X80.000 Y80.000
G1 X82.000 Y80.000
G1 X82.000 Y20.000
G1 X84.000 Y20.000
G1 X84.000 Y80.000
G1 X86.000 Y80.000
G1 X86.000 Y20.000
G1 X88.000 Y20.000
G1 X88.000 Y80.000
G1 X90.000 Y80.000
G1 X90.000 Y20.000
G1 X92.000 Y20.000
G1 X92.000 Y80.000
G1 X94.000 Y80.000
G1 X94.000 Y20.000
G1 X96.000 Y20.000
G1 X96.000 Y80.000
G1 X98.000 Y80.000
G1 X98.000 Y20.000
G1 X100.000 Y20.000
G1 X100.000 Y80.000
G1 X102.000 Y80.000
G1 X102.000 Y20.000
G1 X104.000 Y20.000
G1 X104.000 Y80.000
G1 X106.000 Y80.000
G1 X106.000 Y20.000
G1 X108.000 Y20.000
G1 X108.000 Y80.000
G1 X110.000 Y80.000
G1 X110.000 Y20.000
G1 X112.000 Y20.000
G1 X112.000 Y80.000
G1 X114.000 Y80.000
G1 X114.000 Y20.000

