;  Created by Sandify
;  https://sandify.org
;  Version: 0.2.8
;
;  Machine type: Rectangular
;    Min X (mm): 0
;    Max X (mm): 120
;    Min Y (mm): 0
;    Max Y (mm): 120
;  Content type: shape
;  Layer:
;    Shape: Heart
;    Name: point
;    Visible: true
;    Initial width: 10
;    Initial height: 10
;    X offset: 0
;    Y offset: 0
;    Rotate (degrees): 0
;    Reverse path: false
;    Number of loops: 10
;    When transforming shape: smear
;    Scale: true
;      Scale (+/-): 100
;      Scale by: constant
;    Spin: false
;    Track: false
;    Fine tuning:
;      Connect to next layer: line
;      Draw portion of path (%): 100
;      Backtrack at end (%): 0
;      Rotate starting point (%): 0
;  Reverse export path: false
;
; File name: 'heart'
; File type: gcode
;

G1 X60.000 Y62.813
G1 X60.001 Y62.863
G1 X60.009 Y62.969
G1 X60.029 Y63.129
G1 X60.069 Y63.342
G1 X60.134 Y63.603
G1 X60.231 Y63.906
G1 X60.363 Y64.245
G1 X60.536 Y64.610
G1 X60.753 Y64.993
G1 X61.017 Y65.385
G1 X61.329 Y65.774
G1 X61.689 Y66.152
G1 X62.097 Y66.508
G1 X62.551 Y66.832
G1 X63.048 Y67.116
G1 X63.583 Y67.351
G1 X64.151 Y67.531
G1 X64.746 Y67.649
G1 X65.361 Y67.702
G1 X65.988 Y67.686
G1 X66.618 Y67.600
G1 X67.243 Y67.444
G1 X67.853 Y67.219
G1 X68.438 Y66.928
G1 X68.991 Y66.574
G1 X69.501 Y66.163
G1 X69.961 Y65.699
G1 X70.363 Y65.190
G1 X70.700 Y64.640
G1 X70.966 Y64.057
G1 X71.156 Y63.448
G1 X71.268 Y62.817
G1 X71.298 Y62.171
G1 X71.245 Y61.515
G1 X71.112 Y60.854
G1 X70.898 Y60.191
G1 X70.608 Y59.529
G1 X70.247 Y58.871
G1 X69.819 Y58.217
G1 X69.333 Y57.569
G1 X68.795 Y56.926
G1 X68.215 Y56.289
G1 X67.602 Y55.657
G1 X66.966 Y55.029
G1 X66.316 Y54.405
G1 X65.663 Y53.785
G1 X65.016 Y53.167
G1 X64.385 Y52.554
G1 X63.777 Y51.945
G1 X63.202 Y51.342
G1 X62.666 Y50.748
G1 X62.175 Y50.165
G1 X61.733 Y49.596
G1 X61.344 Y49.046
G1 X61.008 Y48.519
G1 X60.727 Y48.020
G1 X60.499 Y47.554
G1 X60.321 Y47.126
G1 X60.189 Y46.742
G1 X60.098 Y46.405
G1 X60.042 Y46.121
G1 X60.013 Y45.894
G1 X60.002 Y45.725
G1 X60.000 Y45.619
G1 X59.998 Y45.575
G1 X59.987 Y45.595
G1 X59.957 Y45.678
G1 X59.897 Y45.824
G1 X59.801 Y46.029
G1 X59.659 Y46.291
G1 X59.464 Y46.607
G1 X59.210 Y46.972
G1 X58.892 Y47.383
G1 X58.508 Y47.835
G1 X58.055 Y48.324
G1 X57.533 Y48.846
G1 X56.944 Y49.397
G1 X56.291 Y49.973
G1 X55.579 Y50.572
G1 X54.814 Y51.192
G1 X54.004 Y51.832
G1 X53.159 Y52.491
G1 X52.288 Y53.169
G1 X51.405 Y53.866
G1 X50.520 Y54.584
G1 X49.646 Y55.323
G1 X48.797 Y56.084
G1 X47.985 Y56.870
G1 X47.223 Y57.680
G1 X46.524 Y58.515
G1 X45.899 Y59.374
G1 X45.358 Y60.257
G1 X44.910 Y61.160
G1 X44.564 Y62.080
G1 X44.324 Y63.013
G1 X44.197 Y63.951
G1 X44.183 Y64.888
G1 X44.284 Y65.815
G1 X44.499 Y66.722
G1 X44.823 Y67.601
G1 X45.252 Y68.438
G1 X45.779 Y69.224
G1 X46.395 Y69.948
G1 X47.091 Y70.598
G1 X47.854 Y71.165
G1 X48.674 Y71.640
G1 X49.536 Y72.016
G1 X50.427 Y72.287
G1 X51.334 Y72.449
G1 X52.242 Y72.502
G1 X53.139 Y72.447
G1 X54.012 Y72.286
G1 X54.849 Y72.027
G1 X55.640 Y71.678
G1 X56.375 Y71.250
G1 X57.047 Y70.755
G1 X57.650 Y70.210
G1 X58.181 Y69.629
G1 X58.637 Y69.031
G1 X59.019 Y68.434
G1 X59.328 Y67.856
G1 X59.568 Y67.313
G1 X59.746 Y66.825
G1 X59.868 Y66.404
G1 X59.944 Y66.066
G1 X59.983 Y65.822
G1 X60.000 Y65.625
G1 X60.002 Y65.703
G1 X60.017 Y65.891
G1 X60.058 Y66.187
G1 X60.136 Y66.583
G1 X60.263 Y67.070
G1 X60.451 Y67.637
G1 X60.707 Y68.267
G1 X61.041 Y68.946
G1 X61.457 Y69.656
G1 X61.960 Y70.376
G1 X62.552 Y71.088
G1 X63.232 Y71.773
G1 X64.000 Y72.412
G1 X64.849 Y72.986
G1 X65.774 Y73.480
G1 X66.765 Y73.880
G1 X67.812 Y74.173
G1 X68.904 Y74.349
G1 X70.025 Y74.401
G1 X71.162 Y74.326
G1 X72.298 Y74.121
G1 X73.416 Y73.788
G1 X74.501 Y73.330
G1 X75.536 Y72.754
G1 X76.503 Y72.067
G1 X77.388 Y71.278
G1 X78.176 Y70.400
G1 X78.854 Y69.442
G1 X79.411 Y68.418
G1 X79.837 Y67.339
G1 X80.124 Y66.219
G1 X80.268 Y65.067
G1 X80.265 Y63.895
G1 X80.116 Y62.711
G1 X79.822 Y61.524
G1 X79.389 Y60.340
G1 X78.823 Y59.165
G1 X78.133 Y58.002
G1 X77.331 Y56.853
G1 X76.430 Y55.720
G1 X75.444 Y54.602
G1 X74.389 Y53.500
G1 X73.281 Y52.412
G1 X72.139 Y51.337
G1 X70.980 Y50.274
G1 X69.820 Y49.222
G1 X68.677 Y48.180
G1 X67.567 Y47.150
G1 X66.503 Y46.133
G1 X65.500 Y45.130
G1 X64.569 Y44.147
G1 X63.719 Y43.187
G1 X62.956 Y42.255
G1 X62.286 Y41.360
G1 X61.711 Y40.507
G1 X61.231 Y39.706
G1 X60.843 Y38.963
G1 X60.541 Y38.288
G1 X60.318 Y37.689
G1 X60.165 Y37.173
G1 X60.071 Y36.746
G1 X60.021 Y36.415
G1 X60.003 Y36.184
G1 X60.000 Y36.056
G1 X59.997 Y36.034
G1 X59.979 Y36.116
G1 X59.928 Y36.303
G1 X59.831 Y36.591
G1 X59.672 Y36.976
G1 X59.438 Y37.453
G1 X59.119 Y38.016
G1 X58.705 Y38.658
G1 X58.189 Y39.372
G1 X57.565 Y40.149
G1 X56.832 Y40.984
G1 X55.990 Y41.868
G1 X55.042 Y42.795
G1 X53.993 Y43.761
G1 X52.853 Y44.760
G1 X51.632 Y45.789
G1 X50.343 Y46.845
G1 X49.001 Y47.928
G1 X47.625 Y49.038
G1 X46.231 Y50.174
G1 X44.840 Y51.339
G1 X43.473 Y52.534
G1 X42.148 Y53.760
G1 X40.888 Y55.021
G1 X39.711 Y56.316
G1 X38.638 Y57.646
G1 X37.684 Y59.010
G1 X36.867 Y60.406
G1 X36.199 Y61.830
G1 X35.693 Y63.276
G1 X35.357 Y64.736
G1 X35.197 Y66.201
G1 X35.216 Y67.659
G1 X35.414 Y69.097
G1 X35.788 Y70.500
G1 X36.332 Y71.853
G1 X37.037 Y73.138
G1 X37.892 Y74.340
G1 X38.883 Y75.440
G1 X39.994 Y76.424
G1 X41.206 Y77.277
G1 X42.500 Y77.984
G1 X43.857 Y78.537
G1 X45.254 Y78.927
G1 X46.670 Y79.149
G1 X48.085 Y79.202
G1 X49.478 Y79.088
G1 X50.830 Y78.815
G1 X52.123 Y78.392
G1 X53.342 Y77.832
G1 X54.472 Y77.153
G1 X55.504 Y76.376
G1 X56.428 Y75.524
G1 X57.239 Y74.621
G1 X57.934 Y73.694
G1 X58.515 Y72.771
G1 X58.984 Y71.878
G1 X59.348 Y71.044
G1 X59.617 Y70.291
G1 X59.801 Y69.645
G1 X59.915 Y69.124
G1 X59.975 Y68.745
G1 X60.000 Y68.438
G1 X60.003 Y68.543
G1 X60.026 Y68.814
G1 X60.086 Y69.244
G1 X60.203 Y69.823
G1 X60.392 Y70.537
G1 X60.671 Y71.367
G1 X61.051 Y72.290
G1 X61.545 Y73.283
G1 X62.160 Y74.318
G1 X62.903 Y75.368
G1 X63.775 Y76.402
G1 X64.776 Y77.394
G1 X65.902 Y78.316
G1 X67.147 Y79.140
G1 X68.499 Y79.845
G1 X69.947 Y80.409
G1 X71.473 Y80.814
G1 X73.061 Y81.048
G1 X74.689 Y81.101
G1 X76.335 Y80.966
G1 X77.977 Y80.642
G1 X79.590 Y80.132
G1 X81.150 Y79.442
G1 X82.633 Y78.580
G1 X84.015 Y77.560
G1 X85.275 Y76.394
G1 X86.391 Y75.100
G1 X87.345 Y73.694
G1 X88.122 Y72.196
G1 X88.707 Y70.622
G1 X89.091 Y68.990
G1 X89.268 Y67.317
G1 X89.233 Y65.618
G1 X88.987 Y63.906
G1 X88.533 Y62.194
G1 X87.880 Y60.489
G1 X87.038 Y58.801
G1 X86.020 Y57.133
G1 X84.843 Y55.489
G1 X83.527 Y53.871
G1 X82.092 Y52.278
G1 X80.562 Y50.711
G1 X78.961 Y49.167
G1 X77.313 Y47.645
G1 X75.643 Y46.143
G1 X73.977 Y44.659
G1 X72.338 Y43.193
G1 X70.749 Y41.747
G1 X69.229 Y40.320
G1 X67.798 Y38.918
G1 X66.471 Y37.546
G1 X65.262 Y36.208
G1 X64.179 Y34.915
G1 X63.229 Y33.674
G1 X62.415 Y32.496
G1 X61.736 Y31.392
G1 X61.187 Y30.373
G1 X60.761 Y29.451
G1 X60.447 Y28.636
G1 X60.232 Y27.940
G1 X60.099 Y27.370
G1 X60.030 Y26.936
G1 X60.004 Y26.642
G1 X60.000 Y26.494
G1 X59.996 Y26.492
G1 X59.970 Y26.637
G1 X59.900 Y26.928
G1 X59.764 Y27.358
G1 X59.543 Y27.924
G1 X59.218 Y28.616
G1 X58.775 Y29.426
G1 X58.201 Y30.344
G1 X57.485 Y31.360
G1 X56.622 Y32.463
G1 X55.609 Y33.643
G1 X54.446 Y34.890
G1 X53.139 Y36.194
G1 X51.695 Y37.549
G1 X50.127 Y38.947
G1 X48.450 Y40.385
G1 X46.682 Y41.858
G1 X44.844 Y43.366
G1 X42.961 Y44.907
G1 X41.058 Y46.482
G1 X39.161 Y48.094
G1 X37.299 Y49.745
G1 X35.500 Y51.437
G1 X33.791 Y53.172
G1 X32.199 Y54.952
G1 X30.751 Y56.777
G1 X29.469 Y58.646
G1 X28.376 Y60.555
G1 X27.488 Y62.500
G1 X26.823 Y64.471
G1 X26.389 Y66.459
G1 X26.197 Y68.451
G1 X26.248 Y70.430
G1 X26.543 Y72.379
G1 X27.077 Y74.278
G1 X27.841 Y76.105
G1 X28.822 Y77.839
G1 X30.006 Y79.455
G1 X31.371 Y80.933
G1 X32.896 Y82.251
G1 X34.557 Y83.388
G1 X36.327 Y84.329
G1 X38.177 Y85.058
G1 X40.080 Y85.567
G1 X42.006 Y85.848
G1 X43.928 Y85.901
G1 X45.817 Y85.730
G1 X47.648 Y85.344
G1 X49.397 Y84.756
G1 X51.044 Y83.986
G1 X52.570 Y83.057
G1 X53.960 Y81.997
G1 X55.205 Y80.838
G1 X56.296 Y79.612
G1 X57.231 Y78.357
G1 X58.010 Y77.107
G1 X58.640 Y75.901
G1 X59.128 Y74.774
G1 X59.488 Y73.758
G1 X59.734 Y72.885
G1 X59.887 Y72.181
G1 X59.966 Y71.667
G1 X60.000 Y71.250
G1 X60.004 Y71.383
G1 X60.034 Y71.736
G1 X60.114 Y72.301
G1 X60.269 Y73.064
G1 X60.522 Y74.004
G1 X60.891 Y75.097
G1 X61.395 Y76.313
G1 X62.049 Y77.620
G1 X62.864 Y78.981
G1 X63.845 Y80.359
G1 X64.998 Y81.716
G1 X66.319 Y83.015
G1 X67.805 Y84.219
G1 X69.445 Y85.294
G1 X71.225 Y86.209
G1 X73.129 Y86.937
G1 X75.134 Y87.456
G1 X77.218 Y87.748
G1 X79.352 Y87.800
G1 X81.509 Y87.606
G1 X83.656 Y87.164
G1 X85.763 Y86.477
G1 X87.799 Y85.554
G1 X89.730 Y84.407
G1 X91.527 Y83.052
G1 X93.162 Y81.510
G1 X94.606 Y79.800
G1 X95.836 Y77.947
G1 X96.833 Y75.973
G1 X97.578 Y73.904
G1 X98.059 Y71.761
G1 X98.268 Y69.567
G1 X98.200 Y67.341
G1 X97.857 Y65.102
G1 X97.244 Y62.863
G1 X96.371 Y60.638
G1 X95.253 Y58.436
G1 X93.907 Y56.264
G1 X92.355 Y54.125
G1 X90.624 Y52.022
G1 X88.741 Y49.955
G1 X86.736 Y47.922
G1 X84.640 Y45.923
G1 X82.486 Y43.953
G1 X80.307 Y42.012
G1 X78.134 Y40.096
G1 X75.999 Y38.206
G1 X73.931 Y36.343
G1 X71.955 Y34.508
G1 X70.096 Y32.706
G1 X68.374 Y30.944
G1 X66.805 Y29.230
G1 X65.402 Y27.574
G1 X64.172 Y25.988
G1 X63.118 Y24.484
G1 X62.240 Y23.078
G1 X61.531 Y21.782
G1 X60.981 Y20.613
G1 X60.576 Y19.584
G1 X60.299 Y18.707
G1 X60.127 Y17.995
G1 X60.038 Y17.457
G1 X60.005 Y17.101
G1 X60.000 Y16.931
G1 X59.995 Y16.950
G1 X59.962 Y17.158
G1 X59.871 Y17.552
G1 X59.697 Y18.125
G1 X59.413 Y18.871
G1 X58.998 Y19.778
G1 X58.431 Y20.835
G1 X57.697 Y22.030
G1 X56.782 Y23.349
G1 X55.680 Y24.777
G1 X54.386 Y26.302
G1 X52.903 Y27.912
G1 X51.237 Y29.593
G1 X49.397 Y31.337
G1 X47.401 Y33.135
G1 X45.268 Y34.981
G1 X43.021 Y36.871
G1 X40.687 Y38.803
G1 X38.298 Y40.775
G1 X35.884 Y42.790
G1 X33.482 Y44.850
G1 X31.125 Y46.956
G1 X28.851 Y49.113
G1 X26.693 Y51.323
G1 X24.687 Y53.588
G1 X22.864 Y55.908
G1 X21.254 Y58.281
G1 X19.885 Y60.704
G1 X18.777 Y63.169
G1 X17.952 Y65.667
G1 X17.422 Y68.183
G1 X17.197 Y70.701
G1 X17.281 Y73.201
G1 X17.673 Y75.661
G1 X18.366 Y78.055
G1 X19.350 Y80.357
G1 X20.608 Y82.539
G1 X22.119 Y84.571
G1 X23.859 Y86.426
G1 X25.799 Y88.077
G1 X27.909 Y89.500
G1 X30.153 Y90.673
G1 X32.498 Y91.580
G1 X34.907 Y92.207
G1 X37.343 Y92.548
G1 X39.771 Y92.601
G1 X42.156 Y92.372
G1 X44.466 Y91.872
G1 X46.671 Y91.120
G1 X48.746 Y90.140
G1 X50.667 Y88.961
G1 X52.417 Y87.618
G1 X53.982 Y86.152
G1 X55.353 Y84.604
G1 X56.527 Y83.019
G1 X57.506 Y81.444
G1 X58.296 Y79.924
G1 X58.908 Y78.504
G1 X59.359 Y77.225
G1 X59.667 Y76.126
G1 X59.858 Y75.238
G1 X59.958 Y74.590
G1 X60.000 Y74.063
G1 X60.005 Y74.223
G1 X60.043 Y74.659
G1 X60.143 Y75.359
G1 X60.336 Y76.304
G1 X60.651 Y77.471
G1 X61.111 Y78.827
G1 X61.740 Y80.336
G1 X62.554 Y81.956
G1 X63.567 Y83.643
G1 X64.788 Y85.351
G1 X66.220 Y87.031
G1 X67.862 Y88.636
G1 X69.707 Y90.123
G1 X71.742 Y91.448
G1 X73.951 Y92.574
G1 X76.311 Y93.466
G1 X78.796 Y94.098
G1 X81.375 Y94.447
G1 X84.016 Y94.499
G1 X86.682 Y94.246
G1 X89.335 Y93.685
G1 X91.937 Y92.821
G1 X94.447 Y91.666
G1 X96.827 Y90.233
G1 X99.040 Y88.545
G1 X101.048 Y86.625
G1 X102.821 Y84.500
G1 X104.328 Y82.199
G1 X105.544 Y79.751
G1 X106.448 Y77.186
G1 X107.027 Y74.532
G1 X107.268 Y71.817
G1 X107.168 Y69.065
G1 X106.728 Y66.297
G1 X105.955 Y63.533
G1 X104.862 Y60.787
G1 X103.468 Y58.072
G1 X101.793 Y55.394
G1 X99.868 Y52.761
G1 X97.721 Y50.173
G1 X95.390 Y47.631
G1 X92.909 Y45.133
G1 X90.319 Y42.678
G1 X87.660 Y40.261
G1 X84.971 Y37.880
G1 X82.292 Y35.533
G1 X79.660 Y33.219
G1 X77.113 Y30.939
G1 X74.681 Y28.696
G1 X72.394 Y26.494
G1 X70.276 Y24.343
G1 X68.349 Y22.252
G1 X66.625 Y20.233
G1 X65.115 Y18.302
G1 X63.822 Y16.473
G1 X62.744 Y14.764
G1 X61.875 Y13.192
G1 X61.201 Y11.775
G1 X60.706 Y10.531
G1 X60.366 Y9.474
G1 X60.156 Y8.620
G1 X60.047 Y7.978
G1 X60.006 Y7.559
G1 X60.000 Y7.369
G1 X59.994 Y7.409
G1 X59.953 Y7.680
G1 X59.843 Y8.177
G1 X59.630 Y8.893
G1 X59.284 Y9.818
G1 X58.778 Y10.940
G1 X58.087 Y12.245
G1 X57.192 Y13.716
G1 X56.079 Y15.337
G1 X54.737 Y17.091
G1 X53.163 Y18.962
G1 X51.360 Y20.933
G1 X49.334 Y22.992
G1 X47.100 Y25.125
G1 X44.675 Y27.323
G1 X42.086 Y29.578
G1 X39.359 Y31.884
G1 X36.530 Y34.240
G1 X33.634 Y36.644
G1 X30.711 Y39.098
G1 X27.803 Y41.605
G1 X24.952 Y44.167
G1 X22.202 Y46.789
G1 X19.596 Y49.474
G1 X17.175 Y52.224
G1 X14.977 Y55.039
G1 X13.040 Y57.917
G1 X11.393 Y60.853
G1 X10.067 Y63.839
G1 X9.081 Y66.862
G1 X8.454 Y69.906
G1 X8.197 Y72.951
G1 X8.313 Y75.972
G1 X8.802 Y78.943
G1 X9.655 Y81.833
G1 X10.859 Y84.610
G1 X12.393 Y87.239
G1 X14.232 Y89.687
G1 X16.347 Y91.919
G1 X18.702 Y93.904
G1 X21.260 Y95.612
G1 X23.980 Y97.018
G1 X26.819 Y98.101
G1 X29.733 Y98.847
G1 X32.679 Y99.247
G1 X35.613 Y99.300
G1 X38.495 Y99.014
G1 X41.284 Y98.401
G1 X43.946 Y97.485
G1 X46.448 Y96.294
G1 X48.765 Y94.865
G1 X50.874 Y93.239
G1 X52.759 Y91.466
G1 X54.410 Y89.595
G1 X55.824 Y87.682
G1 X57.001 Y85.781
G1 X57.952 Y83.947
G1 X58.688 Y82.234
G1 X59.229 Y80.692
G1 X59.601 Y79.366
G1 X59.830 Y78.295
G1 X59.949 Y77.513
G1 X60.000 Y76.875
G1 X60.006 Y77.064
G1 X60.051 Y77.582
G1 X60.171 Y78.416
G1 X60.403 Y79.545
G1 X60.780 Y80.938
G1 X61.331 Y82.557
G1 X62.084 Y84.359
G1 X63.058 Y86.293
G1 X64.270 Y88.306
G1 X65.731 Y90.342
G1 X67.443 Y92.345
G1 X69.406 Y94.257
G1 X71.610 Y96.027
G1 X74.040 Y97.602
G1 X76.677 Y98.938
G1 X79.493 Y99.995
G1 X82.457 Y100.740
G1 X85.532 Y101.147
G1 X88.680 Y101.199
G1 X91.856 Y100.886
G1 X95.015 Y100.206
G1 X98.110 Y99.166
G1 X101.096 Y97.777
G1 X103.925 Y96.060
G1 X106.552 Y94.038
G1 X108.935 Y91.741
G1 X111.036 Y89.200
G1 X112.819 Y86.451
G1 X114.255 Y83.529
G1 X115.319 Y80.468
G1 X115.994 Y77.303
G1 X116.268 Y74.067
G1 X116.135 Y70.788
G1 X115.598 Y67.493
G1 X114.666 Y64.203
G1 X113.354 Y60.937
G1 X111.682 Y57.707
G1 X109.680 Y54.525
G1 X107.380 Y51.397
G1 X104.819 Y48.324
G1 X102.038 Y45.307
G1 X99.083 Y42.344
G1 X95.998 Y39.433
G1 X92.833 Y36.569
G1 X89.634 Y33.749
G1 X86.449 Y30.971
G1 X83.321 Y28.232
G1 X80.295 Y25.535
G1 X77.407 Y22.883
G1 X74.692 Y20.283
G1 X72.179 Y17.742
G1 X69.892 Y15.274
G1 X67.848 Y12.893
G1 X66.057 Y10.616
G1 X64.525 Y8.461
G1 X63.249 Y6.449
G1 X62.219 Y4.601
G1 X61.421 Y2.938
G1 X60.835 Y1.478
G1 X60.433 Y0.242
G1 X60.372 Y0.000
G1 X59.438 Y0.000
G1 X59.155 Y0.765
G1 X58.558 Y2.103
G1 X57.743 Y3.654
G1 X56.688 Y5.402
G1 X55.375 Y7.326
G1 X53.794 Y9.405
G1 X51.940 Y11.621
G1 X49.816 Y13.955
G1 X47.432 Y16.391
G1 X44.802 Y18.913
G1 X41.950 Y21.510
G1 X38.904 Y24.174
G1 X35.698 Y26.897
G1 X32.373 Y29.677
G1 X28.970 Y32.513
G1 X25.537 Y35.406
G1 X22.123 Y38.360
G1 X18.778 Y41.378
G1 X15.554 Y44.465
G1 X12.499 Y47.625
G1 X9.663 Y50.859
G1 X7.091 Y54.170
G1 X4.825 Y57.552
G1 X2.902 Y61.002
G1 X1.356 Y64.509
G1 X0.211 Y68.058
G1 X0.000 Y69.097
G1 X0.000 Y82.455
G1 X0.944 Y85.611
G1 X2.367 Y88.862
G1 X4.178 Y91.939
G1 X6.345 Y94.802
G1 X8.835 Y97.412
G1 X11.605 Y99.730
G1 X14.611 Y101.724
G1 X17.806 Y103.362
G1 X21.140 Y104.622
G1 X24.560 Y105.487
G1 X28.015 Y105.946
G1 X31.456 Y106.000
G1 X34.834 Y105.655
G1 X38.102 Y104.930
G1 X41.220 Y103.849
G1 X44.150 Y102.448
G1 X46.862 Y100.768
G1 X49.330 Y98.860
G1 X51.536 Y96.780
G1 X53.467 Y94.587
G1 X55.120 Y92.344
G1 X56.497 Y90.117
G1 X57.607 Y87.970
G1 X58.468 Y85.964
G1 X59.100 Y84.159
G1 X59.534 Y82.606
G1 X59.801 Y81.353
G1 X59.941 Y80.435
G1 X60.000 Y79.688
G1 X60.007 Y79.904
G1 X60.059 Y80.504
G1 X60.200 Y81.473
G1 X60.470 Y82.785
G1 X60.909 Y84.405
G1 X61.551 Y86.287
G1 X62.428 Y88.382
G1 X63.562 Y90.629
G1 X64.974 Y92.968
G1 X66.674 Y95.334
G1 X68.666 Y97.659
G1 X70.949 Y99.878
G1 X73.512 Y101.930
G1 X76.338 Y103.756
G1 X79.403 Y105.302
G1 X82.675 Y106.524
G1 X86.118 Y107.381
G1 X89.689 Y107.846
G1 X93.343 Y107.898
G1 X97.029 Y107.526
G1 X100.694 Y106.728
G1 X104.284 Y105.510
G1 X107.745 Y103.889
G1 X111.022 Y101.886
G1 X114.064 Y99.531
G1 X116.822 Y96.856
G1 X119.250 Y93.901
G1 X120.000 Y92.737
G1 X120.000 Y57.540
G1 X119.897 Y57.343
G1 X117.567 Y53.656
G1 X114.892 Y50.032
G1 X111.916 Y46.475
G1 X108.687 Y42.983
G1 X105.256 Y39.556
G1 X101.678 Y36.188
G1 X98.007 Y32.877
G1 X94.298 Y29.618
G1 X90.606 Y26.408
G1 X86.983 Y23.245
G1 X83.477 Y20.132
G1 X80.132 Y17.071
G1 X76.989 Y14.071
G1 X74.081 Y11.141
G1 X71.435 Y8.296
G1 X69.071 Y5.552
G1 X67.000 Y2.929
G1 X65.229 Y0.449
G1 X64.942 Y0.000
G1 X54.152 Y0.000
G1 X52.851 Y1.719
G1 X50.717 Y4.281
G1 X48.273 Y6.977
G1 X45.529 Y9.789
G1 X42.504 Y12.701
G1 X39.224 Y15.698
G1 X35.722 Y18.770
G1 X32.037 Y21.910
G1 X28.216 Y25.114
G1 X24.307 Y28.382
G1 X20.364 Y31.714
G1 X16.444 Y35.115
G1 X12.605 Y38.589
G1 X8.905 Y42.141
G1 X5.402 Y45.776
G1 X2.151 Y49.495
G1 X0.000 Y52.272
G1 X0.000 Y101.525
G1 X1.322 Y102.904
G1 X4.508 Y105.557
G1 X7.963 Y107.835
G1 X11.633 Y109.707
G1 X15.460 Y111.144
G1 X19.386 Y112.127
G1 X23.352 Y112.646
G1 X27.299 Y112.700
G1 X31.172 Y112.297
G1 X34.920 Y111.459
G1 X38.494 Y110.213
G1 X41.853 Y108.602
G1 X44.960 Y106.672
G1 X47.787 Y104.482
G1 X50.313 Y102.094
G1 X52.525 Y99.578
G1 X54.417 Y97.007
G1 X55.993 Y94.454
G1 X57.263 Y91.993
G1 X58.247 Y89.694
G1 X58.971 Y87.626
G1 X59.467 Y85.847
G1 X59.773 Y84.410
G1 X59.932 Y83.358
G1 X60.000 Y82.500
G1 X60.009 Y82.744
G1 X60.068 Y83.427
G1 X60.228 Y84.530
G1 X60.537 Y86.026
G1 X61.038 Y87.871
G1 X61.772 Y90.018
G1 X62.772 Y92.404
G1 X64.067 Y94.966
G1 X65.677 Y97.631
G1 X67.616 Y100.325
G1 X69.889 Y102.973
G1 X72.492 Y105.500
G1 X75.415 Y107.834
G1 X78.636 Y109.910
G1 X82.128 Y111.667
G1 X85.857 Y113.052
G1 X89.779 Y114.023
G1 X93.847 Y114.546
G1 X98.007 Y114.598
G1 X102.202 Y114.166
G1 X106.373 Y113.249
G1 X110.457 Y111.855
G1 X114.393 Y110.001
G1 X118.119 Y107.713
G1 X120.000 Y106.250
G1 X120.000 Y45.802
G1 X119.013 Y44.626
G1 X115.335 Y40.659
G1 X111.430 Y36.767
G1 X107.357 Y32.944
G1 X103.180 Y29.185
G1 X98.962 Y25.487
G1 X94.763 Y21.845
G1 X90.644 Y18.258
G1 X86.658 Y14.728
G1 X82.858 Y11.259
G1 X79.287 Y7.859
G1 X75.984 Y4.540
G1 X72.979 Y1.318
G1 X71.840 Y0.000
G1 X46.729 Y0.000
G1 X43.627 Y3.188
G1 X40.206 Y6.489
G1 X36.498 Y9.886
G1 X32.540 Y13.366
G1 X28.376 Y16.923
G1 X24.058 Y20.552
G1 X19.643 Y24.251
G1 X15.190 Y28.023
G1 X10.765 Y31.871
G1 X6.431 Y35.801
G1 X2.256 Y39.818
G1 X0.000 Y42.164
G1 X0.000 Y113.084
G1 X1.314 Y113.947
G1 X5.459 Y116.051
G1 X9.781 Y117.665
G1 X14.213 Y118.767
G1 X18.688 Y119.345
G1 X23.142 Y119.399
G1 X27.511 Y118.939
G1 X31.738 Y117.987
G1 X35.768 Y116.578
G1 X39.555 Y114.756
G1 X43.057 Y112.576
G1 X46.244 Y110.103
G1 X49.090 Y107.408
G1 X51.582 Y104.570
G1 X53.713 Y101.669
G1 X55.488 Y98.790
G1 X56.919 Y96.016
G1 X58.027 Y93.425
G1 X58.842 Y91.093
G1 X59.400 Y89.087
G1 X59.745 Y87.467
G1 X59.924 Y86.280
G1 X60.000 Y85.313
G1 X60.010 Y85.584
G1 X60.076 Y86.349
G1 X60.257 Y87.588
G1 X60.604 Y89.266
G1 X61.167 Y91.338
G1 X61.992 Y93.748
G1 X63.116 Y96.427
G1 X64.571 Y99.303
G1 X66.381 Y102.294
G1 X68.559 Y105.317
G1 X71.112 Y108.287
G1 X74.036 Y111.121
G1 X77.317 Y113.738
G1 X80.934 Y116.064
G1 X84.854 Y118.031
G1 X89.039 Y119.581
G1 X90.740 Y120.000
G1 X111.015 Y120.000
G1 X112.052 Y119.770
G1 X116.631 Y118.199
G1 X120.000 Y116.605
G1 X120.000 Y36.362
G1 X117.603 Y33.978
G1 X113.036 Y29.699
G1 X108.354 Y25.493
G1 X103.625 Y21.356
G1 X98.920 Y17.282
G1 X94.305 Y13.271
G1 X89.840 Y9.324
G1 X85.584 Y5.446
G1 X81.585 Y1.647
G1 X79.943 Y0.000
G1 X38.195 Y0.000
G1 X37.908 Y0.277
G1 X33.772 Y4.073
G1 X29.358 Y7.963
G1 X24.715 Y11.936
G1 X19.901 Y15.989
G1 X14.979 Y20.120
G1 X10.017 Y24.331
G1 X5.086 Y28.626
G1 X0.258 Y33.012
G1 X0.000 Y33.260
G1 X0.000 Y120.000
G1 X38.716 Y120.000
G1 X41.155 Y118.479
G1 X44.700 Y115.724
G1 X47.867 Y112.722
G1 X50.639 Y109.561
G1 X53.010 Y106.332
G1 X54.984 Y103.127
G1 X56.575 Y100.038
G1 X57.807 Y97.155
G1 X58.713 Y94.560
G1 X59.333 Y92.328
G1 X59.716 Y90.525
G1 X59.915 Y89.203
G1 X60.000 Y88.125
G1 X60.011 Y88.425
G1 X60.085 Y89.272
G1 X60.285 Y90.645
G1 X60.670 Y92.506
G1 X61.296 Y94.805
G1 X62.212 Y97.478
G1 X63.460 Y100.450
G1 X65.076 Y103.639
G1 X67.084 Y106.956
G1 X69.502 Y110.308
G1 X72.335 Y113.601
G1 X75.579 Y116.742
G1 X79.220 Y119.642
G1 X79.778 Y120.000
G1 X120.000 Y120.000
G1 X120.000 Y27.656
G1 X118.716 Y26.454
G1 X113.527 Y21.801
G1 X108.289 Y17.225
G1 X103.078 Y12.719
G1 X97.966 Y8.284
G1 X93.022 Y3.921
G1 X88.712 Y0.000
G1 X29.076 Y0.000
G1 X26.176 Y2.559
G1 X21.054 Y6.949
G1 X15.744 Y11.426
G1 X10.316 Y15.988
G1 X4.844 Y20.639
G1 X0.000 Y24.863
G1 X0.000 Y120.000
G1 X44.574 Y120.000
G1 X46.644 Y118.036
G1 X49.696 Y114.553
G1 X52.307 Y110.995
G1 X54.480 Y107.464
G1 X56.231 Y104.061
G1 X57.587 Y100.885
G1 X58.584 Y98.026
G1 X59.266 Y95.568
G1 X59.688 Y93.582
G1 X59.907 Y92.125
G1 X59.754 Y120.000
G1 X0.000 Y120.000
G1 X0.000 Y0.000

