;  Created by Sandify
;  https://sandify.org
;  Version: 0.2.8
;
;  Machine type: Rectangular
;    Min X (mm): 0
;    Max X (mm): 120
;    Min Y (mm): 0
;    Max Y (mm): 120
;  Content type: shape
;  Layer:
;    Shape: Polygon
;    Name: point
;    Number of sides: 4
;    Round corners: false
;    Visible: true
;    Initial width: 10
;    Initial height: 10
;    X offset: 0
;    Y offset: 0
;    Rotate (degrees): 0
;    Reverse path: false
;    Number of loops: 10
;    When transforming shape: smear
;    Scale: true
;      Scale (+/-): 100
;      Scale by: constant
;    Spin: false
;    Track: false
;    Fine tuning:
;      Connect to next layer: line
;      Draw portion of path (%): 100
;      Backtrack at end (%): 0
;      Rotate starting point (%): 0
;  Reverse export path: false
;
; File name: 'rectangle'
; File type: gcode
;

G1 X67.071 Y67.071
G1 X51.161 Y68.839
G1 X49.393 Y49.393
G1 X72.374 Y47.626
G1 X74.142 Y74.142
G1 X44.090 Y75.910
G1 X42.322 Y42.322
G1 X79.445 Y40.555
G1 X81.213 Y81.213
G1 X37.019 Y82.981
G1 X35.251 Y35.251
G1 X86.517 Y33.483
G1 X88.284 Y88.284
G1 X29.948 Y90.052
G1 X28.180 Y28.180
G1 X93.588 Y26.412
G1 X95.355 Y95.355
G1 X22.877 Y97.123
G1 X21.109 Y21.109
G1 X100.659 Y19.341
G1 X102.426 Y102.426
G1 X15.806 Y104.194
G1 X14.038 Y14.038
G1 X107.730 Y12.270
G1 X109.497 Y109.497
G1 X8.735 Y111.265
G1 X6.967 Y6.967
G1 X114.801 Y5.199
G1 X116.569 Y116.569
G1 X1.664 Y118.336
G1 X0.000 Y6.869
G1 X0.000 Y3.747
G1 X0.000 Y0.000

