;  Created by Sandify
;  https://sandify.org
;  Version: 0.2.8
;
;  Machine type: Rectangular
;    Min X (mm): 0
;    Max X (mm): 120
;    Min Y (mm): 0
;    Max Y (mm): 120
;  Content type: shape
;  Layer:
;    Shape: Reuleaux
;    Name: point
;    Number of sides: 3
;    Visible: true
;    Initial width: 10
;    Initial height: 10
;    X offset: 0
;    Y offset: 0
;    Rotate (degrees): 0
;    Reverse path: false
;    Number of loops: 10
;    When transforming shape: smear
;    Scale: true
;      Scale (+/-): 100
;      Scale by: constant
;    Spin: false
;    Track: false
;    Fine tuning:
;      Connect to next layer: line
;      Draw portion of path (%): 100
;      Backtrack at end (%): 0
;      Rotate starting point (%): 0
;  Reverse export path: false
;
; File name: 'reuleaux'
; File type: gcode
;

G1 X51.500 Y55.093
G1 X51.599 Y55.010
G1 X51.699 Y54.929
G1 X51.800 Y54.848
G1 X51.903 Y54.768
G1 X52.006 Y54.689
G1 X52.111 Y54.610
G1 X52.217 Y54.532
G1 X52.324 Y54.455
G1 X52.432 Y54.378
G1 X52.542 Y54.302
G1 X52.652 Y54.227
G1 X52.764 Y54.153
G1 X52.877 Y54.079
G1 X52.991 Y54.006
G1 X53.106 Y53.934
G1 X53.223 Y53.863
G1 X53.340 Y53.792
G1 X53.459 Y53.723
G1 X53.578 Y53.654
G1 X53.699 Y53.586
G1 X53.821 Y53.519
G1 X53.944 Y53.453
G1 X54.068 Y53.388
G1 X54.193 Y53.323
G1 X54.319 Y53.260
G1 X54.447 Y53.197
G1 X54.575 Y53.136
G1 X54.704 Y53.075
G1 X54.835 Y53.016
G1 X54.966 Y52.957
G1 X55.099 Y52.899
G1 X55.232 Y52.842
G1 X55.367 Y52.787
G1 X55.503 Y52.732
G1 X55.639 Y52.678
G1 X55.777 Y52.625
G1 X55.915 Y52.574
G1 X56.055 Y52.523
G1 X56.196 Y52.474
G1 X56.337 Y52.425
G1 X56.480 Y52.378
G1 X56.623 Y52.332
G1 X56.767 Y52.287
G1 X56.913 Y52.243
G1 X57.059 Y52.200
G1 X57.206 Y52.158
G1 X57.354 Y52.118
G1 X57.503 Y52.078
G1 X57.653 Y52.040
G1 X57.803 Y52.003
G1 X57.955 Y51.967
G1 X58.107 Y51.932
G1 X58.261 Y51.899
G1 X58.415 Y51.867
G1 X58.570 Y51.836
G1 X58.726 Y51.806
G1 X58.882 Y51.778
G1 X59.040 Y51.750
G1 X59.198 Y51.725
G1 X59.357 Y51.700
G1 X59.516 Y51.677
G1 X59.677 Y51.654
G1 X59.838 Y51.634
G1 X60.000 Y51.614
G1 X60.163 Y51.596
G1 X60.326 Y51.579
G1 X60.490 Y51.564
G1 X60.655 Y51.550
G1 X60.820 Y51.537
G1 X60.987 Y51.526
G1 X61.153 Y51.516
G1 X61.321 Y51.507
G1 X61.489 Y51.500
G1 X61.658 Y51.495
G1 X61.827 Y51.490
G1 X61.997 Y51.487
G1 X62.167 Y51.486
G1 X62.339 Y51.486
G1 X62.510 Y51.487
G1 X62.682 Y51.490
G1 X62.855 Y51.494
G1 X63.028 Y51.500
G1 X63.202 Y51.507
G1 X63.377 Y51.516
G1 X63.551 Y51.526
G1 X63.727 Y51.538
G1 X63.902 Y51.551
G1 X64.079 Y51.566
G1 X64.255 Y51.582
G1 X64.432 Y51.600
G1 X64.610 Y51.619
G1 X64.788 Y51.640
G1 X64.966 Y51.662
G1 X65.144 Y51.686
G1 X65.323 Y51.711
G1 X65.503 Y51.738
G1 X65.682 Y51.767
G1 X65.862 Y51.797
G1 X66.043 Y51.829
G1 X66.223 Y51.862
G1 X66.404 Y51.897
G1 X66.585 Y51.933
G1 X66.767 Y51.971
G1 X66.948 Y52.011
G1 X67.130 Y52.052
G1 X67.312 Y52.095
G1 X67.494 Y52.140
G1 X67.677 Y52.186
G1 X67.859 Y52.233
G1 X68.042 Y52.283
G1 X68.225 Y52.334
G1 X68.408 Y52.386
G1 X68.591 Y52.441
G1 X68.774 Y52.496
G1 X68.958 Y52.554
G1 X69.141 Y52.613
G1 X69.324 Y52.674
G1 X69.508 Y52.736
G1 X69.691 Y52.800
G1 X69.875 Y52.866
G1 X70.058 Y52.934
G1 X70.242 Y53.003
G1 X70.425 Y53.074
G1 X70.608 Y53.146
G1 X70.792 Y53.220
G1 X70.975 Y53.296
G1 X71.158 Y53.373
G1 X71.341 Y53.452
G1 X71.362 Y53.626
G1 X71.382 Y53.799
G1 X71.400 Y53.974
G1 X71.417 Y54.149
G1 X71.433 Y54.325
G1 X71.446 Y54.502
G1 X71.458 Y54.679
G1 X71.469 Y54.857
G1 X71.478 Y55.035
G1 X71.485 Y55.214
G1 X71.491 Y55.394
G1 X71.495 Y55.574
G1 X71.498 Y55.755
G1 X71.499 Y55.936
G1 X71.498 Y56.118
G1 X71.496 Y56.301
G1 X71.492 Y56.484
G1 X71.486 Y56.667
G1 X71.479 Y56.851
G1 X71.470 Y57.035
G1 X71.459 Y57.220
G1 X71.447 Y57.406
G1 X71.433 Y57.591
G1 X71.417 Y57.778
G1 X71.400 Y57.964
G1 X71.381 Y58.151
G1 X71.360 Y58.339
G1 X71.337 Y58.526
G1 X71.313 Y58.714
G1 X71.287 Y58.903
G1 X71.259 Y59.091
G1 X71.230 Y59.280
G1 X71.198 Y59.470
G1 X71.165 Y59.659
G1 X71.131 Y59.849
G1 X71.094 Y60.039
G1 X71.056 Y60.229
G1 X71.016 Y60.420
G1 X70.974 Y60.610
G1 X70.931 Y60.801
G1 X70.885 Y60.992
G1 X70.838 Y61.183
G1 X70.789 Y61.375
G1 X70.738 Y61.566
G1 X70.686 Y61.758
G1 X70.631 Y61.949
G1 X70.575 Y62.141
G1 X70.517 Y62.333
G1 X70.458 Y62.524
G1 X70.396 Y62.716
G1 X70.333 Y62.908
G1 X70.267 Y63.100
G1 X70.200 Y63.291
G1 X70.131 Y63.483
G1 X70.061 Y63.674
G1 X69.988 Y63.866
G1 X69.914 Y64.057
G1 X69.838 Y64.249
G1 X69.760 Y64.440
G1 X69.680 Y64.631
G1 X69.598 Y64.822
G1 X69.514 Y65.013
G1 X69.429 Y65.203
G1 X69.342 Y65.393
G1 X69.253 Y65.584
G1 X69.162 Y65.773
G1 X69.069 Y65.963
G1 X68.974 Y66.152
G1 X68.878 Y66.341
G1 X68.780 Y66.530
G1 X68.680 Y66.718
G1 X68.578 Y66.907
G1 X68.474 Y67.094
G1 X68.368 Y67.282
G1 X68.261 Y67.468
G1 X68.151 Y67.655
G1 X68.040 Y67.841
G1 X67.927 Y68.027
G1 X67.812 Y68.212
G1 X67.695 Y68.397
G1 X67.577 Y68.581
G1 X67.456 Y68.765
G1 X67.334 Y68.948
G1 X67.210 Y69.130
G1 X67.084 Y69.312
G1 X66.957 Y69.494
G1 X66.827 Y69.675
G1 X66.696 Y69.855
G1 X66.563 Y70.035
G1 X66.428 Y70.214
G1 X66.291 Y70.392
G1 X66.152 Y70.570
G1 X66.012 Y70.747
G1 X65.870 Y70.923
G1 X65.726 Y71.099
G1 X65.580 Y71.274
G1 X65.432 Y71.448
G1 X65.283 Y71.621
G1 X65.132 Y71.793
G1 X64.979 Y71.965
G1 X64.824 Y72.136
G1 X64.668 Y72.306
G1 X64.510 Y72.475
G1 X64.350 Y72.643
G1 X64.188 Y72.811
G1 X64.025 Y72.977
G1 X63.859 Y73.143
G1 X63.692 Y73.307
G1 X63.524 Y73.471
G1 X63.353 Y73.633
G1 X63.181 Y73.795
G1 X63.008 Y73.956
G1 X62.832 Y74.115
G1 X62.655 Y74.274
G1 X62.476 Y74.431
G1 X62.295 Y74.588
G1 X62.113 Y74.743
G1 X61.929 Y74.897
G1 X61.744 Y75.051
G1 X61.556 Y75.202
G1 X61.368 Y75.353
G1 X61.177 Y75.503
G1 X60.985 Y75.651
G1 X60.791 Y75.799
G1 X60.596 Y75.945
G1 X60.399 Y76.090
G1 X60.200 Y76.233
G1 X60.000 Y76.375
G1 X59.799 Y76.284
G1 X59.599 Y76.191
G1 X59.399 Y76.095
G1 X59.199 Y75.998
G1 X59.000 Y75.898
G1 X58.801 Y75.797
G1 X58.602 Y75.693
G1 X58.404 Y75.588
G1 X58.207 Y75.481
G1 X58.009 Y75.371
G1 X57.813 Y75.260
G1 X57.617 Y75.146
G1 X57.421 Y75.031
G1 X57.226 Y74.913
G1 X57.032 Y74.794
G1 X56.838 Y74.673
G1 X56.645 Y74.549
G1 X56.452 Y74.424
G1 X56.260 Y74.296
G1 X56.069 Y74.167
G1 X55.878 Y74.036
G1 X55.688 Y73.903
G1 X55.499 Y73.767
G1 X55.311 Y73.630
G1 X55.123 Y73.491
G1 X54.936 Y73.350
G1 X54.750 Y73.207
G1 X54.565 Y73.062
G1 X54.380 Y72.915
G1 X54.196 Y72.766
G1 X54.014 Y72.615
G1 X53.832 Y72.462
G1 X53.651 Y72.308
G1 X53.471 Y72.151
G1 X53.291 Y71.992
G1 X53.113 Y71.832
G1 X52.936 Y71.670
G1 X52.760 Y71.506
G1 X52.584 Y71.339
G1 X52.410 Y71.171
G1 X52.237 Y71.002
G1 X52.065 Y70.830
G1 X51.893 Y70.656
G1 X51.723 Y70.481
G1 X51.555 Y70.303
G1 X51.387 Y70.124
G1 X51.220 Y69.943
G1 X51.055 Y69.761
G1 X50.890 Y69.576
G1 X50.727 Y69.389
G1 X50.565 Y69.201
G1 X50.405 Y69.011
G1 X50.245 Y68.819
G1 X50.087 Y68.626
G1 X49.930 Y68.430
G1 X49.775 Y68.233
G1 X49.620 Y68.034
G1 X49.467 Y67.834
G1 X49.316 Y67.631
G1 X49.166 Y67.427
G1 X49.017 Y67.222
G1 X48.869 Y67.014
G1 X48.723 Y66.805
G1 X48.579 Y66.594
G1 X48.436 Y66.382
G1 X48.294 Y66.167
G1 X48.154 Y65.952
G1 X48.015 Y65.734
G1 X47.878 Y65.515
G1 X47.742 Y65.294
G1 X47.608 Y65.072
G1 X47.475 Y64.848
G1 X47.344 Y64.622
G1 X47.215 Y64.395
G1 X47.087 Y64.167
G1 X46.961 Y63.936
G1 X46.836 Y63.705
G1 X46.713 Y63.471
G1 X46.592 Y63.236
G1 X46.472 Y63.000
G1 X46.354 Y62.762
G1 X46.238 Y62.523
G1 X46.124 Y62.282
G1 X46.011 Y62.040
G1 X45.900 Y61.797
G1 X45.791 Y61.552
G1 X45.684 Y61.305
G1 X45.578 Y61.057
G1 X45.474 Y60.808
G1 X45.372 Y60.557
G1 X45.272 Y60.306
G1 X45.174 Y60.052
G1 X45.077 Y59.798
G1 X44.983 Y59.542
G1 X44.890 Y59.284
G1 X44.800 Y59.026
G1 X44.711 Y58.766
G1 X44.624 Y58.505
G1 X44.539 Y58.243
G1 X44.456 Y57.979
G1 X44.375 Y57.715
G1 X44.296 Y57.449
G1 X44.219 Y57.182
G1 X44.144 Y56.914
G1 X44.071 Y56.644
G1 X44.000 Y56.374
G1 X43.931 Y56.102
G1 X43.865 Y55.830
G1 X43.800 Y55.556
G1 X43.737 Y55.281
G1 X43.677 Y55.005
G1 X43.618 Y54.728
G1 X43.562 Y54.450
G1 X43.508 Y54.171
G1 X43.455 Y53.892
G1 X43.405 Y53.611
G1 X43.358 Y53.329
G1 X43.312 Y53.046
G1 X43.269 Y52.763
G1 X43.227 Y52.478
G1 X43.188 Y52.193
G1 X43.152 Y51.907
G1 X43.117 Y51.619
G1 X43.085 Y51.332
G1 X43.055 Y51.043
G1 X43.027 Y50.753
G1 X43.000 Y50.185
G1 X43.220 Y50.034
G1 X43.441 Y49.884
G1 X43.664 Y49.737
G1 X43.889 Y49.591
G1 X44.115 Y49.446
G1 X44.344 Y49.303
G1 X44.574 Y49.162
G1 X44.805 Y49.023
G1 X45.038 Y48.885
G1 X45.273 Y48.749
G1 X45.510 Y48.615
G1 X45.748 Y48.483
G1 X45.988 Y48.352
G1 X46.229 Y48.224
G1 X46.472 Y48.097
G1 X46.717 Y47.972
G1 X46.963 Y47.849
G1 X47.211 Y47.728
G1 X47.460 Y47.608
G1 X47.711 Y47.491
G1 X47.963 Y47.375
G1 X48.217 Y47.262
G1 X48.472 Y47.150
G1 X48.729 Y47.041
G1 X48.987 Y46.933
G1 X49.246 Y46.827
G1 X49.507 Y46.724
G1 X49.770 Y46.622
G1 X50.033 Y46.523
G1 X50.298 Y46.425
G1 X50.565 Y46.330
G1 X50.833 Y46.237
G1 X51.102 Y46.145
G1 X51.372 Y46.056
G1 X51.644 Y45.969
G1 X51.917 Y45.884
G1 X52.191 Y45.802
G1 X52.466 Y45.721
G1 X52.743 Y45.643
G1 X53.021 Y45.567
G1 X53.300 Y45.493
G1 X53.580 Y45.421
G1 X53.861 Y45.352
G1 X54.143 Y45.285
G1 X54.427 Y45.220
G1 X54.712 Y45.157
G1 X54.997 Y45.097
G1 X55.284 Y45.039
G1 X55.572 Y44.983
G1 X55.861 Y44.929
G1 X56.150 Y44.878
G1 X56.441 Y44.829
G1 X56.733 Y44.783
G1 X57.026 Y44.739
G1 X57.319 Y44.697
G1 X57.614 Y44.657
G1 X57.909 Y44.620
G1 X58.205 Y44.586
G1 X58.502 Y44.554
G1 X58.800 Y44.524
G1 X59.099 Y44.497
G1 X59.399 Y44.472
G1 X59.699 Y44.449
G1 X60.000 Y44.429
G1 X60.302 Y44.412
G1 X60.604 Y44.397
G1 X60.907 Y44.384
G1 X61.211 Y44.374
G1 X61.516 Y44.366
G1 X61.821 Y44.361
G1 X62.126 Y44.359
G1 X62.433 Y44.359
G1 X62.740 Y44.361
G1 X63.047 Y44.366
G1 X63.355 Y44.374
G1 X63.663 Y44.384
G1 X63.972 Y44.397
G1 X64.281 Y44.412
G1 X64.591 Y44.430
G1 X64.901 Y44.450
G1 X65.212 Y44.473
G1 X65.523 Y44.499
G1 X65.834 Y44.527
G1 X66.146 Y44.558
G1 X66.458 Y44.591
G1 X66.770 Y44.627
G1 X67.082 Y44.666
G1 X67.395 Y44.707
G1 X67.708 Y44.751
G1 X68.021 Y44.798
G1 X68.334 Y44.847
G1 X68.648 Y44.899
G1 X68.961 Y44.953
G1 X69.275 Y45.010
G1 X69.589 Y45.070
G1 X69.903 Y45.133
G1 X70.217 Y45.198
G1 X70.530 Y45.266
G1 X70.844 Y45.336
G1 X71.158 Y45.409
G1 X71.472 Y45.485
G1 X71.786 Y45.563
G1 X72.099 Y45.644
G1 X72.413 Y45.728
G1 X72.726 Y45.815
G1 X73.039 Y45.904
G1 X73.352 Y45.996
G1 X73.665 Y46.090
G1 X73.978 Y46.188
G1 X74.290 Y46.287
G1 X74.602 Y46.390
G1 X74.914 Y46.495
G1 X75.225 Y46.603
G1 X75.536 Y46.714
G1 X75.847 Y46.827
G1 X76.157 Y46.943
G1 X76.467 Y47.062
G1 X76.776 Y47.183
G1 X77.085 Y47.308
G1 X77.394 Y47.434
G1 X77.702 Y47.564
G1 X78.009 Y47.696
G1 X78.316 Y47.831
G1 X78.622 Y47.968
G1 X78.928 Y48.108
G1 X79.233 Y48.251
G1 X79.537 Y48.397
G1 X79.841 Y48.545
G1 X79.862 Y48.857
G1 X79.880 Y49.170
G1 X79.895 Y49.484
G1 X79.908 Y49.798
G1 X79.918 Y50.113
G1 X79.926 Y50.428
G1 X79.931 Y50.744
G1 X79.933 Y51.061
G1 X79.932 Y51.378
G1 X79.928 Y51.696
G1 X79.922 Y52.014
G1 X79.913 Y52.333
G1 X79.902 Y52.652
G1 X79.887 Y52.972
G1 X79.870 Y53.292
G1 X79.850 Y53.612
G1 X79.828 Y53.933
G1 X79.802 Y54.254
G1 X79.774 Y54.575
G1 X79.743 Y54.897
G1 X79.709 Y55.219
G1 X79.672 Y55.542
G1 X79.633 Y55.864
G1 X79.590 Y56.187
G1 X79.545 Y56.510
G1 X79.497 Y56.833
G1 X79.447 Y57.156
G1 X79.393 Y57.479
G1 X79.337 Y57.802
G1 X79.277 Y58.126
G1 X79.215 Y58.449
G1 X79.150 Y58.773
G1 X79.083 Y59.096
G1 X79.012 Y59.420
G1 X78.939 Y59.743
G1 X78.862 Y60.066
G1 X78.783 Y60.390
G1 X78.701 Y60.713
G1 X78.616 Y61.036
G1 X78.528 Y61.358
G1 X78.438 Y61.681
G1 X78.344 Y62.003
G1 X78.248 Y62.325
G1 X78.149 Y62.647
G1 X78.047 Y62.968
G1 X77.942 Y63.289
G1 X77.834 Y63.610
G1 X77.723 Y63.931
G1 X77.610 Y64.251
G1 X77.493 Y64.570
G1 X77.374 Y64.889
G1 X77.252 Y65.208
G1 X77.127 Y65.526
G1 X76.999 Y65.844
G1 X76.869 Y66.161
G1 X76.735 Y66.477
G1 X76.599 Y66.793
G1 X76.459 Y67.109
G1 X76.317 Y67.423
G1 X76.172 Y67.737
G1 X76.025 Y68.051
G1 X75.874 Y68.363
G1 X75.720 Y68.675
G1 X75.564 Y68.986
G1 X75.405 Y69.296
G1 X75.243 Y69.606
G1 X75.078 Y69.914
G1 X74.911 Y70.222
G1 X74.740 Y70.529
G1 X74.567 Y70.835
G1 X74.391 Y71.140
G1 X74.213 Y71.444
G1 X74.031 Y71.747
G1 X73.847 Y72.049
G1 X73.659 Y72.350
G1 X73.470 Y72.650
G1 X73.277 Y72.948
G1 X73.081 Y73.246
G1 X72.883 Y73.543
G1 X72.682 Y73.838
G1 X72.479 Y74.132
G1 X72.272 Y74.425
G1 X72.063 Y74.717
G1 X71.851 Y75.008
G1 X71.637 Y75.297
G1 X71.420 Y75.585
G1 X71.200 Y75.871
G1 X70.977 Y76.157
G1 X70.752 Y76.440
G1 X70.524 Y76.723
G1 X70.293 Y77.004
G1 X70.060 Y77.284
G1 X69.824 Y77.562
G1 X69.586 Y77.838
G1 X69.345 Y78.113
G1 X69.101 Y78.387
G1 X68.854 Y78.659
G1 X68.606 Y78.929
G1 X68.354 Y79.198
G1 X68.100 Y79.465
G1 X67.844 Y79.731
G1 X67.584 Y79.995
G1 X67.323 Y80.257
G1 X67.059 Y80.517
G1 X66.792 Y80.776
G1 X66.523 Y81.033
G1 X66.251 Y81.288
G1 X65.977 Y81.541
G1 X65.701 Y81.792
G1 X65.422 Y82.042
G1 X65.140 Y82.290
G1 X64.856 Y82.535
G1 X64.570 Y82.779
G1 X64.282 Y83.021
G1 X63.991 Y83.261
G1 X63.697 Y83.499
G1 X63.402 Y83.735
G1 X63.104 Y83.968
G1 X62.804 Y84.200
G1 X62.501 Y84.430
G1 X62.196 Y84.658
G1 X61.889 Y84.883
G1 X61.580 Y85.106
G1 X61.268 Y85.328
G1 X60.954 Y85.547
G1 X60.638 Y85.763
G1 X60.320 Y85.978
G1 X60.000 Y86.190
G1 X59.679 Y86.029
G1 X59.359 Y85.864
G1 X59.040 Y85.697
G1 X58.722 Y85.527
G1 X58.405 Y85.353
G1 X58.089 Y85.177
G1 X57.773 Y84.998
G1 X57.459 Y84.815
G1 X57.147 Y84.630
G1 X56.835 Y84.442
G1 X56.524 Y84.251
G1 X56.215 Y84.057
G1 X55.906 Y83.860
G1 X55.599 Y83.660
G1 X55.294 Y83.458
G1 X54.989 Y83.252
G1 X54.686 Y83.044
G1 X54.384 Y82.832
G1 X54.083 Y82.618
G1 X53.784 Y82.401
G1 X53.486 Y82.181
G1 X53.190 Y81.958
G1 X52.895 Y81.732
G1 X52.602 Y81.504
G1 X52.310 Y81.273
G1 X52.020 Y81.039
G1 X51.731 Y80.802
G1 X51.444 Y80.562
G1 X51.158 Y80.319
G1 X50.874 Y80.074
G1 X50.592 Y79.826
G1 X50.311 Y79.576
G1 X50.032 Y79.322
G1 X49.755 Y79.066
G1 X49.479 Y78.807
G1 X49.205 Y78.546
G1 X48.933 Y78.281
G1 X48.663 Y78.015
G1 X48.395 Y77.745
G1 X48.129 Y77.473
G1 X47.864 Y77.198
G1 X47.602 Y76.921
G1 X47.341 Y76.641
G1 X47.082 Y76.358
G1 X46.826 Y76.073
G1 X46.571 Y75.785
G1 X46.318 Y75.495
G1 X46.068 Y75.202
G1 X45.819 Y74.907
G1 X45.573 Y74.609
G1 X45.328 Y74.309
G1 X45.086 Y74.006
G1 X44.846 Y73.701
G1 X44.609 Y73.393
G1 X44.373 Y73.083
G1 X44.140 Y72.771
G1 X43.909 Y72.456
G1 X43.680 Y72.139
G1 X43.453 Y71.819
G1 X43.229 Y71.497
G1 X43.007 Y71.173
G1 X42.788 Y70.846
G1 X42.571 Y70.518
G1 X42.356 Y70.187
G1 X42.144 Y69.853
G1 X41.934 Y69.518
G1 X41.727 Y69.180
G1 X41.522 Y68.840
G1 X41.320 Y68.498
G1 X41.120 Y68.154
G1 X40.923 Y67.808
G1 X40.728 Y67.459
G1 X40.536 Y67.109
G1 X40.347 Y66.756
G1 X40.160 Y66.402
G1 X39.976 Y66.045
G1 X39.795 Y65.686
G1 X39.616 Y65.326
G1 X39.440 Y64.963
G1 X39.266 Y64.598
G1 X39.096 Y64.232
G1 X38.928 Y63.863
G1 X38.763 Y63.493
G1 X38.601 Y63.121
G1 X38.441 Y62.747
G1 X38.285 Y62.371
G1 X38.131 Y61.994
G1 X37.980 Y61.614
G1 X37.832 Y61.233
G1 X37.687 Y60.850
G1 X37.545 Y60.466
G1 X37.406 Y60.080
G1 X37.270 Y59.692
G1 X37.136 Y59.302
G1 X37.006 Y58.911
G1 X36.879 Y58.518
G1 X36.755 Y58.124
G1 X36.633 Y57.728
G1 X36.515 Y57.331
G1 X36.400 Y56.932
G1 X36.288 Y56.532
G1 X36.179 Y56.130
G1 X36.073 Y55.727
G1 X35.971 Y55.323
G1 X35.871 Y54.917
G1 X35.775 Y54.510
G1 X35.682 Y54.101
G1 X35.592 Y53.691
G1 X35.505 Y53.280
G1 X35.421 Y52.868
G1 X35.341 Y52.454
G1 X35.264 Y52.040
G1 X35.190 Y51.624
G1 X35.119 Y51.207
G1 X35.051 Y50.789
G1 X34.987 Y50.370
G1 X34.927 Y49.949
G1 X34.869 Y49.528
G1 X34.815 Y49.106
G1 X34.764 Y48.682
G1 X34.716 Y48.258
G1 X34.672 Y47.833
G1 X34.631 Y47.407
G1 X34.594 Y46.980
G1 X34.560 Y46.553
G1 X34.529 Y46.124
G1 X34.500 Y45.278
G1 X34.840 Y45.057
G1 X35.183 Y44.840
G1 X35.528 Y44.625
G1 X35.875 Y44.413
G1 X36.225 Y44.203
G1 X36.576 Y43.996
G1 X36.930 Y43.792
G1 X37.286 Y43.591
G1 X37.644 Y43.392
G1 X38.005 Y43.196
G1 X38.367 Y43.003
G1 X38.732 Y42.813
G1 X39.099 Y42.626
G1 X39.468 Y42.441
G1 X39.839 Y42.260
G1 X40.211 Y42.081
G1 X40.586 Y41.905
G1 X40.963 Y41.732
G1 X41.342 Y41.562
G1 X41.723 Y41.395
G1 X42.105 Y41.231
G1 X42.490 Y41.070
G1 X42.876 Y40.913
G1 X43.264 Y40.758
G1 X43.654 Y40.606
G1 X44.046 Y40.457
G1 X44.439 Y40.312
G1 X44.835 Y40.169
G1 X45.232 Y40.030
G1 X45.630 Y39.894
G1 X46.031 Y39.761
G1 X46.433 Y39.631
G1 X46.836 Y39.504
G1 X47.241 Y39.381
G1 X47.648 Y39.260
G1 X48.056 Y39.144
G1 X48.466 Y39.030
G1 X48.877 Y38.919
G1 X49.290 Y38.812
G1 X49.704 Y38.709
G1 X50.120 Y38.608
G1 X50.536 Y38.511
G1 X50.955 Y38.417
G1 X51.374 Y38.327
G1 X51.795 Y38.240
G1 X52.217 Y38.156
G1 X52.641 Y38.076
G1 X53.065 Y37.999
G1 X53.491 Y37.926
G1 X53.918 Y37.856
G1 X54.346 Y37.789
G1 X54.775 Y37.726
G1 X55.205 Y37.666
G1 X55.636 Y37.610
G1 X56.069 Y37.558
G1 X56.502 Y37.509
G1 X56.936 Y37.463
G1 X57.371 Y37.421
G1 X57.807 Y37.383
G1 X58.244 Y37.348
G1 X58.682 Y37.317
G1 X59.121 Y37.289
G1 X59.560 Y37.265
G1 X60.000 Y37.244
G1 X60.441 Y37.227
G1 X60.882 Y37.214
G1 X61.325 Y37.204
G1 X61.767 Y37.198
G1 X62.211 Y37.196
G1 X62.655 Y37.197
G1 X63.099 Y37.202
G1 X63.545 Y37.210
G1 X63.990 Y37.222
G1 X64.436 Y37.238
G1 X64.883 Y37.258
G1 X65.330 Y37.281
G1 X65.777 Y37.308
G1 X66.224 Y37.338
G1 X66.672 Y37.373
G1 X67.120 Y37.411
G1 X67.569 Y37.452
G1 X68.017 Y37.498
G1 X68.466 Y37.547
G1 X68.915 Y37.600
G1 X69.364 Y37.657
G1 X69.813 Y37.717
G1 X70.262 Y37.781
G1 X70.712 Y37.849
G1 X71.161 Y37.921
G1 X71.610 Y37.996
G1 X72.059 Y38.075
G1 X72.508 Y38.158
G1 X72.957 Y38.245
G1 X73.406 Y38.335
G1 X73.854 Y38.429
G1 X74.303 Y38.527
G1 X74.751 Y38.629
G1 X75.198 Y38.734
G1 X75.646 Y38.843
G1 X76.093 Y38.956
G1 X76.540 Y39.073
G1 X76.986 Y39.193
G1 X77.432 Y39.317
G1 X77.877 Y39.445
G1 X78.322 Y39.577
G1 X78.766 Y39.713
G1 X79.210 Y39.852
G1 X79.653 Y39.995
G1 X80.096 Y40.142
G1 X80.538 Y40.292
G1 X80.979 Y40.446
G1 X81.419 Y40.604
G1 X81.859 Y40.766
G1 X82.298 Y40.931
G1 X82.736 Y41.101
G1 X83.173 Y41.274
G1 X83.609 Y41.450
G1 X84.045 Y41.631
G1 X84.479 Y41.815
G1 X84.913 Y42.002
G1 X85.345 Y42.194
G1 X85.776 Y42.389
G1 X86.207 Y42.588
G1 X86.636 Y42.791
G1 X87.064 Y42.997
G1 X87.491 Y43.207
G1 X87.916 Y43.420
G1 X88.341 Y43.637
G1 X88.361 Y44.089
G1 X88.378 Y44.541
G1 X88.390 Y44.993
G1 X88.399 Y45.447
G1 X88.404 Y45.900
G1 X88.405 Y46.355
G1 X88.403 Y46.810
G1 X88.396 Y47.265
G1 X88.386 Y47.721
G1 X88.372 Y48.178
G1 X88.354 Y48.634
G1 X88.332 Y49.092
G1 X88.306 Y49.549
G1 X88.276 Y50.007
G1 X88.242 Y50.465
G1 X88.205 Y50.924
G1 X88.163 Y51.382
G1 X88.118 Y51.841
G1 X88.069 Y52.300
G1 X88.016 Y52.759
G1 X87.959 Y53.218
G1 X87.898 Y53.677
G1 X87.833 Y54.137
G1 X87.764 Y54.596
G1 X87.691 Y55.055
G1 X87.614 Y55.514
G1 X87.534 Y55.973
G1 X87.449 Y56.432
G1 X87.360 Y56.891
G1 X87.268 Y57.349
G1 X87.172 Y57.807
G1 X87.071 Y58.265
G1 X86.967 Y58.723
G1 X86.859 Y59.180
G1 X86.746 Y59.637
G1 X86.630 Y60.094
G1 X86.510 Y60.550
G1 X86.386 Y61.006
G1 X86.258 Y61.461
G1 X86.126 Y61.915
G1 X85.990 Y62.369
G1 X85.851 Y62.823
G1 X85.707 Y63.276
G1 X85.559 Y63.728
G1 X85.408 Y64.179
G1 X85.252 Y64.630
G1 X85.093 Y65.080
G1 X84.929 Y65.529
G1 X84.762 Y65.977
G1 X84.591 Y66.425
G1 X84.416 Y66.871
G1 X84.237 Y67.317
G1 X84.054 Y67.761
G1 X83.867 Y68.205
G1 X83.676 Y68.647
G1 X83.482 Y69.089
G1 X83.283 Y69.529
G1 X83.081 Y69.969
G1 X82.875 Y70.407
G1 X82.665 Y70.844
G1 X82.451 Y71.279
G1 X82.233 Y71.714
G1 X82.012 Y72.147
G1 X81.787 Y72.579
G1 X81.557 Y73.009
G1 X81.325 Y73.438
G1 X81.088 Y73.866
G1 X80.847 Y74.292
G1 X80.603 Y74.716
G1 X80.355 Y75.139
G1 X80.103 Y75.561
G1 X79.848 Y75.981
G1 X79.588 Y76.399
G1 X79.325 Y76.816
G1 X79.058 Y77.231
G1 X78.788 Y77.644
G1 X78.514 Y78.056
G1 X78.236 Y78.466
G1 X77.955 Y78.873
G1 X77.669 Y79.280
G1 X77.381 Y79.684
G1 X77.088 Y80.086
G1 X76.792 Y80.486
G1 X76.493 Y80.885
G1 X76.189 Y81.281
G1 X75.883 Y81.676
G1 X75.572 Y82.068
G1 X75.258 Y82.458
G1 X74.941 Y82.846
G1 X74.620 Y83.232
G1 X74.296 Y83.616
G1 X73.968 Y83.997
G1 X73.636 Y84.376
G1 X73.302 Y84.753
G1 X72.963 Y85.128
G1 X72.622 Y85.500
G1 X72.277 Y85.870
G1 X71.928 Y86.238
G1 X71.576 Y86.603
G1 X71.221 Y86.966
G1 X70.863 Y87.326
G1 X70.501 Y87.683
G1 X70.136 Y88.038
G1 X69.768 Y88.391
G1 X69.396 Y88.741
G1 X69.021 Y89.088
G1 X68.643 Y89.433
G1 X68.262 Y89.775
G1 X67.877 Y90.114
G1 X67.490 Y90.450
G1 X67.099 Y90.784
G1 X66.705 Y91.115
G1 X66.309 Y91.443
G1 X65.909 Y91.768
G1 X65.506 Y92.090
G1 X65.100 Y92.410
G1 X64.691 Y92.726
G1 X64.279 Y93.040
G1 X63.864 Y93.350
G1 X63.446 Y93.658
G1 X63.025 Y93.962
G1 X62.601 Y94.263
G1 X62.175 Y94.561
G1 X61.745 Y94.857
G1 X61.313 Y95.149
G1 X60.878 Y95.437
G1 X60.440 Y95.723
G1 X60.000 Y96.005
G1 X59.559 Y95.774
G1 X59.119 Y95.538
G1 X58.681 Y95.299
G1 X58.245 Y95.056
G1 X57.810 Y94.808
G1 X57.376 Y94.557
G1 X56.945 Y94.302
G1 X56.515 Y94.043
G1 X56.087 Y93.780
G1 X55.660 Y93.513
G1 X55.235 Y93.243
G1 X54.813 Y92.968
G1 X54.392 Y92.690
G1 X53.972 Y92.407
G1 X53.555 Y92.121
G1 X53.140 Y91.832
G1 X52.727 Y91.538
G1 X52.316 Y91.241
G1 X51.907 Y90.939
G1 X51.500 Y90.635
G1 X51.095 Y90.326
G1 X50.692 Y90.014
G1 X50.291 Y89.697
G1 X49.893 Y89.378
G1 X49.497 Y89.054
G1 X49.103 Y88.727
G1 X48.712 Y88.396
G1 X48.322 Y88.062
G1 X47.936 Y87.724
G1 X47.551 Y87.383
G1 X47.169 Y87.038
G1 X46.790 Y86.689
G1 X46.413 Y86.337
G1 X46.039 Y85.981
G1 X45.667 Y85.622
G1 X45.298 Y85.259
G1 X44.931 Y84.893
G1 X44.567 Y84.524
G1 X44.206 Y84.151
G1 X43.847 Y83.774
G1 X43.492 Y83.394
G1 X43.139 Y83.011
G1 X42.788 Y82.625
G1 X42.441 Y82.235
G1 X42.097 Y81.842
G1 X41.755 Y81.446
G1 X41.416 Y81.046
G1 X41.081 Y80.643
G1 X40.748 Y80.237
G1 X40.418 Y79.828
G1 X40.091 Y79.416
G1 X39.768 Y79.001
G1 X39.447 Y78.582
G1 X39.130 Y78.160
G1 X38.816 Y77.736
G1 X38.505 Y77.308
G1 X38.197 Y76.877
G1 X37.892 Y76.443
G1 X37.591 Y76.006
G1 X37.293 Y75.567
G1 X36.998 Y75.124
G1 X36.707 Y74.679
G1 X36.418 Y74.230
G1 X36.134 Y73.779
G1 X35.853 Y73.325
G1 X35.575 Y72.868
G1 X35.300 Y72.409
G1 X35.030 Y71.947
G1 X34.762 Y71.482
G1 X34.498 Y71.014
G1 X34.238 Y70.544
G1 X33.982 Y70.071
G1 X33.728 Y69.595
G1 X33.479 Y69.117
G1 X33.233 Y68.637
G1 X32.991 Y68.153
G1 X32.753 Y67.668
G1 X32.518 Y67.180
G1 X32.288 Y66.689
G1 X32.060 Y66.196
G1 X31.837 Y65.701
G1 X31.618 Y65.204
G1 X31.402 Y64.704
G1 X31.190 Y64.202
G1 X30.983 Y63.697
G1 X30.779 Y63.191
G1 X30.579 Y62.682
G1 X30.382 Y62.171
G1 X30.190 Y61.658
G1 X30.002 Y61.143
G1 X29.818 Y60.626
G1 X29.638 Y60.107
G1 X29.462 Y59.586
G1 X29.290 Y59.063
G1 X29.122 Y58.538
G1 X28.958 Y58.011
G1 X28.798 Y57.482
G1 X28.643 Y56.952
G1 X28.492 Y56.419
G1 X28.344 Y55.885
G1 X28.201 Y55.349
G1 X28.062 Y54.812
G1 X27.928 Y54.273
G1 X27.797 Y53.732
G1 X27.671 Y53.189
G1 X27.549 Y52.645
G1 X27.432 Y52.100
G1 X27.319 Y51.553
G1 X27.210 Y51.005
G1 X27.105 Y50.455
G1 X27.005 Y49.904
G1 X26.909 Y49.351
G1 X26.817 Y48.797
G1 X26.730 Y48.242
G1 X26.648 Y47.686
G1 X26.569 Y47.128
G1 X26.495 Y46.570
G1 X26.426 Y46.010
G1 X26.361 Y45.449
G1 X26.300 Y44.887
G1 X26.244 Y44.324
G1 X26.193 Y43.760
G1 X26.146 Y43.195
G1 X26.103 Y42.629
G1 X26.065 Y42.062
G1 X26.031 Y41.495
G1 X26.000 Y40.370
G1 X26.461 Y40.081
G1 X26.925 Y39.795
G1 X27.392 Y39.513
G1 X27.861 Y39.235
G1 X28.334 Y38.960
G1 X28.809 Y38.690
G1 X29.287 Y38.422
G1 X29.767 Y38.159
G1 X30.251 Y37.899
G1 X30.736 Y37.644
G1 X31.225 Y37.392
G1 X31.716 Y37.143
G1 X32.210 Y36.899
G1 X32.706 Y36.659
G1 X33.205 Y36.422
G1 X33.706 Y36.190
G1 X34.209 Y35.961
G1 X34.715 Y35.737
G1 X35.224 Y35.516
G1 X35.734 Y35.300
G1 X36.247 Y35.088
G1 X36.763 Y34.879
G1 X37.280 Y34.675
G1 X37.800 Y34.475
G1 X38.322 Y34.279
G1 X38.846 Y34.087
G1 X39.372 Y33.900
G1 X39.900 Y33.716
G1 X40.430 Y33.537
G1 X40.962 Y33.362
G1 X41.497 Y33.191
G1 X42.033 Y33.025
G1 X42.571 Y32.863
G1 X43.111 Y32.705
G1 X43.652 Y32.552
G1 X44.196 Y32.403
G1 X44.741 Y32.258
G1 X45.288 Y32.118
G1 X45.837 Y31.982
G1 X46.387 Y31.850
G1 X46.940 Y31.723
G1 X47.493 Y31.600
G1 X48.048 Y31.482
G1 X48.605 Y31.369
G1 X49.163 Y31.260
G1 X49.723 Y31.155
G1 X50.284 Y31.055
G1 X50.846 Y30.959
G1 X51.410 Y30.868
G1 X51.975 Y30.782
G1 X52.541 Y30.700
G1 X53.109 Y30.623
G1 X53.677 Y30.550
G1 X54.247 Y30.482
G1 X54.818 Y30.419
G1 X55.390 Y30.360
G1 X55.963 Y30.306
G1 X56.537 Y30.257
G1 X57.112 Y30.212
G1 X57.688 Y30.172
G1 X58.265 Y30.137
G1 X58.842 Y30.106
G1 X59.421 Y30.080
G1 X60.000 Y30.059
G1 X60.580 Y30.043
G1 X61.161 Y30.031
G1 X61.742 Y30.024
G1 X62.324 Y30.022
G1 X62.906 Y30.025
G1 X63.489 Y30.032
G1 X64.073 Y30.045
G1 X64.656 Y30.062
G1 X65.241 Y30.083
G1 X65.825 Y30.110
G1 X66.410 Y30.141
G1 X66.996 Y30.178
G1 X67.581 Y30.219
G1 X68.167 Y30.265
G1 X68.753 Y30.316
G1 X69.339 Y30.371
G1 X69.925 Y30.432
G1 X70.512 Y30.497
G1 X71.098 Y30.567
G1 X71.684 Y30.642
G1 X72.270 Y30.722
G1 X72.856 Y30.807
G1 X73.442 Y30.896
G1 X74.028 Y30.991
G1 X74.614 Y31.090
G1 X75.199 Y31.194
G1 X75.784 Y31.303
G1 X76.368 Y31.417
G1 X76.953 Y31.536
G1 X77.536 Y31.659
G1 X78.120 Y31.788
G1 X78.703 Y31.921
G1 X79.285 Y32.059
G1 X79.866 Y32.202
G1 X80.447 Y32.350
G1 X81.028 Y32.503
G1 X81.607 Y32.661
G1 X82.186 Y32.823
G1 X82.764 Y32.990
G1 X83.342 Y33.163
G1 X83.918 Y33.339
G1 X84.494 Y33.521
G1 X85.068 Y33.708
G1 X85.642 Y33.899
G1 X86.214 Y34.096
G1 X86.785 Y34.297
G1 X87.356 Y34.503
G1 X87.925 Y34.713
G1 X88.493 Y34.929
G1 X89.060 Y35.149
G1 X89.625 Y35.374
G1 X90.189 Y35.604
G1 X90.752 Y35.838
G1 X91.313 Y36.078
G1 X91.873 Y36.322
G1 X92.431 Y36.571
G1 X92.988 Y36.824
G1 X93.544 Y37.082
G1 X94.097 Y37.345
G1 X94.650 Y37.613
G1 X95.200 Y37.885
G1 X95.749 Y38.162
G1 X96.296 Y38.444
G1 X96.841 Y38.730
G1 X96.860 Y39.320
G1 X96.875 Y39.911
G1 X96.885 Y40.503
G1 X96.890 Y41.095
G1 X96.890 Y41.688
G1 X96.885 Y42.282
G1 X96.875 Y42.875
G1 X96.860 Y43.470
G1 X96.840 Y44.064
G1 X96.815 Y44.659
G1 X96.785 Y45.255
G1 X96.750 Y45.850
G1 X96.710 Y46.446
G1 X96.665 Y47.042
G1 X96.615 Y47.639
G1 X96.559 Y48.235
G1 X96.499 Y48.831
G1 X96.434 Y49.428
G1 X96.364 Y50.024
G1 X96.289 Y50.621
G1 X96.208 Y51.217
G1 X96.123 Y51.813
G1 X96.033 Y52.409
G1 X95.937 Y53.005
G1 X95.837 Y53.600
G1 X95.731 Y54.195
G1 X95.621 Y54.790
G1 X95.505 Y55.385
G1 X95.384 Y55.979
G1 X95.258 Y56.572
G1 X95.128 Y57.165
G1 X94.992 Y57.758
G1 X94.851 Y58.350
G1 X94.705 Y58.941
G1 X94.554 Y59.531
G1 X94.398 Y60.121
G1 X94.237 Y60.710
G1 X94.071 Y61.298
G1 X93.900 Y61.886
G1 X93.724 Y62.472
G1 X93.543 Y63.058
G1 X93.357 Y63.642
G1 X93.166 Y64.226
G1 X92.970 Y64.808
G1 X92.768 Y65.390
G1 X92.562 Y65.970
G1 X92.351 Y66.549
G1 X92.135 Y67.127
G1 X91.914 Y67.704
G1 X91.688 Y68.279
G1 X91.457 Y68.853
G1 X91.221 Y69.425
G1 X90.981 Y69.996
G1 X90.735 Y70.566
G1 X90.484 Y71.134
G1 X90.229 Y71.700
G1 X89.968 Y72.265
G1 X89.703 Y72.828
G1 X89.433 Y73.390
G1 X89.158 Y73.950
G1 X88.878 Y74.508
G1 X88.593 Y75.064
G1 X88.303 Y75.619
G1 X88.009 Y76.171
G1 X87.710 Y76.722
G1 X87.406 Y77.270
G1 X87.097 Y77.817
G1 X86.784 Y78.361
G1 X86.465 Y78.904
G1 X86.143 Y79.444
G1 X85.815 Y79.982
G1 X85.482 Y80.518
G1 X85.145 Y81.052
G1 X84.804 Y81.583
G1 X84.457 Y82.112
G1 X84.106 Y82.639
G1 X83.751 Y83.163
G1 X83.391 Y83.685
G1 X83.026 Y84.204
G1 X82.656 Y84.721
G1 X82.282 Y85.235
G1 X81.904 Y85.747
G1 X81.521 Y86.256
G1 X81.134 Y86.762
G1 X80.742 Y87.266
G1 X80.346 Y87.766
G1 X79.945 Y88.264
G1 X79.540 Y88.759
G1 X79.130 Y89.252
G1 X78.716 Y89.741
G1 X78.298 Y90.227
G1 X77.875 Y90.711
G1 X77.449 Y91.191
G1 X77.017 Y91.668
G1 X76.582 Y92.143
G1 X76.142 Y92.614
G1 X75.699 Y93.082
G1 X75.251 Y93.546
G1 X74.799 Y94.008
G1 X74.342 Y94.466
G1 X73.882 Y94.921
G1 X73.417 Y95.372
G1 X72.949 Y95.820
G1 X72.476 Y96.265
G1 X72.000 Y96.706
G1 X71.519 Y97.144
G1 X71.035 Y97.578
G1 X70.547 Y98.008
G1 X70.054 Y98.435
G1 X69.558 Y98.859
G1 X69.058 Y99.278
G1 X68.554 Y99.694
G1 X68.047 Y100.107
G1 X67.536 Y100.515
G1 X67.020 Y100.920
G1 X66.502 Y101.321
G1 X65.979 Y101.718
G1 X65.453 Y102.111
G1 X64.924 Y102.500
G1 X64.390 Y102.885
G1 X63.854 Y103.266
G1 X63.313 Y103.643
G1 X62.770 Y104.017
G1 X62.223 Y104.386
G1 X61.672 Y104.750
G1 X61.118 Y105.111
G1 X60.561 Y105.468
G1 X60.000 Y105.820
G1 X59.439 Y105.519
G1 X58.880 Y105.212
G1 X58.322 Y104.901
G1 X57.767 Y104.585
G1 X57.215 Y104.263
G1 X56.664 Y103.937
G1 X56.116 Y103.606
G1 X55.570 Y103.270
G1 X55.026 Y102.930
G1 X54.485 Y102.584
G1 X53.947 Y102.234
G1 X53.410 Y101.879
G1 X52.877 Y101.519
G1 X52.346 Y101.155
G1 X51.817 Y100.785
G1 X51.291 Y100.411
G1 X50.768 Y100.032
G1 X50.247 Y99.649
G1 X49.730 Y99.261
G1 X49.215 Y98.868
G1 X48.703 Y98.471
G1 X48.194 Y98.069
G1 X47.687 Y97.663
G1 X47.184 Y97.252
G1 X46.684 Y96.836
G1 X46.187 Y96.416
G1 X45.692 Y95.991
G1 X45.201 Y95.562
G1 X44.714 Y95.129
G1 X44.229 Y94.691
G1 X43.747 Y94.249
G1 X43.269 Y93.802
G1 X42.794 Y93.351
G1 X42.323 Y92.896
G1 X41.855 Y92.437
G1 X41.390 Y91.973
G1 X40.929 Y91.505
G1 X40.471 Y91.033
G1 X40.017 Y90.556
G1 X39.566 Y90.076
G1 X39.119 Y89.591
G1 X38.676 Y89.102
G1 X38.236 Y88.609
G1 X37.800 Y88.112
G1 X37.368 Y87.611
G1 X36.939 Y87.107
G1 X36.514 Y86.598
G1 X36.094 Y86.085
G1 X35.677 Y85.568
G1 X35.264 Y85.048
G1 X34.855 Y84.523
G1 X34.449 Y83.995
G1 X34.048 Y83.463
G1 X33.651 Y82.927
G1 X33.258 Y82.388
G1 X32.870 Y81.845
G1 X32.485 Y81.298
G1 X32.105 Y80.748
G1 X31.728 Y80.194
G1 X31.356 Y79.636
G1 X30.989 Y79.075
G1 X30.625 Y78.511
G1 X30.266 Y77.943
G1 X29.911 Y77.372
G1 X29.561 Y76.797
G1 X29.215 Y76.219
G1 X28.874 Y75.637
G1 X28.537 Y75.053
G1 X28.204 Y74.465
G1 X27.877 Y73.874
G1 X27.553 Y73.280
G1 X27.235 Y72.682
G1 X26.921 Y72.082
G1 X26.611 Y71.478
G1 X26.307 Y70.872
G1 X26.007 Y70.262
G1 X25.711 Y69.649
G1 X25.421 Y69.034
G1 X25.135 Y68.416
G1 X24.855 Y67.795
G1 X24.579 Y67.171
G1 X24.307 Y66.544
G1 X24.041 Y65.915
G1 X23.780 Y65.283
G1 X23.524 Y64.648
G1 X23.272 Y64.011
G1 X23.026 Y63.371
G1 X22.785 Y62.728
G1 X22.548 Y62.083
G1 X22.317 Y61.436
G1 X22.091 Y60.786
G1 X21.870 Y60.134
G1 X21.654 Y59.480
G1 X21.443 Y58.823
G1 X21.238 Y58.164
G1 X21.037 Y57.503
G1 X20.842 Y56.840
G1 X20.652 Y56.175
G1 X20.468 Y55.507
G1 X20.288 Y54.838
G1 X20.114 Y54.167
G1 X19.946 Y53.493
G1 X19.782 Y52.818
G1 X19.624 Y52.141
G1 X19.471 Y51.462
G1 X19.324 Y50.781
G1 X19.182 Y50.099
G1 X19.046 Y49.415
G1 X18.915 Y48.729
G1 X18.789 Y48.042
G1 X18.669 Y47.353
G1 X18.554 Y46.663
G1 X18.445 Y45.971
G1 X18.342 Y45.278
G1 X18.244 Y44.583
G1 X18.151 Y43.887
G1 X18.064 Y43.190
G1 X17.983 Y42.492
G1 X17.907 Y41.792
G1 X17.837 Y41.091
G1 X17.772 Y40.389
G1 X17.713 Y39.687
G1 X17.660 Y38.983
G1 X17.612 Y38.278
G1 X17.570 Y37.572
G1 X17.534 Y36.865
G1 X17.500 Y35.463
G1 X18.082 Y35.104
G1 X18.667 Y34.751
G1 X19.256 Y34.402
G1 X19.848 Y34.057
G1 X20.443 Y33.718
G1 X21.041 Y33.383
G1 X21.643 Y33.053
G1 X22.248 Y32.727
G1 X22.857 Y32.406
G1 X23.468 Y32.091
G1 X24.083 Y31.780
G1 X24.700 Y31.474
G1 X25.321 Y31.173
G1 X25.944 Y30.876
G1 X26.571 Y30.585
G1 X27.200 Y30.299
G1 X27.832 Y30.018
G1 X28.468 Y29.742
G1 X29.105 Y29.470
G1 X29.746 Y29.204
G1 X30.389 Y28.944
G1 X31.035 Y28.688
G1 X31.684 Y28.437
G1 X32.335 Y28.192
G1 X32.989 Y27.952
G1 X33.645 Y27.717
G1 X34.304 Y27.487
G1 X34.965 Y27.263
G1 X35.629 Y27.044
G1 X36.294 Y26.830
G1 X36.962 Y26.622
G1 X37.633 Y26.419
G1 X38.305 Y26.222
G1 X38.980 Y26.030
G1 X39.657 Y25.843
G1 X40.336 Y25.662
G1 X41.017 Y25.486
G1 X41.699 Y25.316
G1 X42.384 Y25.151
G1 X43.071 Y24.992
G1 X43.759 Y24.838
G1 X44.450 Y24.690
G1 X45.142 Y24.548
G1 X45.836 Y24.411
G1 X46.531 Y24.280
G1 X47.228 Y24.154
G1 X47.927 Y24.034
G1 X48.627 Y23.920
G1 X49.329 Y23.811
G1 X50.032 Y23.708
G1 X50.736 Y23.611
G1 X51.442 Y23.520
G1 X52.149 Y23.434
G1 X52.858 Y23.354
G1 X53.567 Y23.280
G1 X54.278 Y23.212
G1 X54.990 Y23.149
G1 X55.703 Y23.092
G1 X56.417 Y23.041
G1 X57.132 Y22.996
G1 X57.848 Y22.957
G1 X58.564 Y22.923
G1 X59.282 Y22.896
G1 X60.000 Y22.874
G1 X60.719 Y22.858
G1 X61.439 Y22.848
G1 X62.159 Y22.844
G1 X62.880 Y22.846
G1 X63.601 Y22.854
G1 X64.323 Y22.868
G1 X65.046 Y22.887
G1 X65.768 Y22.913
G1 X66.491 Y22.944
G1 X67.215 Y22.982
G1 X67.938 Y23.025
G1 X68.662 Y23.075
G1 X69.386 Y23.130
G1 X70.110 Y23.191
G1 X70.834 Y23.258
G1 X71.558 Y23.332
G1 X72.282 Y23.411
G1 X73.006 Y23.496
G1 X73.730 Y23.587
G1 X74.453 Y23.684
G1 X75.177 Y23.787
G1 X75.900 Y23.896
G1 X76.622 Y24.011
G1 X77.345 Y24.132
G1 X78.067 Y24.259
G1 X78.788 Y24.392
G1 X79.509 Y24.531
G1 X80.229 Y24.676
G1 X80.948 Y24.827
G1 X81.667 Y24.984
G1 X82.385 Y25.147
G1 X83.102 Y25.315
G1 X83.819 Y25.490
G1 X84.534 Y25.671
G1 X85.249 Y25.857
G1 X85.963 Y26.050
G1 X86.675 Y26.249
G1 X87.387 Y26.453
G1 X88.097 Y26.663
G1 X88.806 Y26.880
G1 X89.514 Y27.102
G1 X90.221 Y27.330
G1 X90.926 Y27.564
G1 X91.630 Y27.804
G1 X92.332 Y28.050
G1 X93.033 Y28.301
G1 X93.733 Y28.559
G1 X94.431 Y28.822
G1 X95.127 Y29.092
G1 X95.821 Y29.367
G1 X96.514 Y29.647
G1 X97.205 Y29.934
G1 X97.894 Y30.227
G1 X98.582 Y30.525
G1 X99.267 Y30.829
G1 X99.950 Y31.139
G1 X100.632 Y31.454
G1 X101.311 Y31.775
G1 X101.988 Y32.102
G1 X102.663 Y32.435
G1 X103.336 Y32.773
G1 X104.007 Y33.118
G1 X104.675 Y33.467
G1 X105.341 Y33.823
G1 X105.360 Y34.552
G1 X105.373 Y35.282
G1 X105.380 Y36.013
G1 X105.381 Y36.744
G1 X105.376 Y37.476
G1 X105.364 Y38.208
G1 X105.347 Y38.941
G1 X105.323 Y39.674
G1 X105.294 Y40.408
G1 X105.258 Y41.141
G1 X105.216 Y41.875
G1 X105.168 Y42.609
G1 X105.114 Y43.344
G1 X105.053 Y44.078
G1 X104.987 Y44.812
G1 X104.914 Y45.547
G1 X104.835 Y46.281
G1 X104.750 Y47.015
G1 X104.659 Y47.749
G1 X104.562 Y48.482
G1 X104.458 Y49.216
G1 X104.348 Y49.949
G1 X104.232 Y50.682
G1 X104.110 Y51.414
G1 X103.982 Y52.146
G1 X103.848 Y52.877
G1 X103.707 Y53.608
G1 X103.561 Y54.338
G1 X103.408 Y55.067
G1 X103.249 Y55.795
G1 X103.084 Y56.523
G1 X102.913 Y57.250
G1 X102.735 Y57.976
G1 X102.552 Y58.701
G1 X102.362 Y59.425
G1 X102.166 Y60.149
G1 X101.964 Y60.870
G1 X101.756 Y61.591
G1 X101.542 Y62.311
G1 X101.322 Y63.029
G1 X101.095 Y63.746
G1 X100.863 Y64.462
G1 X100.624 Y65.176
G1 X100.380 Y65.889
G1 X100.129 Y66.601
G1 X99.873 Y67.310
G1 X99.610 Y68.019
G1 X99.341 Y68.725
G1 X99.066 Y69.430
G1 X98.786 Y70.133
G1 X98.499 Y70.834
G1 X98.206 Y71.534
G1 X97.907 Y72.231
G1 X97.603 Y72.927
G1 X97.292 Y73.620
G1 X96.975 Y74.312
G1 X96.653 Y75.001
G1 X96.325 Y75.688
G1 X95.990 Y76.373
G1 X95.650 Y77.056
G1 X95.304 Y77.737
G1 X94.953 Y78.415
G1 X94.595 Y79.090
G1 X94.231 Y79.764
G1 X93.862 Y80.434
G1 X93.487 Y81.102
G1 X93.107 Y81.768
G1 X92.720 Y82.431
G1 X92.328 Y83.091
G1 X91.930 Y83.749
G1 X91.527 Y84.404
G1 X91.117 Y85.055
G1 X90.703 Y85.704
G1 X90.282 Y86.350
G1 X89.856 Y86.994
G1 X89.425 Y87.634
G1 X88.988 Y88.271
G1 X88.545 Y88.904
G1 X88.097 Y89.535
G1 X87.643 Y90.162
G1 X87.184 Y90.787
G1 X86.720 Y91.408
G1 X86.250 Y92.025
G1 X85.775 Y92.639
G1 X85.294 Y93.250
G1 X84.808 Y93.857
G1 X84.317 Y94.461
G1 X83.821 Y95.061
G1 X83.319 Y95.657
G1 X82.812 Y96.250
G1 X82.300 Y96.839
G1 X81.783 Y97.424
G1 X81.261 Y98.006
G1 X80.733 Y98.583
G1 X80.201 Y99.157
G1 X79.663 Y99.727
G1 X79.121 Y100.293
G1 X78.573 Y100.855
G1 X78.021 Y101.412
G1 X77.463 Y101.966
G1 X76.901 Y102.515
G1 X76.334 Y103.061
G1 X75.762 Y103.602
G1 X75.185 Y104.139
G1 X74.604 Y104.671
G1 X74.018 Y105.199
G1 X73.427 Y105.723
G1 X72.831 Y106.242
G1 X72.231 Y106.757
G1 X71.626 Y107.267
G1 X71.017 Y107.773
G1 X70.403 Y108.274
G1 X69.785 Y108.770
G1 X69.162 Y109.262
G1 X68.535 Y109.749
G1 X67.904 Y110.232
G1 X67.268 Y110.709
G1 X66.628 Y111.182
G1 X65.984 Y111.650
G1 X65.335 Y112.113
G1 X64.682 Y112.571
G1 X64.026 Y113.024
G1 X63.365 Y113.472
G1 X62.700 Y113.915
G1 X62.031 Y114.352
G1 X61.358 Y114.785
G1 X60.681 Y115.213
G1 X60.000 Y115.635
G1 X59.319 Y115.264
G1 X58.640 Y114.886
G1 X57.964 Y114.503
G1 X57.290 Y114.114
G1 X56.620 Y113.718
G1 X55.952 Y113.317
G1 X55.287 Y112.911
G1 X54.625 Y112.498
G1 X53.966 Y112.080
G1 X53.311 Y111.655
G1 X52.658 Y111.226
G1 X52.008 Y110.790
G1 X51.362 Y110.349
G1 X50.719 Y109.902
G1 X50.079 Y109.449
G1 X49.442 Y108.991
G1 X48.809 Y108.527
G1 X48.179 Y108.057
G1 X47.553 Y107.582
G1 X46.930 Y107.102
G1 X46.311 Y106.616
G1 X45.695 Y106.124
G1 X45.083 Y105.628
G1 X44.475 Y105.125
G1 X43.871 Y104.618
G1 X43.270 Y104.105
G1 X42.673 Y103.586
G1 X42.080 Y103.063
G1 X41.491 Y102.534
G1 X40.906 Y102.000
G1 X40.325 Y101.460
G1 X39.748 Y100.916
G1 X39.176 Y100.366
G1 X38.607 Y99.811
G1 X38.043 Y99.251
G1 X37.482 Y98.686
G1 X36.926 Y98.117
G1 X36.375 Y97.542
G1 X35.828 Y96.962
G1 X35.285 Y96.377
G1 X34.747 Y95.787
G1 X34.213 Y95.193
G1 X33.683 Y94.594
G1 X33.159 Y93.990
G1 X32.639 Y93.381
G1 X32.123 Y92.767
G1 X31.613 Y92.149
G1 X31.107 Y91.526
G1 X30.605 Y90.899
G1 X30.109 Y90.267
G1 X29.618 Y89.631
G1 X29.131 Y88.990
G1 X28.649 Y88.344
G1 X28.173 Y87.695
G1 X27.701 Y87.041
G1 X27.235 Y86.382
G1 X26.773 Y85.719
G1 X26.317 Y85.053
G1 X25.866 Y84.381
G1 X25.420 Y83.706
G1 X24.979 Y83.027
G1 X24.544 Y82.343
G1 X24.114 Y81.656
G1 X23.689 Y80.964
G1 X23.270 Y80.269
G1 X22.856 Y79.569
G1 X22.447 Y78.866
G1 X22.044 Y78.159
G1 X21.647 Y77.448
G1 X21.255 Y76.734
G1 X20.869 Y76.015
G1 X20.488 Y75.294
G1 X20.113 Y74.568
G1 X19.743 Y73.839
G1 X19.380 Y73.106
G1 X19.022 Y72.370
G1 X18.670 Y71.631
G1 X18.324 Y70.888
G1 X17.983 Y70.142
G1 X17.649 Y69.393
G1 X17.320 Y68.640
G1 X16.997 Y67.884
G1 X16.680 Y67.125
G1 X16.370 Y66.363
G1 X16.065 Y65.598
G1 X15.766 Y64.830
G1 X15.473 Y64.059
G1 X15.187 Y63.285
G1 X14.906 Y62.508
G1 X14.632 Y61.729
G1 X14.364 Y60.947
G1 X14.102 Y60.162
G1 X13.846 Y59.374
G1 X13.597 Y58.584
G1 X13.354 Y57.791
G1 X13.117 Y56.996
G1 X12.886 Y56.198
G1 X12.662 Y55.398
G1 X12.444 Y54.595
G1 X12.232 Y53.791
G1 X12.027 Y52.984
G1 X11.829 Y52.175
G1 X11.636 Y51.363
G1 X11.451 Y50.550
G1 X11.271 Y49.734
G1 X11.099 Y48.917
G1 X10.932 Y48.098
G1 X10.773 Y47.277
G1 X10.620 Y46.454
G1 X10.473 Y45.629
G1 X10.333 Y44.802
G1 X10.200 Y43.974
G1 X10.073 Y43.144
G1 X9.953 Y42.313
G1 X9.840 Y41.480
G1 X9.733 Y40.646
G1 X9.633 Y39.810
G1 X9.540 Y38.973
G1 X9.453 Y38.135
G1 X9.373 Y37.296
G1 X9.300 Y36.455
G1 X9.234 Y35.613
G1 X9.174 Y34.770
G1 X9.121 Y33.927
G1 X9.075 Y33.082
G1 X9.036 Y32.236
G1 X9.000 Y30.555
G1 X9.703 Y30.128
G1 X10.409 Y29.706
G1 X11.119 Y29.290
G1 X11.834 Y28.880
G1 X12.552 Y28.475
G1 X13.274 Y28.076
G1 X14.000 Y27.683
G1 X14.730 Y27.295
G1 X15.463 Y26.914
G1 X16.200 Y26.538
G1 X16.940 Y26.168
G1 X17.684 Y25.804
G1 X18.432 Y25.446
G1 X19.182 Y25.094
G1 X19.937 Y24.748
G1 X20.695 Y24.408
G1 X21.456 Y24.074
G1 X22.220 Y23.746
G1 X22.987 Y23.425
G1 X23.758 Y23.109
G1 X24.531 Y22.800
G1 X25.308 Y22.497
G1 X26.088 Y22.200
G1 X26.871 Y21.909
G1 X27.656 Y21.625
G1 X28.445 Y21.347
G1 X29.236 Y21.075
G1 X30.030 Y20.810
G1 X30.827 Y20.551
G1 X31.626 Y20.299
G1 X32.428 Y20.053
G1 X33.233 Y19.813
G1 X34.040 Y19.580
G1 X34.849 Y19.354
G1 X35.661 Y19.134
G1 X36.475 Y18.921
G1 X37.292 Y18.714
G1 X38.111 Y18.514
G1 X38.931 Y18.320
G1 X39.754 Y18.133
G1 X40.579 Y17.953
G1 X41.407 Y17.780
G1 X42.236 Y17.613
G1 X43.067 Y17.453
G1 X43.899 Y17.299
G1 X44.734 Y17.153
G1 X45.570 Y17.013
G1 X46.408 Y16.880
G1 X47.248 Y16.754
G1 X48.089 Y16.635
G1 X48.932 Y16.522
G1 X49.776 Y16.416
G1 X50.622 Y16.318
G1 X51.469 Y16.226
G1 X52.317 Y16.141
G1 X53.166 Y16.063
G1 X54.017 Y15.992
G1 X54.869 Y15.928
G1 X55.722 Y15.870
G1 X56.576 Y15.820
G1 X57.430 Y15.777
G1 X58.286 Y15.741
G1 X59.143 Y15.711
G1 X60.000 Y15.689
G1 X60.858 Y15.674
G1 X61.717 Y15.666
G1 X62.576 Y15.664
G1 X63.436 Y15.670
G1 X64.297 Y15.683
G1 X65.157 Y15.703
G1 X66.019 Y15.730
G1 X66.880 Y15.764
G1 X67.742 Y15.805
G1 X68.604 Y15.854
G1 X69.466 Y15.909
G1 X70.328 Y15.971
G1 X71.191 Y16.041
G1 X72.053 Y16.117
G1 X72.915 Y16.201
G1 X73.777 Y16.292
G1 X74.639 Y16.390
G1 X75.501 Y16.495
G1 X76.362 Y16.607
G1 X77.223 Y16.726
G1 X78.083 Y16.852
G1 X78.943 Y16.986
G1 X79.802 Y17.126
G1 X80.661 Y17.274
G1 X81.519 Y17.428
G1 X82.377 Y17.590
G1 X83.233 Y17.759
G1 X84.089 Y17.935
G1 X84.944 Y18.118
G1 X85.798 Y18.308
G1 X86.651 Y18.505
G1 X87.502 Y18.710
G1 X88.353 Y18.921
G1 X89.202 Y19.139
G1 X90.051 Y19.365
G1 X90.898 Y19.597
G1 X91.743 Y19.836
G1 X92.587 Y20.083
G1 X93.430 Y20.336
G1 X94.271 Y20.597
G1 X95.110 Y20.864
G1 X95.948 Y21.139
G1 X96.784 Y21.420
G1 X97.618 Y21.709
G1 X98.451 Y22.004
G1 X99.281 Y22.306
G1 X100.110 Y22.615
G1 X100.936 Y22.931
G1 X101.761 Y23.254
G1 X102.583 Y23.584
G1 X103.403 Y23.921
G1 X104.221 Y24.264
G1 X105.037 Y24.615
G1 X105.850 Y24.972
G1 X106.661 Y25.336
G1 X107.469 Y25.707
G1 X108.275 Y26.084
G1 X109.078 Y26.469
G1 X109.879 Y26.860
G1 X110.677 Y27.257
G1 X111.472 Y27.662
G1 X112.265 Y28.073
G1 X113.054 Y28.491
G1 X113.841 Y28.915
G1 X113.859 Y29.784
G1 X113.871 Y30.653
G1 X113.875 Y31.523
G1 X113.872 Y32.393
G1 X113.861 Y33.264
G1 X113.844 Y34.135
G1 X113.819 Y35.007
G1 X113.787 Y35.878
G1 X113.748 Y36.751
G1 X113.701 Y37.623
G1 X113.647 Y38.496
G1 X113.586 Y39.368
G1 X113.518 Y40.241
G1 X113.442 Y41.113
G1 X113.359 Y41.986
G1 X113.269 Y42.858
G1 X113.171 Y43.730
G1 X113.066 Y44.602
G1 X112.954 Y45.473
G1 X112.834 Y46.344
G1 X112.708 Y47.215
G1 X112.574 Y48.085
G1 X112.432 Y48.954
G1 X112.284 Y49.823
G1 X112.128 Y50.691
G1 X111.965 Y51.558
G1 X111.794 Y52.425
G1 X111.617 Y53.290
G1 X111.432 Y54.155
G1 X111.240 Y55.019
G1 X111.040 Y55.881
G1 X110.833 Y56.743
G1 X110.619 Y57.603
G1 X110.398 Y58.462
G1 X110.170 Y59.320
G1 X109.934 Y60.176
G1 X109.691 Y61.031
G1 X109.441 Y61.884
G1 X109.184 Y62.736
G1 X108.920 Y63.586
G1 X108.648 Y64.435
G1 X108.369 Y65.282
G1 X108.083 Y66.127
G1 X107.790 Y66.970
G1 X107.490 Y67.811
G1 X107.183 Y68.651
G1 X106.869 Y69.488
G1 X106.547 Y70.323
G1 X106.219 Y71.156
G1 X105.883 Y71.987
G1 X105.540 Y72.816
G1 X105.191 Y73.642
G1 X104.834 Y74.466
G1 X104.470 Y75.288
G1 X104.100 Y76.107
G1 X103.722 Y76.923
G1 X103.338 Y77.737
G1 X102.946 Y78.548
G1 X102.548 Y79.357
G1 X102.143 Y80.162
G1 X101.731 Y80.965
G1 X101.312 Y81.765
G1 X100.886 Y82.562
G1 X100.454 Y83.356
G1 X100.015 Y84.147
G1 X99.569 Y84.935
G1 X99.116 Y85.719
G1 X98.657 Y86.501
G1 X98.191 Y87.279
G1 X97.718 Y88.053
G1 X97.238 Y88.825
G1 X96.752 Y89.593
G1 X96.260 Y90.357
G1 X95.761 Y91.118
G1 X95.255 Y91.875
G1 X94.743 Y92.628
G1 X94.225 Y93.378
G1 X93.700 Y94.124
G1 X93.168 Y94.866
G1 X92.630 Y95.604
G1 X92.086 Y96.338
G1 X91.536 Y97.068
G1 X90.979 Y97.794
G1 X90.416 Y98.516
G1 X89.847 Y99.234
G1 X89.271 Y99.948
G1 X88.690 Y100.657
G1 X88.102 Y101.362
G1 X87.508 Y102.063
G1 X86.909 Y102.759
G1 X86.303 Y103.451
G1 X85.691 Y104.138
G1 X85.073 Y104.821
G1 X84.449 Y105.498
G1 X83.820 Y106.172
G1 X83.184 Y106.840
G1 X82.543 Y107.504
G1 X81.896 Y108.163
G1 X81.243 Y108.817
G1 X80.584 Y109.466
G1 X79.920 Y110.110
G1 X79.250 Y110.749
G1 X78.575 Y111.383
G1 X77.894 Y112.012
G1 X77.208 Y112.636
G1 X76.516 Y113.255
G1 X75.819 Y113.868
G1 X75.116 Y114.476
G1 X74.408 Y115.078
G1 X73.695 Y115.675
G1 X72.976 Y116.267
G1 X72.252 Y116.853
G1 X71.523 Y117.434
G1 X70.789 Y118.009
G1 X70.050 Y118.579
G1 X69.306 Y119.142
G1 X68.557 Y119.701
G1 X68.148 Y120.000
G1 X51.048 Y120.000
G1 X50.606 Y119.701
G1 X49.847 Y119.178
G1 X49.092 Y118.649
G1 X48.341 Y118.113
G1 X47.593 Y117.570
G1 X46.850 Y117.021
G1 X46.111 Y116.466
G1 X45.376 Y115.904
G1 X44.645 Y115.336
G1 X43.919 Y114.761
G1 X43.197 Y114.180
G1 X42.480 Y113.593
G1 X41.766 Y112.999
G1 X41.058 Y112.399
G1 X40.354 Y111.793
G1 X39.654 Y111.181
G1 X38.959 Y110.563
G1 X38.269 Y109.938
G1 X37.584 Y109.308
G1 X36.903 Y108.671
G1 X36.228 Y108.029
G1 X35.557 Y107.381
G1 X34.891 Y106.726
G1 X34.230 Y106.066
G1 X33.575 Y105.400
G1 X32.924 Y104.728
G1 X32.279 Y104.051
G1 X31.638 Y103.367
G1 X31.004 Y102.678
G1 X30.374 Y101.984
G1 X29.750 Y101.284
G1 X29.131 Y100.578
G1 X28.518 Y99.867
G1 X27.910 Y99.150
G1 X27.307 Y98.428
G1 X26.711 Y97.701
G1 X26.120 Y96.968
G1 X25.534 Y96.230
G1 X24.955 Y95.487
G1 X24.381 Y94.738
G1 X23.813 Y93.984
G1 X23.251 Y93.226
G1 X22.694 Y92.462
G1 X22.144 Y91.693
G1 X21.600 Y90.919
G1 X21.061 Y90.141
G1 X20.529 Y89.357
G1 X20.003 Y88.569
G1 X19.483 Y87.776
G1 X18.970 Y86.978
G1 X18.462 Y86.176
G1 X17.961 Y85.368
G1 X17.467 Y84.557
G1 X16.978 Y83.741
G1 X16.496 Y82.920
G1 X16.021 Y82.095
G1 X15.552 Y81.265
G1 X15.089 Y80.432
G1 X14.633 Y79.594
G1 X14.184 Y78.751
G1 X13.741 Y77.905
G1 X13.305 Y77.055
G1 X12.876 Y76.200
G1 X12.453 Y75.341
G1 X12.037 Y74.479
G1 X11.628 Y73.613
G1 X11.226 Y72.743
G1 X10.831 Y71.869
G1 X10.443 Y70.991
G1 X10.061 Y70.110
G1 X9.687 Y69.225
G1 X9.319 Y68.336
G1 X8.959 Y67.444
G1 X8.606 Y66.549
G1 X8.260 Y65.650
G1 X7.921 Y64.748
G1 X7.589 Y63.842
G1 X7.264 Y62.934
G1 X6.947 Y62.022
G1 X6.637 Y61.107
G1 X6.334 Y60.189
G1 X6.038 Y59.268
G1 X5.750 Y58.344
G1 X5.469 Y57.418
G1 X5.196 Y56.488
G1 X4.930 Y55.556
G1 X4.671 Y54.621
G1 X4.420 Y53.684
G1 X4.177 Y52.744
G1 X3.940 Y51.801
G1 X3.712 Y50.856
G1 X3.491 Y49.909
G1 X3.277 Y48.959
G1 X3.072 Y48.007
G1 X2.873 Y47.053
G1 X2.683 Y46.097
G1 X2.500 Y45.138
G1 X2.325 Y44.178
G1 X2.157 Y43.216
G1 X1.997 Y42.252
G1 X1.845 Y41.286
G1 X1.701 Y40.318
G1 X1.564 Y39.348
G1 X1.436 Y38.377
G1 X1.315 Y37.405
G1 X1.202 Y36.431
G1 X1.096 Y35.455
G1 X0.999 Y34.478
G1 X0.909 Y33.500
G1 X0.828 Y32.521
G1 X0.754 Y31.540
G1 X0.688 Y30.558
G1 X0.630 Y29.575
G1 X0.580 Y28.592
G1 X0.538 Y27.607
G1 X0.500 Y25.648
G1 X1.323 Y25.151
G1 X2.151 Y24.662
G1 X2.983 Y24.178
G1 X3.820 Y23.702
G1 X4.661 Y23.232
G1 X5.507 Y22.769
G1 X6.357 Y22.313
G1 X7.211 Y21.863
G1 X8.069 Y21.421
G1 X8.931 Y20.985
G1 X9.798 Y20.556
G1 X10.668 Y20.134
G1 X11.542 Y19.719
G1 X12.421 Y19.311
G1 X13.303 Y18.911
G1 X14.189 Y18.517
G1 X15.079 Y18.130
G1 X15.972 Y17.751
G1 X16.869 Y17.379
G1 X17.770 Y17.014
G1 X18.674 Y16.656
G1 X19.581 Y16.305
G1 X20.492 Y15.962
G1 X21.406 Y15.626
G1 X22.324 Y15.298
G1 X23.245 Y14.977
G1 X24.168 Y14.663
G1 X25.095 Y14.357
G1 X26.025 Y14.058
G1 X26.958 Y13.767
G1 X27.894 Y13.484
G1 X28.833 Y13.208
G1 X29.774 Y12.939
G1 X30.719 Y12.678
G1 X31.666 Y12.425
G1 X32.615 Y12.180
G1 X33.567 Y11.942
G1 X34.522 Y11.712
G1 X35.479 Y11.490
G1 X36.438 Y11.275
G1 X37.399 Y11.068
G1 X38.363 Y10.869
G1 X39.329 Y10.678
G1 X40.297 Y10.495
G1 X41.267 Y10.319
G1 X42.239 Y10.152
G1 X43.213 Y9.992
G1 X44.189 Y9.840
G1 X45.167 Y9.697
G1 X46.146 Y9.561
G1 X47.127 Y9.433
G1 X48.110 Y9.313
G1 X49.094 Y9.201
G1 X50.079 Y9.098
G1 X51.066 Y9.002
G1 X52.054 Y8.914
G1 X53.044 Y8.835
G1 X54.035 Y8.763
G1 X55.026 Y8.700
G1 X56.019 Y8.644
G1 X57.013 Y8.597
G1 X58.008 Y8.558
G1 X59.004 Y8.527
G1 X60.000 Y8.504
G1 X60.997 Y8.489
G1 X61.995 Y8.483
G1 X62.993 Y8.485
G1 X63.992 Y8.494
G1 X64.992 Y8.512
G1 X65.992 Y8.539
G1 X66.992 Y8.573
G1 X67.992 Y8.616
G1 X68.993 Y8.666
G1 X69.993 Y8.725
G1 X70.994 Y8.793
G1 X71.995 Y8.868
G1 X72.995 Y8.952
G1 X73.996 Y9.044
G1 X74.996 Y9.144
G1 X75.996 Y9.252
G1 X76.996 Y9.369
G1 X77.995 Y9.494
G1 X78.994 Y9.627
G1 X79.992 Y9.768
G1 X80.989 Y9.918
G1 X81.986 Y10.075
G1 X82.982 Y10.241
G1 X83.978 Y10.415
G1 X84.972 Y10.598
G1 X85.966 Y10.788
G1 X86.958 Y10.987
G1 X87.949 Y11.194
G1 X88.940 Y11.409
G1 X89.928 Y11.633
G1 X90.916 Y11.864
G1 X91.902 Y12.104
G1 X92.887 Y12.352
G1 X93.870 Y12.608
G1 X94.852 Y12.872
G1 X95.832 Y13.144
G1 X96.811 Y13.424
G1 X97.787 Y13.713
G1 X98.762 Y14.009
G1 X99.735 Y14.314
G1 X100.706 Y14.627
G1 X101.675 Y14.947
G1 X102.642 Y15.276
G1 X103.606 Y15.613
G1 X104.569 Y15.958
G1 X105.529 Y16.311
G1 X106.486 Y16.672
G1 X107.442 Y17.040
G1 X108.395 Y17.417
G1 X109.345 Y17.802
G1 X110.292 Y18.194
G1 X111.237 Y18.595
G1 X112.179 Y19.003
G1 X113.118 Y19.419
G1 X114.055 Y19.843
G1 X114.988 Y20.275
G1 X115.919 Y20.715
G1 X116.846 Y21.162
G1 X117.770 Y21.617
G1 X118.691 Y22.080
G1 X119.608 Y22.550
G1 X120.000 Y22.755
G1 X120.000 Y50.648
G1 X119.881 Y51.242
G1 X119.673 Y52.243
G1 X119.456 Y53.243
G1 X119.230 Y54.242
G1 X118.996 Y55.239
G1 X118.754 Y56.235
G1 X118.504 Y57.230
G1 X118.245 Y58.222
G1 X117.978 Y59.214
G1 X117.702 Y60.203
G1 X117.418 Y61.191
G1 X117.126 Y62.177
G1 X116.826 Y63.161
G1 X116.517 Y64.143
G1 X116.201 Y65.123
G1 X115.875 Y66.101
G1 X115.542 Y67.077
G1 X115.201 Y68.051
G1 X114.851 Y69.022
G1 X114.493 Y69.991
G1 X114.127 Y70.957
G1 X113.753 Y71.921
G1 X113.371 Y72.883
G1 X112.980 Y73.841
G1 X112.582 Y74.798
G1 X112.175 Y75.751
G1 X111.761 Y76.701
G1 X111.338 Y77.649
G1 X110.908 Y78.593
G1 X110.469 Y79.535
G1 X110.023 Y80.473
G1 X109.568 Y81.408
G1 X109.106 Y82.340
G1 X108.636 Y83.269
G1 X108.158 Y84.194
G1 X107.672 Y85.116
G1 X107.178 Y86.034
G1 X106.676 Y86.949
G1 X106.167 Y87.860
G1 X105.650 Y88.767
G1 X105.125 Y89.671
G1 X104.593 Y90.570
G1 X104.053 Y91.466
G1 X103.505 Y92.358
G1 X102.950 Y93.246
G1 X102.387 Y94.130
G1 X101.817 Y95.009
G1 X101.239 Y95.885
G1 X100.654 Y96.756
G1 X100.062 Y97.623
G1 X99.461 Y98.485
G1 X98.854 Y99.343
G1 X98.239 Y100.197
G1 X97.617 Y101.045
G1 X96.988 Y101.890
G1 X96.352 Y102.729
G1 X95.708 Y103.564
G1 X95.057 Y104.394
G1 X94.399 Y105.219
G1 X93.734 Y106.039
G1 X93.062 Y106.854
G1 X92.383 Y107.664
G1 X91.698 Y108.468
G1 X91.005 Y109.268
G1 X90.305 Y110.062
G1 X89.598 Y110.852
G1 X88.885 Y111.635
G1 X88.165 Y112.414
G1 X87.438 Y113.186
G1 X86.705 Y113.954
G1 X85.965 Y114.715
G1 X85.218 Y115.471
G1 X84.465 Y116.222
G1 X83.705 Y116.966
G1 X82.939 Y117.705
G1 X82.167 Y118.438
G1 X81.388 Y119.165
G1 X80.603 Y119.886
G1 X80.477 Y120.000
G1 X38.036 Y120.000
G1 X37.437 Y119.482
G1 X36.635 Y118.776
G1 X35.838 Y118.063
G1 X35.047 Y117.343
G1 X34.261 Y116.616
G1 X33.481 Y115.883
G1 X32.707 Y115.142
G1 X31.938 Y114.395
G1 X31.175 Y113.641
G1 X30.418 Y112.881
G1 X29.667 Y112.114
G1 X28.922 Y111.340
G1 X28.182 Y110.560
G1 X27.449 Y109.773
G1 X26.722 Y108.980
G1 X26.001 Y108.180
G1 X25.287 Y107.374
G1 X24.578 Y106.562
G1 X23.876 Y105.744
G1 X23.181 Y104.919
G1 X22.492 Y104.089
G1 X21.809 Y103.252
G1 X21.133 Y102.409
G1 X20.463 Y101.561
G1 X19.800 Y100.706
G1 X19.144 Y99.845
G1 X18.494 Y98.979
G1 X17.852 Y98.107
G1 X17.216 Y97.229
G1 X16.587 Y96.346
G1 X15.965 Y95.457
G1 X15.350 Y94.562
G1 X14.742 Y93.662
G1 X14.141 Y92.756
G1 X13.547 Y91.845
G1 X12.960 Y90.929
G1 X12.381 Y90.008
G1 X11.809 Y89.081
G1 X11.244 Y88.149
G1 X10.687 Y87.212
G1 X10.137 Y86.270
G1 X9.594 Y85.323
G1 X9.059 Y84.372
G1 X8.531 Y83.415
G1 X8.011 Y82.453
G1 X7.499 Y81.487
G1 X6.994 Y80.516
G1 X6.497 Y79.541
G1 X6.008 Y78.561
G1 X5.526 Y77.576
G1 X5.053 Y76.588
G1 X4.587 Y75.594
G1 X4.129 Y74.597
G1 X3.679 Y73.595
G1 X3.237 Y72.589
G1 X2.803 Y71.579
G1 X2.377 Y70.565
G1 X1.959 Y69.547
G1 X1.549 Y68.525
G1 X1.147 Y67.499
G1 X0.754 Y66.469
G1 X0.368 Y65.436
G1 X0.000 Y64.424
G1 X0.000 Y16.274
G1 X0.675 Y15.928
G1 X1.663 Y15.432
G1 X2.655 Y14.944
G1 X3.652 Y14.465
G1 X4.653 Y13.993
G1 X5.659 Y13.529
G1 X6.669 Y13.073
G1 X7.683 Y12.626
G1 X8.702 Y12.187
G1 X9.724 Y11.756
G1 X10.751 Y11.333
G1 X11.781 Y10.918
G1 X12.816 Y10.512
G1 X13.854 Y10.114
G1 X14.896 Y9.725
G1 X15.942 Y9.343
G1 X16.991 Y8.971
G1 X18.044 Y8.607
G1 X19.101 Y8.251
G1 X20.161 Y7.904
G1 X21.224 Y7.565
G1 X22.290 Y7.236
G1 X23.360 Y6.914
G1 X24.433 Y6.602
G1 X25.509 Y6.298
G1 X26.588 Y6.003
G1 X27.670 Y5.716
G1 X28.755 Y5.439
G1 X29.842 Y5.170
G1 X30.933 Y4.910
G1 X32.026 Y4.659
G1 X33.121 Y4.417
G1 X34.219 Y4.183
G1 X35.320 Y3.959
G1 X36.423 Y3.743
G1 X37.528 Y3.537
G1 X38.635 Y3.339
G1 X39.745 Y3.151
G1 X40.857 Y2.971
G1 X41.970 Y2.801
G1 X43.086 Y2.640
G1 X44.203 Y2.487
G1 X45.323 Y2.344
G1 X46.443 Y2.210
G1 X47.566 Y2.085
G1 X48.690 Y1.970
G1 X49.816 Y1.863
G1 X50.943 Y1.766
G1 X52.071 Y1.677
G1 X53.200 Y1.598
G1 X54.331 Y1.529
G1 X55.463 Y1.468
G1 X56.596 Y1.417
G1 X57.730 Y1.375
G1 X58.864 Y1.342
G1 X60.000 Y1.319
G1 X61.136 Y1.305
G1 X62.273 Y1.300
G1 X63.411 Y1.305
G1 X64.549 Y1.318
G1 X65.687 Y1.342
G1 X66.826 Y1.374
G1 X67.965 Y1.416
G1 X69.104 Y1.467
G1 X70.243 Y1.527
G1 X71.382 Y1.597
G1 X72.522 Y1.676
G1 X73.661 Y1.765
G1 X74.800 Y1.863
G1 X75.939 Y1.970
G1 X77.077 Y2.087
G1 X78.215 Y2.213
G1 X79.353 Y2.348
G1 X80.489 Y2.493
G1 X81.626 Y2.647
G1 X82.761 Y2.810
G1 X83.896 Y2.983
G1 X85.030 Y3.165
G1 X86.162 Y3.356
G1 X87.294 Y3.557
G1 X88.425 Y3.767
G1 X89.555 Y3.986
G1 X90.683 Y4.215
G1 X91.810 Y4.453
G1 X92.935 Y4.700
G1 X94.059 Y4.957
G1 X95.181 Y5.223
G1 X96.302 Y5.498
G1 X97.421 Y5.782
G1 X98.538 Y6.076
G1 X99.654 Y6.379
G1 X100.767 Y6.691
G1 X101.879 Y7.012
G1 X102.988 Y7.343
G1 X104.095 Y7.682
G1 X105.200 Y8.031
G1 X106.302 Y8.389
G1 X107.402 Y8.756
G1 X108.500 Y9.132
G1 X109.595 Y9.518
G1 X110.687 Y9.912
G1 X111.777 Y10.315
G1 X112.863 Y10.728
G1 X113.947 Y11.149
G1 X115.028 Y11.580
G1 X116.106 Y12.019
G1 X117.181 Y12.468
G1 X118.253 Y12.925
G1 X119.322 Y13.391
G1 X120.000 Y13.694
G1 X120.000 Y75.881
G1 X119.623 Y76.779
G1 X119.160 Y77.859
G1 X118.688 Y78.936
G1 X118.206 Y80.010
G1 X117.716 Y81.080
G1 X117.216 Y82.146
G1 X116.707 Y83.209
G1 X116.190 Y84.268
G1 X115.664 Y85.323
G1 X115.128 Y86.375
G1 X114.584 Y87.423
G1 X114.031 Y88.466
G1 X113.469 Y89.506
G1 X112.899 Y90.541
G1 X112.319 Y91.572
G1 X111.731 Y92.599
G1 X111.135 Y93.622
G1 X110.529 Y94.640
G1 X109.916 Y95.654
G1 X109.293 Y96.663
G1 X108.662 Y97.667
G1 X108.022 Y98.667
G1 X107.374 Y99.662
G1 X106.718 Y100.652
G1 X106.053 Y101.637
G1 X105.380 Y102.617
G1 X104.698 Y103.593
G1 X104.009 Y104.563
G1 X103.311 Y105.527
G1 X102.604 Y106.487
G1 X101.890 Y107.441
G1 X101.168 Y108.390
G1 X100.437 Y109.333
G1 X99.698 Y110.271
G1 X98.952 Y111.203
G1 X98.197 Y112.129
G1 X97.435 Y113.050
G1 X96.665 Y113.965
G1 X95.887 Y114.874
G1 X95.101 Y115.777
G1 X94.307 Y116.674
G1 X93.506 Y117.565
G1 X92.697 Y118.450
G1 X91.881 Y119.329
G1 X91.247 Y120.000
G1 X26.908 Y120.000
G1 X26.606 Y119.695
G1 X25.759 Y118.827
G1 X24.919 Y117.952
G1 X24.086 Y117.069
G1 X23.260 Y116.179
G1 X22.441 Y115.281
G1 X21.629 Y114.377
G1 X20.824 Y113.465
G1 X20.026 Y112.547
G1 X19.235 Y111.621
G1 X18.452 Y110.689
G1 X17.676 Y109.750
G1 X16.907 Y108.804
G1 X16.146 Y107.851
G1 X15.392 Y106.891
G1 X14.646 Y105.925
G1 X13.907 Y104.953
G1 X13.176 Y103.974
G1 X12.453 Y102.988
G1 X11.737 Y101.996
G1 X11.030 Y100.998
G1 X10.330 Y99.994
G1 X9.638 Y98.983
G1 X8.954 Y97.967
G1 X8.278 Y96.944
G1 X7.611 Y95.915
G1 X6.951 Y94.881
G1 X6.300 Y93.840
G1 X5.656 Y92.794
G1 X5.022 Y91.742
G1 X4.395 Y90.684
G1 X3.777 Y89.621
G1 X3.167 Y88.552
G1 X2.566 Y87.478
G1 X1.974 Y86.398
G1 X1.390 Y85.313
G1 X0.814 Y84.223
G1 X0.247 Y83.128
G1 X0.000 Y82.640
G1 X0.000 Y7.252
G1 X0.035 Y7.236
G1 X1.178 Y6.735
G1 X2.325 Y6.243
G1 X3.476 Y5.760
G1 X4.633 Y5.287
G1 X5.793 Y4.823
G1 X6.958 Y4.368
G1 X8.127 Y3.923
G1 X9.300 Y3.487
G1 X10.477 Y3.061
G1 X11.659 Y2.644
G1 X12.844 Y2.237
G1 X14.033 Y1.839
G1 X15.226 Y1.451
G1 X16.422 Y1.073
G1 X17.622 Y0.704
G1 X18.826 Y0.345
G1 X20.019 Y0.000
G1 X104.859 Y0.000
G1 X105.702 Y0.238
G1 X106.946 Y0.600
G1 X108.188 Y0.973
G1 X109.427 Y1.355
G1 X110.664 Y1.748
G1 X111.898 Y2.151
G1 X113.129 Y2.565
G1 X114.358 Y2.988
G1 X115.583 Y3.422
G1 X116.805 Y3.866
G1 X118.024 Y4.320
G1 X119.240 Y4.784
G1 X120.000 Y5.081
G1 X120.000 Y92.537
G1 X119.761 Y92.977
G1 X119.121 Y94.134
G1 X118.472 Y95.285
G1 X117.813 Y96.432
G1 X117.144 Y97.573
G1 X116.466 Y98.710
G1 X115.778 Y99.841
G1 X115.081 Y100.968
G1 X114.374 Y102.089
G1 X113.657 Y103.204
G1 X112.932 Y104.315
G1 X112.197 Y105.419
G1 X111.452 Y106.519
G1 X110.698 Y107.612
G1 X109.935 Y108.700
G1 X109.163 Y109.782
G1 X108.382 Y110.858
G1 X107.591 Y111.928
G1 X106.792 Y112.993
G1 X105.983 Y114.051
G1 X105.166 Y115.102
G1 X104.340 Y116.148
G1 X103.504 Y117.187
G1 X102.660 Y118.220
G1 X101.808 Y119.247
G1 X101.171 Y120.000
G1 X16.752 Y120.000
G1 X16.361 Y119.556
G1 X15.473 Y118.531
G1 X14.594 Y117.498
G1 X13.723 Y116.458
G1 X12.860 Y115.410
G1 X12.005 Y114.355
G1 X11.159 Y113.292
G1 X10.321 Y112.222
G1 X9.491 Y111.145
G1 X8.670 Y110.060
G1 X7.858 Y108.968
G1 X7.054 Y107.870
G1 X6.259 Y106.764
G1 X5.472 Y105.651
G1 X4.695 Y104.531
G1 X3.926 Y103.405
G1 X3.166 Y102.271
G1 X2.416 Y101.131
G1 X1.674 Y99.985
G1 X0.942 Y98.832
G1 X0.218 Y97.672
G1 X0.000 Y97.316
G1 X0.000 Y120.000
G1 X120.000 Y120.000
G1 X120.000 Y106.643
G1 X119.292 Y107.741
G1 X118.489 Y108.967
G1 X117.675 Y110.187
G1 X116.851 Y111.400
G1 X116.017 Y112.607
G1 X115.172 Y113.807
G1 X114.318 Y115.001
G1 X113.453 Y116.189
G1 X112.578 Y117.370
G1 X111.694 Y118.544
G1 X110.799 Y119.711
G1 X110.574 Y120.000
G1 X7.179 Y120.000
G1 X7.103 Y119.906
G1 X6.172 Y118.734
G1 X5.249 Y117.553
G1 X4.336 Y116.364
G1 X3.433 Y115.168
G1 X2.539 Y113.963
G1 X1.655 Y112.751
G1 X0.780 Y111.531
G1 X0.000 Y110.424
G1 X0.000 Y114.592
G1 X0.000 Y0.000

