;  Created by Sandify
;  https://sandify.org
;  Version: 0.2.8
;
;  Machine type: Rectangular
;    Min X (mm): 0
;    Max X (mm): 120
;    Min Y (mm): 0
;    Max Y (mm): 120
;  Content type: shape
;  Layer:
;    Shape: Circle
;    Name: point
;    Number of lobes: 1
;    Direction: clockwise
;    Visible: true
;    Initial width: 10
;    Initial height: 10
;    X offset: 0
;    Y offset: 0
;    Rotate (degrees): 0
;    Reverse path: false
;    Number of loops: 10
;    When transforming shape: smear
;    Scale: true
;      Scale (+/-): 100
;      Scale by: constant
;    Spin: false
;    Track: false
;    Fine tuning:
;      Connect to next layer: line
;      Draw portion of path (%): 100
;      Backtrack at end (%): 0
;      Rotate starting point (%): 0
;  Reverse export path: false
;
; File name: 'spiral'
; File type: gcode
;

G1 X70.000 Y60.000
G1 X70.066 Y60.495
G1 X70.107 Y60.995
G1 X70.124 Y61.502
G1 X70.114 Y62.012
G1 X70.079 Y62.525
G1 X70.018 Y63.039
G1 X69.930 Y63.553
G1 X69.816 Y64.066
G1 X69.676 Y64.576
G1 X69.508 Y65.082
G1 X69.314 Y65.583
G1 X69.094 Y66.077
G1 X68.848 Y66.562
G1 X68.576 Y67.038
G1 X68.278 Y67.503
G1 X67.955 Y67.955
G1 X67.608 Y68.394
G1 X67.236 Y68.817
G1 X66.841 Y69.224
G1 X66.424 Y69.614
G1 X65.984 Y69.984
G1 X65.524 Y70.335
G1 X65.044 Y70.664
G1 X64.544 Y70.971
G1 X64.027 Y71.254
G1 X63.492 Y71.513
G1 X62.942 Y71.746
G1 X62.378 Y71.953
G1 X61.800 Y72.133
G1 X61.210 Y72.284
G1 X60.610 Y72.407
G1 X60.000 Y72.500
G1 X59.383 Y72.563
G1 X58.759 Y72.595
G1 X58.131 Y72.597
G1 X57.500 Y72.566
G1 X56.868 Y72.504
G1 X56.235 Y72.410
G1 X55.605 Y72.284
G1 X54.977 Y72.126
G1 X54.355 Y71.935
G1 X53.739 Y71.713
G1 X53.132 Y71.459
G1 X52.535 Y71.173
G1 X51.949 Y70.856
G1 X51.376 Y70.508
G1 X50.819 Y70.130
G1 X50.277 Y69.723
G1 X49.754 Y69.286
G1 X49.250 Y68.822
G1 X48.768 Y68.330
G1 X48.307 Y67.813
G1 X47.871 Y67.270
G1 X47.460 Y66.703
G1 X47.076 Y66.113
G1 X46.719 Y65.501
G1 X46.392 Y64.869
G1 X46.094 Y64.218
G1 X45.828 Y63.550
G1 X45.595 Y62.865
G1 X45.394 Y62.167
G1 X45.228 Y61.455
G1 X45.096 Y60.732
G1 X45.000 Y60.000
G1 X44.940 Y59.260
G1 X44.917 Y58.514
G1 X44.931 Y57.765
G1 X44.982 Y57.013
G1 X45.071 Y56.260
G1 X45.197 Y55.510
G1 X45.362 Y54.762
G1 X45.564 Y54.021
G1 X45.805 Y53.286
G1 X46.082 Y52.561
G1 X46.397 Y51.847
G1 X46.748 Y51.146
G1 X47.136 Y50.460
G1 X47.559 Y49.790
G1 X48.017 Y49.140
G1 X48.510 Y48.510
G1 X49.035 Y47.902
G1 X49.592 Y47.318
G1 X50.180 Y46.760
G1 X50.798 Y46.229
G1 X51.445 Y45.727
G1 X52.119 Y45.255
G1 X52.818 Y44.816
G1 X53.542 Y44.410
G1 X54.289 Y44.038
G1 X55.056 Y43.702
G1 X55.843 Y43.403
G1 X56.647 Y43.143
G1 X57.467 Y42.921
G1 X58.300 Y42.740
G1 X59.145 Y42.599
G1 X60.000 Y42.500
G1 X60.863 Y42.443
G1 X61.731 Y42.429
G1 X62.602 Y42.458
G1 X63.475 Y42.530
G1 X64.347 Y42.646
G1 X65.216 Y42.805
G1 X66.080 Y43.008
G1 X66.936 Y43.255
G1 X67.783 Y43.545
G1 X68.618 Y43.877
G1 X69.439 Y44.253
G1 X70.243 Y44.670
G1 X71.030 Y45.128
G1 X71.796 Y45.627
G1 X72.539 Y46.165
G1 X73.258 Y46.742
G1 X73.951 Y47.356
G1 X74.615 Y48.006
G1 X75.248 Y48.691
G1 X75.850 Y49.409
G1 X76.417 Y50.160
G1 X76.949 Y50.940
G1 X77.444 Y51.750
G1 X77.900 Y52.586
G1 X78.316 Y53.446
G1 X78.690 Y54.330
G1 X79.022 Y55.235
G1 X79.309 Y56.159
G1 X79.552 Y57.100
G1 X79.748 Y58.055
G1 X79.898 Y59.022
G1 X80.000 Y60.000
G1 X80.054 Y60.985
G1 X80.059 Y61.976
G1 X80.015 Y62.969
G1 X79.922 Y63.963
G1 X79.780 Y64.955
G1 X79.587 Y65.942
G1 X79.346 Y66.922
G1 X79.055 Y67.893
G1 X78.715 Y68.852
G1 X78.327 Y69.796
G1 X77.892 Y70.724
G1 X77.409 Y71.632
G1 X76.880 Y72.519
G1 X76.306 Y73.382
G1 X75.687 Y74.218
G1 X75.026 Y75.026
G1 X74.323 Y75.803
G1 X73.580 Y76.547
G1 X72.798 Y77.256
G1 X71.979 Y77.929
G1 X71.126 Y78.562
G1 X70.238 Y79.154
G1 X69.319 Y79.704
G1 X68.371 Y80.210
G1 X67.396 Y80.670
G1 X66.395 Y81.083
G1 X65.372 Y81.447
G1 X64.329 Y81.761
G1 X63.267 Y82.025
G1 X62.190 Y82.236
G1 X61.100 Y82.395
G1 X60.000 Y82.500
G1 X58.892 Y82.551
G1 X57.779 Y82.547
G1 X56.664 Y82.488
G1 X55.550 Y82.374
G1 X54.438 Y82.205
G1 X53.333 Y81.980
G1 X52.236 Y81.700
G1 X51.150 Y81.365
G1 X50.079 Y80.975
G1 X49.025 Y80.532
G1 X47.991 Y80.036
G1 X46.979 Y79.488
G1 X45.992 Y78.888
G1 X45.032 Y78.238
G1 X44.103 Y77.540
G1 X43.206 Y76.794
G1 X42.345 Y76.002
G1 X41.520 Y75.166
G1 X40.736 Y74.287
G1 X39.993 Y73.368
G1 X39.294 Y72.411
G1 X38.641 Y71.417
G1 X38.036 Y70.388
G1 X37.480 Y69.328
G1 X36.976 Y68.238
G1 X36.525 Y67.121
G1 X36.128 Y65.980
G1 X35.787 Y64.816
G1 X35.502 Y63.634
G1 X35.276 Y62.435
G1 X35.108 Y61.223
G1 X35.000 Y60.000
G1 X34.952 Y58.769
G1 X34.965 Y57.534
G1 X35.039 Y56.297
G1 X35.174 Y55.062
G1 X35.370 Y53.831
G1 X35.628 Y52.607
G1 X35.946 Y51.394
G1 X36.326 Y50.194
G1 X36.765 Y49.010
G1 X37.263 Y47.847
G1 X37.820 Y46.706
G1 X38.434 Y45.590
G1 X39.104 Y44.503
G1 X39.829 Y43.446
G1 X40.608 Y42.424
G1 X41.438 Y41.438
G1 X42.319 Y40.492
G1 X43.248 Y39.588
G1 X44.223 Y38.728
G1 X45.243 Y37.914
G1 X46.304 Y37.150
G1 X47.405 Y36.436
G1 X48.543 Y35.776
G1 X49.715 Y35.171
G1 X50.920 Y34.622
G1 X52.153 Y34.133
G1 X53.413 Y33.703
G1 X54.696 Y33.335
G1 X55.999 Y33.029
G1 X57.320 Y32.788
G1 X58.654 Y32.611
G1 X60.000 Y32.500
G1 X61.353 Y32.455
G1 X62.711 Y32.477
G1 X64.069 Y32.566
G1 X65.426 Y32.722
G1 X66.777 Y32.945
G1 X68.119 Y33.236
G1 X69.449 Y33.593
G1 X70.763 Y34.016
G1 X72.058 Y34.505
G1 X73.332 Y35.058
G1 X74.580 Y35.675
G1 X75.799 Y36.355
G1 X76.987 Y37.096
G1 X78.140 Y37.897
G1 X79.255 Y38.756
G1 X80.329 Y39.671
G1 X81.360 Y40.640
G1 X82.345 Y41.662
G1 X83.280 Y42.734
G1 X84.165 Y43.854
G1 X84.995 Y45.019
G1 X85.769 Y46.226
G1 X86.484 Y47.474
G1 X87.139 Y48.759
G1 X87.731 Y50.078
G1 X88.260 Y51.428
G1 X88.722 Y52.806
G1 X89.117 Y54.208
G1 X89.443 Y55.632
G1 X89.700 Y57.075
G1 X89.886 Y58.532
G1 X90.000 Y60.000
G1 X90.042 Y61.476
G1 X90.011 Y62.956
G1 X89.907 Y64.436
G1 X89.730 Y65.914
G1 X89.480 Y67.384
G1 X89.157 Y68.845
G1 X88.761 Y70.291
G1 X88.294 Y71.720
G1 X87.755 Y73.127
G1 X87.147 Y74.510
G1 X86.469 Y75.865
G1 X85.724 Y77.188
G1 X84.912 Y78.476
G1 X84.036 Y79.726
G1 X83.097 Y80.934
G1 X82.097 Y82.097
G1 X81.039 Y83.213
G1 X79.924 Y84.277
G1 X78.755 Y85.288
G1 X77.535 Y86.243
G1 X76.267 Y87.139
G1 X74.952 Y87.973
G1 X73.595 Y88.744
G1 X72.198 Y89.449
G1 X70.765 Y90.085
G1 X69.298 Y90.652
G1 X67.802 Y91.147
G1 X66.279 Y91.569
G1 X64.734 Y91.916
G1 X63.170 Y92.188
G1 X61.591 Y92.383
G1 X60.000 Y92.500
G1 X58.401 Y92.539
G1 X56.799 Y92.499
G1 X55.197 Y92.380
G1 X53.599 Y92.182
G1 X52.008 Y91.905
G1 X50.430 Y91.549
G1 X48.867 Y91.115
G1 X47.324 Y90.604
G1 X45.804 Y90.015
G1 X44.311 Y89.351
G1 X42.850 Y88.613
G1 X41.423 Y87.802
G1 X40.035 Y86.920
G1 X38.688 Y85.968
G1 X37.387 Y84.949
G1 X36.135 Y83.865
G1 X34.935 Y82.718
G1 X33.790 Y81.510
G1 X32.703 Y80.244
G1 X31.678 Y78.924
G1 X30.717 Y77.552
G1 X29.822 Y76.131
G1 X28.996 Y74.664
G1 X28.242 Y73.155
G1 X27.561 Y71.607
G1 X26.956 Y70.024
G1 X26.428 Y68.409
G1 X25.979 Y66.767
G1 X25.611 Y65.101
G1 X25.324 Y63.415
G1 X25.120 Y61.714
G1 X25.000 Y60.000
G1 X24.964 Y58.279
G1 X25.013 Y56.554
G1 X25.147 Y54.830
G1 X25.366 Y53.111
G1 X25.670 Y51.401
G1 X26.059 Y49.704
G1 X26.531 Y48.025
G1 X27.087 Y46.367
G1 X27.725 Y44.735
G1 X28.444 Y43.133
G1 X29.242 Y41.565
G1 X30.119 Y40.034
G1 X31.072 Y38.546
G1 X32.099 Y37.102
G1 X33.198 Y35.708
G1 X34.367 Y34.367
G1 X35.604 Y33.083
G1 X36.904 Y31.858
G1 X38.266 Y30.695
G1 X39.687 Y29.599
G1 X41.163 Y28.572
G1 X42.691 Y27.617
G1 X44.267 Y26.736
G1 X45.889 Y25.932
G1 X47.551 Y25.207
G1 X49.250 Y24.563
G1 X50.983 Y24.003
G1 X52.745 Y23.527
G1 X54.532 Y23.138
G1 X56.340 Y22.836
G1 X58.164 Y22.623
G1 X60.000 Y22.500
G1 X61.844 Y22.467
G1 X63.691 Y22.525
G1 X65.537 Y22.674
G1 X67.377 Y22.914
G1 X69.207 Y23.245
G1 X71.022 Y23.666
G1 X72.818 Y24.177
G1 X74.590 Y24.777
G1 X76.334 Y25.465
G1 X78.046 Y26.239
G1 X79.721 Y27.098
G1 X81.355 Y28.040
G1 X82.944 Y29.064
G1 X84.484 Y30.167
G1 X85.970 Y31.346
G1 X87.400 Y32.600
G1 X88.770 Y33.925
G1 X90.075 Y35.318
G1 X91.313 Y36.777
G1 X92.479 Y38.298
G1 X93.572 Y39.878
G1 X94.588 Y41.512
G1 X95.524 Y43.198
G1 X96.378 Y44.932
G1 X97.147 Y46.709
G1 X97.829 Y48.525
G1 X98.422 Y50.376
G1 X98.925 Y52.257
G1 X99.335 Y54.165
G1 X99.652 Y56.095
G1 X99.874 Y58.041
G1 X100.000 Y60.000
G1 X100.030 Y61.967
G1 X99.963 Y63.936
G1 X99.799 Y65.904
G1 X99.538 Y67.865
G1 X99.180 Y69.814
G1 X98.726 Y71.747
G1 X98.177 Y73.660
G1 X97.533 Y75.547
G1 X96.795 Y77.403
G1 X95.966 Y79.224
G1 X95.046 Y81.006
G1 X94.038 Y82.744
G1 X92.944 Y84.433
G1 X91.766 Y86.070
G1 X90.506 Y87.649
G1 X89.168 Y89.168
G1 X87.754 Y90.622
G1 X86.268 Y92.007
G1 X84.712 Y93.321
G1 X83.091 Y94.558
G1 X81.408 Y95.716
G1 X79.666 Y96.793
G1 X77.870 Y97.784
G1 X76.025 Y98.687
G1 X74.134 Y99.501
G1 X72.201 Y100.221
G1 X70.232 Y100.847
G1 X68.230 Y101.377
G1 X66.202 Y101.808
G1 X64.150 Y102.140
G1 X62.082 Y102.371
G1 X60.000 Y102.500
G1 X57.911 Y102.527
G1 X55.819 Y102.451
G1 X53.730 Y102.272
G1 X51.648 Y101.990
G1 X49.578 Y101.605
G1 X47.527 Y101.119
G1 X45.498 Y100.531
G1 X43.497 Y99.842
G1 X41.528 Y99.055
G1 X39.597 Y98.171
G1 X37.709 Y97.191
G1 X35.867 Y96.117
G1 X34.078 Y94.952
G1 X32.344 Y93.698
G1 X30.672 Y92.359
G1 X29.064 Y90.936
G1 X27.526 Y89.433
G1 X26.060 Y87.854
G1 X24.671 Y86.201
G1 X23.363 Y84.480
G1 X22.139 Y82.693
G1 X21.003 Y80.845
G1 X19.956 Y78.939
G1 X19.003 Y76.982
G1 X18.145 Y74.976
G1 X17.386 Y72.927
G1 X16.728 Y70.839
G1 X16.171 Y68.718
G1 X15.719 Y66.568
G1 X15.372 Y64.395
G1 X15.132 Y62.204
G1 X15.000 Y60.000
G1 X14.976 Y57.788
G1 X15.061 Y55.574
G1 X15.255 Y53.363
G1 X15.558 Y51.160
G1 X15.970 Y48.971
G1 X16.489 Y46.801
G1 X17.116 Y44.656
G1 X17.848 Y42.540
G1 X18.685 Y40.459
G1 X19.625 Y38.419
G1 X20.665 Y36.424
G1 X21.804 Y34.478
G1 X23.040 Y32.589
G1 X24.369 Y30.758
G1 X25.789 Y28.993
G1 X27.296 Y27.296
G1 X28.888 Y25.673
G1 X30.560 Y24.127
G1 X32.309 Y22.663
G1 X34.131 Y21.285
G1 X36.022 Y19.995
G1 X37.977 Y18.798
G1 X39.992 Y17.696
G1 X42.062 Y16.693
G1 X44.182 Y15.792
G1 X46.348 Y14.994
G1 X48.553 Y14.302
G1 X50.794 Y13.719
G1 X53.065 Y13.246
G1 X55.360 Y12.884
G1 X57.673 Y12.635
G1 X60.000 Y12.500
G1 X62.335 Y12.479
G1 X64.671 Y12.573
G1 X67.004 Y12.782
G1 X69.328 Y13.106
G1 X71.636 Y13.545
G1 X73.925 Y14.097
G1 X76.187 Y14.762
G1 X78.417 Y15.538
G1 X80.609 Y16.425
G1 X82.760 Y17.420
G1 X84.862 Y18.521
G1 X86.910 Y19.726
G1 X88.901 Y21.032
G1 X90.828 Y22.437
G1 X92.686 Y23.937
G1 X94.471 Y25.529
G1 X96.179 Y27.209
G1 X97.805 Y28.974
G1 X99.345 Y30.820
G1 X100.794 Y32.742
G1 X102.149 Y34.737
G1 X103.407 Y36.798
G1 X104.564 Y38.923
G1 X105.617 Y41.105
G1 X106.562 Y43.340
G1 X107.398 Y45.622
G1 X108.123 Y47.946
G1 X108.733 Y50.306
G1 X109.227 Y52.698
G1 X109.604 Y55.114
G1 X109.862 Y57.550
G1 X110.000 Y60.000
G1 X110.018 Y62.457
G1 X109.915 Y64.916
G1 X109.691 Y67.371
G1 X109.346 Y69.815
G1 X108.880 Y72.244
G1 X108.296 Y74.650
G1 X107.592 Y77.029
G1 X106.771 Y79.373
G1 X105.835 Y81.678
G1 X104.785 Y83.938
G1 X103.624 Y86.147
G1 X102.353 Y88.299
G1 X100.976 Y90.390
G1 X99.496 Y92.414
G1 X97.916 Y94.365
G1 X96.239 Y96.239
G1 X94.470 Y98.032
G1 X92.612 Y99.738
G1 X90.669 Y101.353
G1 X88.647 Y102.873
G1 X86.549 Y104.294
G1 X84.380 Y105.612
G1 X82.146 Y106.824
G1 X79.852 Y107.926
G1 X77.502 Y108.916
G1 X75.104 Y109.791
G1 X72.662 Y110.548
G1 X70.181 Y111.185
G1 X67.669 Y111.700
G1 X65.131 Y112.092
G1 X62.572 Y112.359
G1 X60.000 Y112.500
G1 X57.420 Y112.515
G1 X54.839 Y112.403
G1 X52.262 Y112.164
G1 X49.697 Y111.798
G1 X47.149 Y111.306
G1 X44.624 Y110.688
G1 X42.129 Y109.946
G1 X39.670 Y109.081
G1 X37.253 Y108.095
G1 X34.883 Y106.990
G1 X32.568 Y105.768
G1 X30.312 Y104.432
G1 X28.121 Y102.984
G1 X26.000 Y101.429
G1 X23.956 Y99.768
G1 X21.993 Y98.007
G1 X20.116 Y96.149
G1 X18.330 Y94.198
G1 X16.639 Y92.158
G1 X15.049 Y90.036
G1 X13.562 Y87.834
G1 X12.183 Y85.559
G1 X10.916 Y83.215
G1 X9.764 Y80.808
G1 X8.730 Y78.345
G1 X7.817 Y75.830
G1 X7.027 Y73.269
G1 X6.363 Y70.669
G1 X5.827 Y68.036
G1 X5.420 Y65.376
G1 X5.144 Y62.695
G1 X5.000 Y60.000
G1 X4.988 Y57.297
G1 X5.109 Y54.594
G1 X5.363 Y51.895
G1 X5.750 Y49.209
G1 X6.269 Y46.541
G1 X6.920 Y43.898
G1 X7.700 Y41.287
G1 X8.609 Y38.713
G1 X9.645 Y36.184
G1 X10.805 Y33.705
G1 X12.088 Y31.283
G1 X13.490 Y28.923
G1 X15.008 Y26.632
G1 X16.639 Y24.415
G1 X18.379 Y22.277
G1 X20.225 Y20.225
G1 X22.172 Y18.264
G1 X24.216 Y16.397
G1 X26.352 Y14.631
G1 X28.576 Y12.970
G1 X30.881 Y11.418
G1 X33.263 Y9.979
G1 X35.716 Y8.656
G1 X38.235 Y7.454
G1 X40.813 Y6.376
G1 X43.445 Y5.424
G1 X46.124 Y4.602
G1 X48.843 Y3.911
G1 X51.597 Y3.354
G1 X54.379 Y2.932
G1 X57.182 Y2.647
G1 X60.000 Y2.500
G1 X62.825 Y2.491
G1 X65.651 Y2.621
G1 X68.471 Y2.891
G1 X71.279 Y3.298
G1 X74.066 Y3.844
G1 X76.827 Y4.527
G1 X79.555 Y5.346
G1 X82.243 Y6.300
G1 X84.885 Y7.385
G1 X87.474 Y8.601
G1 X90.003 Y9.943
G1 X92.466 Y11.411
G1 X94.858 Y13.000
G1 X97.171 Y14.706
G1 X99.402 Y16.527
G1 X101.543 Y18.457
G1 X103.589 Y20.493
G1 X105.535 Y22.630
G1 X107.377 Y24.863
G1 X109.109 Y27.187
G1 X110.727 Y29.596
G1 X112.226 Y32.084
G1 X113.604 Y34.647
G1 X114.855 Y37.278
G1 X115.978 Y39.971
G1 X116.968 Y42.719
G1 X117.823 Y45.516
G1 X118.541 Y48.356
G1 X119.119 Y51.231
G1 X119.556 Y54.134
G1 X119.850 Y57.060
G1 X120.000 Y60.000
G1 X120.000 Y63.070
G1 X119.867 Y65.896
G1 X119.582 Y68.838
G1 X119.154 Y71.766
G1 X118.581 Y74.674
G1 X117.865 Y77.553
G1 X117.008 Y80.398
G1 X116.010 Y83.200
G1 X114.875 Y85.954
G1 X113.604 Y88.652
G1 X112.201 Y91.288
G1 X110.668 Y93.855
G1 X109.008 Y96.347
G1 X107.226 Y98.757
G1 X105.325 Y101.081
G1 X103.310 Y103.310
G1 X101.185 Y105.441
G1 X98.956 Y107.468
G1 X96.626 Y109.385
G1 X94.202 Y111.187
G1 X91.690 Y112.871
G1 X89.094 Y114.431
G1 X86.422 Y115.864
G1 X83.679 Y117.165
G1 X80.871 Y118.332
G1 X78.007 Y119.360
G1 X75.906 Y120.000
G1 X40.871 Y120.000
G1 X38.760 Y119.361
G1 X35.843 Y118.320
G1 X32.977 Y117.135
G1 X30.169 Y115.809
G1 X27.427 Y114.345
G1 X24.756 Y112.746
G1 X22.164 Y111.016
G1 X19.657 Y109.159
G1 X17.241 Y107.178
G1 X14.922 Y105.078
G1 X12.706 Y102.864
G1 X10.600 Y100.542
G1 X8.607 Y98.115
G1 X6.734 Y95.591
G1 X4.985 Y92.975
G1 X3.364 Y90.273
G1 X1.876 Y87.490
G1 X0.525 Y84.635
G1 X0.000 Y83.368
G1 X0.000 Y33.368
G1 X0.605 Y31.908
G1 X1.986 Y28.991
G1 X3.511 Y26.142
G1 X5.175 Y23.367
G1 X6.976 Y20.675
G1 X8.909 Y18.071
G1 X10.970 Y15.562
G1 X13.154 Y13.154
G1 X15.457 Y10.854
G1 X17.872 Y8.667
G1 X20.395 Y6.599
G1 X23.020 Y4.655
G1 X25.740 Y2.840
G1 X28.549 Y1.159
G1 X30.722 Y0.000
G1 X92.595 Y0.000
G1 X95.144 Y1.366
G1 X98.022 Y3.096
G1 X100.815 Y4.968
G1 X103.515 Y6.976
G1 X106.117 Y9.117
G1 X108.614 Y11.386
G1 X110.998 Y13.778
G1 X113.265 Y16.286
G1 X115.409 Y18.906
G1 X117.423 Y21.631
G1 X119.304 Y24.455
G1 X120.000 Y25.620
G1 X120.000 Y97.721
G1 X118.982 Y99.411
G1 X117.040 Y102.304
G1 X114.956 Y105.101
G1 X112.735 Y107.796
G1 X110.381 Y110.381
G1 X107.901 Y112.851
G1 X105.300 Y115.198
G1 X102.583 Y117.417
G1 X99.758 Y119.502
G1 X99.009 Y120.000
G1 X17.622 Y120.000
G1 X16.207 Y119.048
G1 X13.313 Y116.889
G1 X10.525 Y114.587
G1 X7.851 Y112.149
G1 X5.297 Y109.580
G1 X2.870 Y106.886
G1 X0.575 Y104.072
G1 X0.000 Y103.292
G1 X0.000 Y13.304
G1 X1.179 Y11.727
G1 X3.560 Y8.846
G1 X6.083 Y6.083
G1 X8.741 Y3.445
G1 X11.528 Y0.937
G1 X12.679 Y0.000
G1 X110.770 Y0.000
G1 X112.833 Y1.708
G1 X115.685 Y4.315
G1 X118.408 Y7.062
G1 X120.000 Y8.835
G1 X120.000 Y114.669
G1 X117.452 Y117.452
G1 X114.879 Y120.000
G1 X1.631 Y120.000
G1 X0.780 Y119.220
G1 X0.000 Y118.432
G1 X0.000 Y119.200
G1 X0.000 Y0.000

