;  Created by Sandify
;  https://sandify.org
;  Version: 0.2.8
;
;  Machine type: Rectangular
;    Min X (mm): 0
;    Max X (mm): 120
;    Min Y (mm): 0
;    Max Y (mm): 120
;  Content type: shape
;  Layer:
;    Shape: Star
;    Name: point
;    Number of points: 5
;    Size of points: 0.5
;    Visible: true
;    Initial width: 10
;    Initial height: 10
;    X offset: 0
;    Y offset: 0
;    Rotate (degrees): 0
;    Reverse path: false
;    Number of loops: 10
;    When transforming shape: smear
;    Scale: true
;      Scale (+/-): 100
;      Scale by: constant
;    Spin: false
;    Track: false
;    Fine tuning:
;      Connect to next layer: line
;      Draw portion of path (%): 100
;      Backtrack at end (%): 0
;      Rotate starting point (%): 0
;  Reverse export path: false
;
; File name: 'star'
; File type: gcode
;

G1 X65.000 Y60.000
G1 X68.899 Y66.466
G1 X61.854 Y65.706
G1 X55.983 Y72.364
G1 X54.337 Y64.114
G1 X45.000 Y60.000
G1 X53.528 Y55.298
G1 X54.747 Y43.832
G1 X62.781 Y51.440
G1 X75.371 Y48.832
G1 X70.000 Y60.000
G1 X76.989 Y72.343
G1 X63.399 Y70.462
G1 X52.893 Y81.874
G1 X50.292 Y67.053
G1 X35.000 Y60.000
G1 X49.483 Y52.359
G1 X51.657 Y34.321
G1 X64.326 Y46.685
G1 X83.461 Y42.954
G1 X75.000 Y60.000
G1 X85.080 Y78.221
G1 X64.944 Y75.217
G1 X49.802 Y91.385
G1 X46.247 Y69.992
G1 X25.000 Y60.000
G1 X45.438 Y49.420
G1 X48.566 Y24.811
G1 X65.871 Y41.930
G1 X91.552 Y37.076
G1 X80.000 Y60.000
G1 X93.170 Y84.099
G1 X66.489 Y79.972
G1 X46.712 Y100.895
G1 X42.202 Y72.931
G1 X15.000 Y60.000
G1 X41.393 Y46.481
G1 X45.476 Y15.300
G1 X67.416 Y37.175
G1 X99.642 Y31.199
G1 X85.000 Y60.000
G1 X101.260 Y89.977
G1 X68.034 Y84.727
G1 X43.622 Y110.406
G1 X38.157 Y75.870
G1 X5.000 Y60.000
G1 X37.348 Y43.542
G1 X42.386 Y5.790
G1 X68.961 Y32.419
G1 X107.732 Y25.321
G1 X90.000 Y60.000
G1 X109.350 Y95.855
G1 X69.580 Y89.483
G1 X40.532 Y119.917
G1 X34.111 Y78.809
G1 X0.000 Y62.405
G1 X0.000 Y57.468
G1 X33.302 Y40.603
G1 X38.793 Y0.000
G1 X42.996 Y0.000
G1 X70.507 Y27.664
G1 X115.822 Y19.443
G1 X95.000 Y60.000
G1 X117.440 Y101.733
G1 X71.125 Y94.238
G1 X46.465 Y120.000
G1 X35.983 Y120.000
G1 X30.066 Y81.748
G1 X0.000 Y67.239
G1 X0.000 Y52.430
G1 X29.257 Y37.664
G1 X34.399 Y0.000
G1 X49.329 Y0.000
G1 X72.052 Y22.909
G1 X120.000 Y14.270
G1 X120.000 Y21.162
G1 X100.000 Y60.000
G1 X120.000 Y97.297
G1 X120.000 Y106.709
G1 X72.670 Y98.993
G1 X52.518 Y120.000
G1 X31.444 Y120.000
G1 X26.021 Y84.687
G1 X0.000 Y72.096
G1 X0.000 Y47.416
G1 X25.212 Y34.725
G1 X29.988 Y0.000
G1 X55.627 Y0.000
G1 X73.597 Y18.154
G1 X120.000 Y9.838
G1 X120.000 Y30.940
G1 X105.000 Y60.000
G1 X120.000 Y88.033
G1 X120.000 Y111.255
G1 X74.215 Y103.749
G1 X58.598 Y120.000
G1 X26.918 Y120.000
G1 X21.976 Y87.626
G1 X0.000 Y76.970
G1 X0.000 Y42.419
G1 X21.167 Y31.786
G1 X25.564 Y0.000
G1 X61.900 Y0.000
G1 X75.142 Y13.398
G1 X120.000 Y5.394
G1 X120.000 Y40.663
G1 X110.000 Y60.000
G1 X120.000 Y78.721
G1 X120.000 Y115.790
G1 X75.760 Y108.504
G1 X64.698 Y120.000
G1 X22.404 Y120.000
G1 X17.931 Y90.565
G1 X0.000 Y81.856
G1 X0.000 Y37.434
G1 X17.122 Y28.847
G1 X21.131 Y0.000
G1 X68.156 Y0.000
G1 X76.687 Y8.643
G1 X120.000 Y0.942
G1 X120.000 Y0.477
G1 X120.000 Y0.000
G1 X0.000 Y0.000
G1 X0.000 Y0.000

